(G-CODE GENERATED BY FLATCAM v8.901 - www.flatcam.org - Version Date: 2019/01/09)

(Name: Clever_Light.drl_cnc_1)
(Type: G-code from Excellon)
(Units: MM)

(Created on Воскресенье, 11 августа 2019 at 21:14)

(Feedrate: 30.0 mm/min)
(Feedrate rapids 10.0 mm/min)

(Z_Cut: -1.6 mm)
(Z_Move: 1.0 mm)
(Z Toolchange: 30.0 mm)
(X,Y Toolchange: 0.0000, 0.0000 mm)
(Z Start: None mm)
(Z End: 20.0 mm)
(Steps per circle: 64)
(Postprocessor Excellon: default)
(Spindle Speed: None RPM)

G21
G90
G94

G01 F30.00
G00 Z1.0000

M03
G4 P1
G00 X43.9420 Y24.6380
G01 Z-1.6000
G01 Z0
G00 Z1.0000
G00 X41.4020 Y24.6380
G01 Z-1.6000
G01 Z0
G00 Z1.0000
G00 X41.4020 Y22.0980
G01 Z-1.6000
G01 Z0
G00 Z1.0000
G00 X41.4020 Y19.5580
G01 Z-1.6000
G01 Z0
G00 Z1.0000
G00 X41.4020 Y17.0180
G01 Z-1.6000
G01 Z0
G00 Z1.0000
G00 X41.4020 Y14.4780
G01 Z-1.6000
G01 Z0
G00 Z1.0000
G00 X41.4020 Y11.9380
G01 Z-1.6000
G01 Z0
G00 Z1.0000
G00 X41.4020 Y9.3980
G01 Z-1.6000
G01 Z0
G00 Z1.0000
G00 X43.9420 Y9.3980
G01 Z-1.6000
G01 Z0
G00 Z1.0000
G00 X43.9420 Y11.9380
G01 Z-1.6000
G01 Z0
G00 Z1.0000
G00 X43.9420 Y14.4780
G01 Z-1.6000
G01 Z0
G00 Z1.0000
G00 X43.9420 Y17.0180
G01 Z-1.6000
G01 Z0
G00 Z1.0000
G00 X43.9420 Y19.5580
G01 Z-1.6000
G01 Z0
G00 Z1.0000
G00 X43.9420 Y22.0980
G01 Z-1.6000
G01 Z0
G00 Z1.0000
M05
G00 Z20.00
G00 X0.0Y0.0

