(G-CODE GENERATED BY FLATCAM v8.93 - www.flatcam.org - Version Date: 2019/08/10)

(Name: Clever_Light-drill-d1.1)
(Type: G-code from Excellon)
(Units: MM)

(Created on Saturday, 17 August 2019 at 19:18)

(Feedrate: 30.0 mm/min)
(Feedrate rapids 76.2 mm/min)

(Z_Cut: -1.6 mm)
(Z_Move: 1.0 mm)
(Z Toolchange: 12.7 mm)
(X,Y Toolchange: 0.0000, 0.0000 mm)
(Z Start: None mm)
(Z End: 12.7 mm)
(Steps per circle: 128)
(Postprocessor Excellon: default)

(X range:  -28.6170 ...    1.1000  mm)
(Y range:   -1.1000 ...   46.8200  mm)

(Spindle Speed: None RPM)

G21
G90
G94

G01 F30.00
G00 Z1.0000

M03
G4 P1.0
G00 X-2.2860 Y38.1000
G01 Z-1.6000
G01 Z0
G00 Z1.0000
G00 X-2.2860 Y33.1000
G01 Z-1.6000
G01 Z0
G00 Z1.0000
G00 X-25.5270 Y2.1120
G01 Z-1.6000
G01 Z0
G00 Z1.0000
G00 X-25.5270 Y7.1120
G01 Z-1.6000
G01 Z0
G00 Z1.0000
G00 X-22.9870 Y31.8770
G01 Z-1.6000
G01 Z0
G00 Z1.0000
G00 X-25.5270 Y31.8770
G01 Z-1.6000
G01 Z0
G00 Z1.0000
G00 X-28.0670 Y31.8770
G01 Z-1.6000
G01 Z0
G00 Z1.0000
G00 X-25.5270 Y39.4500
G01 Z-1.6000
G01 Z0
G00 Z1.0000
G00 X-25.5270 Y44.4500
G01 Z-1.6000
G01 Z0
G00 Z1.0000
G00 X-15.2400 Y43.6880
G01 Z-1.6000
G01 Z0
G00 Z1.0000
G00 X-10.2400 Y43.6880
G01 Z-1.6000
G01 Z0
G00 Z1.0000
M05
G00 Z12.70
G00 X0.0 Y0.0

M02