(G-CODE GENERATED BY FLATCAM v8.93 - www.flatcam.org - Version Date: 2019/08/10)

(Name: Clever_Light-drill-d1.0)
(Type: G-code from Excellon)
(Units: MM)

(Created on Saturday, 17 August 2019 at 19:18)

(Feedrate: 30.0 mm/min)
(Feedrate rapids 76.2 mm/min)

(Z_Cut: -1.6 mm)
(Z_Move: 1.0 mm)
(Z Toolchange: 12.7 mm)
(X,Y Toolchange: 0.0000, 0.0000 mm)
(Z Start: None mm)
(Z End: 12.7 mm)
(Steps per circle: 128)
(Postprocessor Excellon: default)

(X range:  -28.6170 ...    1.1000  mm)
(Y range:   -1.1000 ...   46.8200  mm)

(Spindle Speed: None RPM)

G21
G90
G94

G01 F30.00
G00 Z1.0000

M03
G4 P1.0
G00 X-1.5240 Y23.8760
G01 Z-1.6000
G01 Z0
G00 Z1.0000
G00 X-4.0640 Y23.8760
G01 Z-1.6000
G01 Z0
G00 Z1.0000
G00 X-4.0640 Y21.3360
G01 Z-1.6000
G01 Z0
G00 Z1.0000
G00 X-4.0640 Y18.7960
G01 Z-1.6000
G01 Z0
G00 Z1.0000
G00 X-4.0640 Y16.2560
G01 Z-1.6000
G01 Z0
G00 Z1.0000
G00 X-4.0640 Y13.7160
G01 Z-1.6000
G01 Z0
G00 Z1.0000
G00 X-4.0640 Y11.1760
G01 Z-1.6000
G01 Z0
G00 Z1.0000
G00 X-4.0640 Y8.6360
G01 Z-1.6000
G01 Z0
G00 Z1.0000
G00 X-1.5240 Y8.6360
G01 Z-1.6000
G01 Z0
G00 Z1.0000
G00 X-1.5240 Y11.1760
G01 Z-1.6000
G01 Z0
G00 Z1.0000
G00 X-1.5240 Y13.7160
G01 Z-1.6000
G01 Z0
G00 Z1.0000
G00 X-1.5240 Y16.2560
G01 Z-1.6000
G01 Z0
G00 Z1.0000
G00 X-1.5240 Y18.7960
G01 Z-1.6000
G01 Z0
G00 Z1.0000
G00 X-1.5240 Y21.3360
G01 Z-1.6000
G01 Z0
G00 Z1.0000
M05
G00 Z12.70
G00 X0.0 Y0.0

M02