(G-CODE GENERATED BY FLATCAM v8.901 - www.flatcam.org - Version Date: 2019/01/09)

(Name: Clever_Light-B_Cu.gbr_iso_cnc)
(Type: G-code from Geometry)
(Units: MM)

(Created on Суббота, 17 августа 2019 at 15:37)

(TOOL DIAMETER: 0.5 mm)
(Feedrate: 200.0 mm/min)
(Feedrate_Z: 30.0 mm/min)
(Feedrate rapids 100.0 mm/min)

(Z_Cut: -0.1 mm)
(Z_Move: 1.0 mm)
(Z Toolchange: 30.0 mm)
(X,Y Toolchange: 0.0000, 0.0000 mm)
(Z Start: None mm)
(Z End: 20.0 mm)
(Steps per circle: 64)
(Postprocessor Geometry: default)
(Spindle Speed: None RPM)

G21
G90
G94

G01 F200.00
G00 Z1.0000

M03
G4 P1
G00 X-1.5380 Y7.5228
G01 F30.00
G01 Z-0.1000
G01 F200.00
G01 X-1.5100 Y7.5228
G01 X-1.4133 Y7.5282
G01 X-1.3854 Y7.5314
G01 X-1.2762 Y7.5503
G01 X-1.1696 Y7.5806
G01 X-1.1431 Y7.5899
G01 X-1.0408 Y7.6327
G01 X-0.9315 Y7.6931
G01 X-0.8297 Y7.7654
G01 X-0.7366 Y7.8486
G01 X-0.6534 Y7.9417
G01 X-0.5889 Y8.0319
G01 X-0.5740 Y8.0556
G01 X-0.5271 Y8.1404
G01 X-0.5150 Y8.1656
G01 X-0.4729 Y8.2682
G01 X-0.4383 Y8.3882
G01 X-0.4174 Y8.5113
G01 X-0.4104 Y8.6360
G01 X-0.4174 Y8.7607
G01 X-0.4383 Y8.8838
G01 X-0.4729 Y9.0038
G01 X-0.5150 Y9.1064
G01 X-0.5271 Y9.1316
G01 X-0.5740 Y9.2164
G01 X-0.5889 Y9.2401
G01 X-0.6534 Y9.3303
G01 X-0.7366 Y9.4234
G01 X-0.8297 Y9.5066
G01 X-0.9315 Y9.5789
G01 X-1.0408 Y9.6393
G01 X-1.1431 Y9.6821
G01 X-1.1696 Y9.6914
G01 X-1.2626 Y9.7182
G01 X-1.2900 Y9.7244
G01 X-1.3993 Y9.7426
G01 X-1.5240 Y9.7496
G01 X-1.6487 Y9.7426
G01 X-1.7580 Y9.7244
G01 X-1.7854 Y9.7182
G01 X-1.8784 Y9.6914
G01 X-1.9049 Y9.6821
G01 X-2.0072 Y9.6393
G01 X-2.1165 Y9.5789
G01 X-2.2183 Y9.5066
G01 X-2.3114 Y9.4234
G01 X-2.3946 Y9.3303
G01 X-2.4591 Y9.2401
G01 X-2.4740 Y9.2164
G01 X-2.5209 Y9.1316
G01 X-2.5330 Y9.1064
G01 X-2.5751 Y9.0038
G01 X-2.6097 Y8.8838
G01 X-2.6306 Y8.7607
G01 X-2.6376 Y8.6360
G01 X-2.6306 Y8.5113
G01 X-2.6097 Y8.3882
G01 X-2.5751 Y8.2682
G01 X-2.5330 Y8.1656
G01 X-2.5209 Y8.1404
G01 X-2.4740 Y8.0556
G01 X-2.4591 Y8.0319
G01 X-2.3946 Y7.9417
G01 X-2.3114 Y7.8486
G01 X-2.2183 Y7.7654
G01 X-2.1281 Y7.7009
G01 X-2.1044 Y7.6860
G01 X-2.0196 Y7.6391
G01 X-1.9944 Y7.6270
G01 X-1.8918 Y7.5849
G01 X-1.7718 Y7.5503
G01 X-1.6487 Y7.5294
G01 X-1.5380 Y7.5228
G00 Z1.0000
G00 X-1.5380 Y10.0628
G01 F30.00
G01 Z-0.1000
G01 F200.00
G01 X-1.5100 Y10.0628
G01 X-1.3993 Y10.0694
G01 X-1.2900 Y10.0876
G01 X-1.2626 Y10.0938
G01 X-1.1696 Y10.1206
G01 X-1.1431 Y10.1299
G01 X-1.0408 Y10.1727
G01 X-0.9315 Y10.2331
G01 X-0.8297 Y10.3054
G01 X-0.7366 Y10.3886
G01 X-0.6534 Y10.4817
G01 X-0.5889 Y10.5719
G01 X-0.5740 Y10.5956
G01 X-0.5271 Y10.6804
G01 X-0.5150 Y10.7056
G01 X-0.4729 Y10.8082
G01 X-0.4383 Y10.9282
G01 X-0.4174 Y11.0513
G01 X-0.4104 Y11.1760
G01 X-0.4174 Y11.3007
G01 X-0.4383 Y11.4238
G01 X-0.4729 Y11.5438
G01 X-0.5150 Y11.6464
G01 X-0.5271 Y11.6716
G01 X-0.5740 Y11.7564
G01 X-0.5889 Y11.7801
G01 X-0.6534 Y11.8703
G01 X-0.7366 Y11.9634
G01 X-0.8297 Y12.0466
G01 X-0.9315 Y12.1189
G01 X-1.0408 Y12.1793
G01 X-1.1431 Y12.2221
G01 X-1.1696 Y12.2314
G01 X-1.2626 Y12.2582
G01 X-1.2900 Y12.2644
G01 X-1.3993 Y12.2826
G01 X-1.5240 Y12.2896
G01 X-1.6487 Y12.2826
G01 X-1.7580 Y12.2644
G01 X-1.7854 Y12.2582
G01 X-1.8784 Y12.2314
G01 X-1.9049 Y12.2221
G01 X-2.0072 Y12.1793
G01 X-2.1165 Y12.1189
G01 X-2.2183 Y12.0466
G01 X-2.3114 Y11.9634
G01 X-2.3946 Y11.8703
G01 X-2.4591 Y11.7801
G01 X-2.4740 Y11.7564
G01 X-2.5209 Y11.6716
G01 X-2.5330 Y11.6464
G01 X-2.5751 Y11.5438
G01 X-2.6097 Y11.4238
G01 X-2.6306 Y11.3007
G01 X-2.6376 Y11.1760
G01 X-2.6306 Y11.0513
G01 X-2.6097 Y10.9282
G01 X-2.5751 Y10.8082
G01 X-2.5330 Y10.7056
G01 X-2.5209 Y10.6804
G01 X-2.4740 Y10.5956
G01 X-2.4591 Y10.5719
G01 X-2.3946 Y10.4817
G01 X-2.3114 Y10.3886
G01 X-2.2183 Y10.3054
G01 X-2.1281 Y10.2409
G01 X-2.1044 Y10.2260
G01 X-2.0196 Y10.1791
G01 X-1.9944 Y10.1670
G01 X-1.8918 Y10.1249
G01 X-1.7718 Y10.0903
G01 X-1.6487 Y10.0694
G01 X-1.5380 Y10.0628
G00 Z1.0000
G00 X-1.5380 Y12.6028
G01 F30.00
G01 Z-0.1000
G01 F200.00
G01 X-1.5100 Y12.6028
G01 X-1.3993 Y12.6094
G01 X-1.2900 Y12.6276
G01 X-1.2626 Y12.6338
G01 X-1.1696 Y12.6606
G01 X-1.1431 Y12.6699
G01 X-1.0408 Y12.7127
G01 X-0.9315 Y12.7731
G01 X-0.8297 Y12.8454
G01 X-0.7366 Y12.9286
G01 X-0.6534 Y13.0217
G01 X-0.5889 Y13.1119
G01 X-0.5740 Y13.1356
G01 X-0.5271 Y13.2204
G01 X-0.5150 Y13.2456
G01 X-0.4729 Y13.3482
G01 X-0.4383 Y13.4682
G01 X-0.4174 Y13.5913
G01 X-0.4104 Y13.7160
G01 X-0.4174 Y13.8407
G01 X-0.4383 Y13.9638
G01 X-0.4729 Y14.0838
G01 X-0.5150 Y14.1864
G01 X-0.5271 Y14.2116
G01 X-0.5740 Y14.2964
G01 X-0.5889 Y14.3201
G01 X-0.6534 Y14.4103
G01 X-0.7366 Y14.5034
G01 X-0.8297 Y14.5866
G01 X-0.9315 Y14.6589
G01 X-1.0408 Y14.7193
G01 X-1.1431 Y14.7621
G01 X-1.1696 Y14.7714
G01 X-1.2626 Y14.7982
G01 X-1.2900 Y14.8044
G01 X-1.3993 Y14.8226
G01 X-1.5240 Y14.8296
G01 X-1.6487 Y14.8226
G01 X-1.7580 Y14.8044
G01 X-1.7854 Y14.7982
G01 X-1.8784 Y14.7714
G01 X-1.9049 Y14.7621
G01 X-2.0072 Y14.7193
G01 X-2.1165 Y14.6589
G01 X-2.2183 Y14.5866
G01 X-2.3114 Y14.5034
G01 X-2.3946 Y14.4103
G01 X-2.4591 Y14.3201
G01 X-2.4740 Y14.2964
G01 X-2.5209 Y14.2116
G01 X-2.5330 Y14.1864
G01 X-2.5751 Y14.0838
G01 X-2.6097 Y13.9638
G01 X-2.6306 Y13.8407
G01 X-2.6376 Y13.7160
G01 X-2.6306 Y13.5913
G01 X-2.6097 Y13.4682
G01 X-2.5751 Y13.3482
G01 X-2.5330 Y13.2456
G01 X-2.5209 Y13.2204
G01 X-2.4740 Y13.1356
G01 X-2.4591 Y13.1119
G01 X-2.3946 Y13.0217
G01 X-2.3114 Y12.9286
G01 X-2.2183 Y12.8454
G01 X-2.1281 Y12.7809
G01 X-2.1044 Y12.7660
G01 X-2.0196 Y12.7191
G01 X-1.9944 Y12.7070
G01 X-1.8918 Y12.6649
G01 X-1.7718 Y12.6303
G01 X-1.6487 Y12.6094
G01 X-1.5380 Y12.6028
G00 Z1.0000
G00 X-1.5380 Y15.1428
G01 F30.00
G01 Z-0.1000
G01 F200.00
G01 X-1.5100 Y15.1428
G01 X-1.3993 Y15.1494
G01 X-1.2900 Y15.1676
G01 X-1.2626 Y15.1738
G01 X-1.1696 Y15.2006
G01 X-1.1431 Y15.2099
G01 X-1.0408 Y15.2527
G01 X-0.9315 Y15.3131
G01 X-0.8297 Y15.3854
G01 X-0.7366 Y15.4686
G01 X-0.6534 Y15.5617
G01 X-0.5889 Y15.6519
G01 X-0.5740 Y15.6756
G01 X-0.5271 Y15.7604
G01 X-0.5150 Y15.7856
G01 X-0.4729 Y15.8882
G01 X-0.4383 Y16.0082
G01 X-0.4174 Y16.1313
G01 X-0.4104 Y16.2560
G01 X-0.4174 Y16.3807
G01 X-0.4356 Y16.4900
G01 X-0.4418 Y16.5174
G01 X-0.4686 Y16.6104
G01 X-0.4779 Y16.6369
G01 X-0.5207 Y16.7392
G01 X-0.5811 Y16.8485
G01 X-0.6534 Y16.9503
G01 X-0.7366 Y17.0434
G01 X-0.8297 Y17.1266
G01 X-0.9199 Y17.1911
G01 X-0.9436 Y17.2060
G01 X-1.0284 Y17.2529
G01 X-1.0536 Y17.2650
G01 X-1.1562 Y17.3071
G01 X-1.2762 Y17.3417
G01 X-1.3993 Y17.3626
G01 X-1.5240 Y17.3696
G01 X-1.6487 Y17.3626
G01 X-1.7580 Y17.3444
G01 X-1.7854 Y17.3382
G01 X-1.8784 Y17.3114
G01 X-1.9049 Y17.3021
G01 X-2.0072 Y17.2593
G01 X-2.1165 Y17.1989
G01 X-2.2183 Y17.1266
G01 X-2.3114 Y17.0434
G01 X-2.3946 Y16.9503
G01 X-2.4591 Y16.8601
G01 X-2.4740 Y16.8364
G01 X-2.5209 Y16.7516
G01 X-2.5330 Y16.7264
G01 X-2.5751 Y16.6238
G01 X-2.6097 Y16.5038
G01 X-2.6306 Y16.3807
G01 X-2.6376 Y16.2560
G01 X-2.6306 Y16.1313
G01 X-2.6097 Y16.0082
G01 X-2.5751 Y15.8882
G01 X-2.5330 Y15.7856
G01 X-2.5209 Y15.7604
G01 X-2.4740 Y15.6756
G01 X-2.4591 Y15.6519
G01 X-2.3946 Y15.5617
G01 X-2.3114 Y15.4686
G01 X-2.2183 Y15.3854
G01 X-2.1281 Y15.3209
G01 X-2.1044 Y15.3060
G01 X-2.0196 Y15.2591
G01 X-1.9944 Y15.2470
G01 X-1.8918 Y15.2049
G01 X-1.7718 Y15.1703
G01 X-1.6487 Y15.1494
G01 X-1.5380 Y15.1428
G00 Z1.0000
G00 X-1.5380 Y17.6828
G01 F30.00
G01 Z-0.1000
G01 F200.00
G01 X-1.5100 Y17.6828
G01 X-1.4133 Y17.6882
G01 X-1.3854 Y17.6914
G01 X-1.2762 Y17.7103
G01 X-1.1696 Y17.7406
G01 X-1.1431 Y17.7499
G01 X-1.0408 Y17.7927
G01 X-0.9315 Y17.8531
G01 X-0.8297 Y17.9254
G01 X-0.7366 Y18.0086
G01 X-0.6534 Y18.1017
G01 X-0.5811 Y18.2035
G01 X-0.5207 Y18.3128
G01 X-0.4779 Y18.4151
G01 X-0.4686 Y18.4416
G01 X-0.4418 Y18.5346
G01 X-0.4356 Y18.5620
G01 X-0.4174 Y18.6713
G01 X-0.4104 Y18.7960
G01 X-0.4174 Y18.9207
G01 X-0.4356 Y19.0300
G01 X-0.4418 Y19.0574
G01 X-0.4686 Y19.1504
G01 X-0.4779 Y19.1769
G01 X-0.5207 Y19.2792
G01 X-0.5811 Y19.3885
G01 X-0.6534 Y19.4903
G01 X-0.7366 Y19.5834
G01 X-0.8297 Y19.6666
G01 X-0.9199 Y19.7311
G01 X-0.9436 Y19.7460
G01 X-1.0284 Y19.7929
G01 X-1.0536 Y19.8050
G01 X-1.1562 Y19.8471
G01 X-1.2762 Y19.8817
G01 X-1.3993 Y19.9026
G01 X-1.5240 Y19.9096
G01 X-1.6487 Y19.9026
G01 X-1.7580 Y19.8844
G01 X-1.7854 Y19.8782
G01 X-1.8784 Y19.8514
G01 X-1.9049 Y19.8421
G01 X-2.0072 Y19.7993
G01 X-2.1165 Y19.7389
G01 X-2.2183 Y19.6666
G01 X-2.3114 Y19.5834
G01 X-2.3946 Y19.4903
G01 X-2.4591 Y19.4001
G01 X-2.4740 Y19.3764
G01 X-2.5209 Y19.2916
G01 X-2.5330 Y19.2664
G01 X-2.5751 Y19.1638
G01 X-2.6097 Y19.0438
G01 X-2.6306 Y18.9207
G01 X-2.6376 Y18.7960
G01 X-2.6306 Y18.6713
G01 X-2.6097 Y18.5482
G01 X-2.5751 Y18.4282
G01 X-2.5330 Y18.3256
G01 X-2.5209 Y18.3004
G01 X-2.4740 Y18.2156
G01 X-2.4591 Y18.1919
G01 X-2.3946 Y18.1017
G01 X-2.3114 Y18.0086
G01 X-2.2183 Y17.9254
G01 X-2.1281 Y17.8609
G01 X-2.1044 Y17.8460
G01 X-2.0196 Y17.7991
G01 X-1.9944 Y17.7870
G01 X-1.8918 Y17.7449
G01 X-1.7718 Y17.7103
G01 X-1.6487 Y17.6894
G01 X-1.5380 Y17.6828
G00 Z1.0000
G00 X-1.5380 Y20.2228
G01 F30.00
G01 Z-0.1000
G01 F200.00
G01 X-1.5100 Y20.2228
G01 X-1.4133 Y20.2282
G01 X-1.3854 Y20.2314
G01 X-1.2762 Y20.2503
G01 X-1.1696 Y20.2806
G01 X-1.1431 Y20.2899
G01 X-1.0408 Y20.3327
G01 X-0.9315 Y20.3931
G01 X-0.8297 Y20.4654
G01 X-0.7366 Y20.5486
G01 X-0.6534 Y20.6417
G01 X-0.5811 Y20.7435
G01 X-0.5207 Y20.8528
G01 X-0.4779 Y20.9551
G01 X-0.4686 Y20.9816
G01 X-0.4418 Y21.0746
G01 X-0.4356 Y21.1020
G01 X-0.4174 Y21.2113
G01 X-0.4104 Y21.3360
G01 X-0.4174 Y21.4607
G01 X-0.4356 Y21.5700
G01 X-0.4418 Y21.5974
G01 X-0.4686 Y21.6904
G01 X-0.4779 Y21.7169
G01 X-0.5207 Y21.8192
G01 X-0.5811 Y21.9285
G01 X-0.6534 Y22.0303
G01 X-0.7366 Y22.1234
G01 X-0.8297 Y22.2066
G01 X-0.9199 Y22.2711
G01 X-0.9436 Y22.2860
G01 X-1.0284 Y22.3329
G01 X-1.0536 Y22.3450
G01 X-1.1562 Y22.3871
G01 X-1.2762 Y22.4217
G01 X-1.3993 Y22.4426
G01 X-1.5240 Y22.4496
G01 X-1.6487 Y22.4426
G01 X-1.7580 Y22.4244
G01 X-1.7854 Y22.4182
G01 X-1.8784 Y22.3914
G01 X-1.9049 Y22.3821
G01 X-2.0072 Y22.3393
G01 X-2.1165 Y22.2789
G01 X-2.2183 Y22.2066
G01 X-2.3114 Y22.1234
G01 X-2.3946 Y22.0303
G01 X-2.4591 Y21.9401
G01 X-2.4740 Y21.9164
G01 X-2.5209 Y21.8316
G01 X-2.5330 Y21.8064
G01 X-2.5751 Y21.7038
G01 X-2.6097 Y21.5838
G01 X-2.6306 Y21.4607
G01 X-2.6376 Y21.3360
G01 X-2.6306 Y21.2113
G01 X-2.6097 Y21.0882
G01 X-2.5751 Y20.9682
G01 X-2.5330 Y20.8656
G01 X-2.5209 Y20.8404
G01 X-2.4740 Y20.7556
G01 X-2.4591 Y20.7319
G01 X-2.3946 Y20.6417
G01 X-2.3114 Y20.5486
G01 X-2.2183 Y20.4654
G01 X-2.1281 Y20.4009
G01 X-2.1044 Y20.3860
G01 X-2.0196 Y20.3391
G01 X-1.9944 Y20.3270
G01 X-1.8918 Y20.2849
G01 X-1.7718 Y20.2503
G01 X-1.6487 Y20.2294
G01 X-1.5380 Y20.2228
G00 Z1.0000
G00 X-0.6481 Y22.7627
G01 F30.00
G01 Z-0.1000
G01 F200.00
G01 X-0.6200 Y22.7657
G01 X-0.5924 Y22.7718
G01 X-0.5656 Y22.7811
G01 X-0.5401 Y22.7933
G01 X-0.5161 Y22.8083
G01 X-0.4939 Y22.8259
G01 X-0.4739 Y22.8459
G01 X-0.4563 Y22.8681
G01 X-0.4413 Y22.8921
G01 X-0.4291 Y22.9176
G01 X-0.4198 Y22.9444
G01 X-0.4137 Y22.9720
G01 X-0.4107 Y23.0001
G01 X-0.4107 Y24.7519
G01 X-0.4137 Y24.7800
G01 X-0.4198 Y24.8076
G01 X-0.4291 Y24.8344
G01 X-0.4413 Y24.8599
G01 X-0.4563 Y24.8839
G01 X-0.4739 Y24.9061
G01 X-0.4939 Y24.9261
G01 X-0.5161 Y24.9437
G01 X-0.5401 Y24.9587
G01 X-0.5656 Y24.9709
G01 X-0.5924 Y24.9802
G01 X-0.6200 Y24.9863
G01 X-0.6481 Y24.9893
G01 X-0.6604 Y24.9896
G01 X-2.3999 Y24.9893
G01 X-2.4280 Y24.9863
G01 X-2.4556 Y24.9802
G01 X-2.4824 Y24.9709
G01 X-2.5079 Y24.9587
G01 X-2.5319 Y24.9437
G01 X-2.5541 Y24.9261
G01 X-2.5741 Y24.9061
G01 X-2.5917 Y24.8839
G01 X-2.6067 Y24.8599
G01 X-2.6189 Y24.8344
G01 X-2.6282 Y24.8076
G01 X-2.6343 Y24.7800
G01 X-2.6373 Y24.7519
G01 X-2.6376 Y24.7396
G01 X-2.6373 Y23.0001
G01 X-2.6343 Y22.9720
G01 X-2.6282 Y22.9444
G01 X-2.6189 Y22.9176
G01 X-2.6067 Y22.8921
G01 X-2.5917 Y22.8681
G01 X-2.5741 Y22.8459
G01 X-2.5541 Y22.8259
G01 X-2.5319 Y22.8083
G01 X-2.5079 Y22.7933
G01 X-2.4824 Y22.7811
G01 X-2.4556 Y22.7718
G01 X-2.4280 Y22.7657
G01 X-2.3999 Y22.7627
G01 X-0.6481 Y22.7627
G00 Z1.0000
G00 X-0.1319 Y26.8029
G01 F30.00
G01 Z-0.1000
G01 F200.00
G01 X-0.0260 Y26.8020
G01 X0.0440 Y26.8088
G01 X0.0929 Y26.8237
G01 X0.1381 Y26.8478
G01 X0.1777 Y26.8803
G01 X0.2102 Y26.9199
G01 X0.2343 Y26.9651
G01 X0.2492 Y27.0140
G01 X0.2561 Y27.0848
G01 X0.2542 Y27.4399
G01 X0.2430 Y27.4399
G01 X0.2427 Y27.0527
G01 X0.2397 Y27.0246
G01 X0.2336 Y26.9970
G01 X0.2243 Y26.9702
G01 X0.2121 Y26.9447
G01 X0.1971 Y26.9207
G01 X0.1795 Y26.8985
G01 X0.1595 Y26.8785
G01 X0.1373 Y26.8609
G01 X0.1133 Y26.8459
G01 X0.0878 Y26.8337
G01 X0.0610 Y26.8244
G01 X0.0334 Y26.8183
G01 X0.0053 Y26.8153
G01 X-0.1319 Y26.8150
G01 X-0.1319 Y26.8029
G00 Z1.0000
G00 X-1.5182 Y27.4399
G01 F30.00
G01 Z-0.1000
G01 F200.00
G01 X-1.5201 Y27.0848
G01 X-1.5132 Y27.0140
G01 X-1.4983 Y26.9651
G01 X-1.4742 Y26.9199
G01 X-1.4417 Y26.8803
G01 X-1.4021 Y26.8478
G01 X-1.3569 Y26.8237
G01 X-1.3080 Y26.8088
G01 X-1.2380 Y26.8020
G01 X-1.1321 Y26.8029
G01 X-1.1321 Y26.8150
G01 X-1.2693 Y26.8153
G01 X-1.2974 Y26.8183
G01 X-1.3250 Y26.8244
G01 X-1.3518 Y26.8337
G01 X-1.3773 Y26.8459
G01 X-1.4013 Y26.8609
G01 X-1.4235 Y26.8785
G01 X-1.4435 Y26.8985
G01 X-1.4611 Y26.9207
G01 X-1.4761 Y26.9447
G01 X-1.4883 Y26.9702
G01 X-1.4976 Y26.9970
G01 X-1.5037 Y27.0246
G01 X-1.5067 Y27.0527
G01 X-1.5070 Y27.4399
G01 X-1.5182 Y27.4399
G00 Z1.0000
G00 X-1.5182 Y28.4401
G01 F30.00
G01 Z-0.1000
G01 F200.00
G01 X-1.5070 Y28.4401
G01 X-1.5067 Y28.8273
G01 X-1.5037 Y28.8554
G01 X-1.4976 Y28.8830
G01 X-1.4883 Y28.9098
G01 X-1.4761 Y28.9353
G01 X-1.4611 Y28.9593
G01 X-1.4435 Y28.9815
G01 X-1.4235 Y29.0015
G01 X-1.4013 Y29.0191
G01 X-1.3773 Y29.0341
G01 X-1.3518 Y29.0463
G01 X-1.3250 Y29.0556
G01 X-1.2974 Y29.0617
G01 X-1.2693 Y29.0647
G01 X-1.1321 Y29.0650
G01 X-1.1321 Y29.0771
G01 X-1.2380 Y29.0780
G01 X-1.3080 Y29.0712
G01 X-1.3569 Y29.0563
G01 X-1.4021 Y29.0322
G01 X-1.4417 Y28.9997
G01 X-1.4742 Y28.9601
G01 X-1.4983 Y28.9149
G01 X-1.5132 Y28.8660
G01 X-1.5201 Y28.7952
G01 X-1.5182 Y28.4401
G00 Z1.0000
G00 X-0.1319 Y29.0771
G01 F30.00
G01 Z-0.1000
G01 F200.00
G01 X-0.1319 Y29.0650
G01 X0.0053 Y29.0647
G01 X0.0334 Y29.0617
G01 X0.0610 Y29.0556
G01 X0.0878 Y29.0463
G01 X0.1133 Y29.0341
G01 X0.1373 Y29.0191
G01 X0.1595 Y29.0015
G01 X0.1795 Y28.9815
G01 X0.1971 Y28.9593
G01 X0.2121 Y28.9353
G01 X0.2243 Y28.9098
G01 X0.2336 Y28.8830
G01 X0.2397 Y28.8554
G01 X0.2427 Y28.8273
G01 X0.2430 Y28.4401
G01 X0.2542 Y28.4401
G01 X0.2561 Y28.7952
G01 X0.2492 Y28.8660
G01 X0.2343 Y28.9149
G01 X0.2102 Y28.9601
G01 X0.1777 Y28.9997
G01 X0.1381 Y29.0322
G01 X0.0929 Y29.0563
G01 X0.0440 Y29.0712
G01 X-0.0260 Y29.0780
G01 X-0.1319 Y29.0771
G00 Z1.0000
G00 X-1.4824 Y34.9185
G01 F30.00
G01 Z-0.1000
G01 F200.00
G01 X-1.4852 Y34.9040
G01 X-1.4953 Y34.8651
G01 X-1.5014 Y34.8452
G01 X-1.5086 Y34.8257
G01 X-1.5240 Y34.7885
G01 X-1.5333 Y34.7699
G01 X-1.5528 Y34.7347
G01 X-1.5751 Y34.7013
G01 X-1.5873 Y34.6844
G01 X-1.6005 Y34.6683
G01 X-1.6272 Y34.6383
G01 X-1.6421 Y34.6237
G01 X-1.6676 Y34.6006
G01 X-1.5809 Y34.5641
G01 X-1.5623 Y34.5544
G01 X-1.4396 Y34.4866
G01 X-1.4215 Y34.4759
G01 X-1.4040 Y34.4642
G01 X-1.2896 Y34.3831
G01 X-1.2728 Y34.3705
G01 X-1.2568 Y34.3569
G01 X-1.1522 Y34.2635
G01 X-1.1370 Y34.2490
G01 X-1.1225 Y34.2338
G01 X-1.0291 Y34.1292
G01 X-1.0155 Y34.1132
G01 X-1.0029 Y34.0964
G01 X-0.9218 Y33.9820
G01 X-0.9101 Y33.9646
G01 X-0.9011 Y33.9493
G01 X-0.9011 Y34.3371
G01 X-1.4824 Y34.9185
G00 Z1.0000
G00 X-1.3215 Y36.3134
G01 F30.00
G01 Z-0.1000
G01 F200.00
G01 X-1.3148 Y36.3451
G01 X-1.3031 Y36.3849
G01 X-1.2961 Y36.4052
G01 X-1.2798 Y36.4434
G01 X-1.2638 Y36.4750
G01 X-1.4831 Y36.4750
G01 X-1.3215 Y36.3134
G00 Z1.0000
G00 X-7.3739 Y31.2982
G01 F30.00
G01 Z-0.1000
G01 F200.00
G01 X-7.3739 Y31.2870
G01 X-6.9840 Y31.2870
G01 X-6.9717 Y31.2867
G01 X-6.9436 Y31.2837
G01 X-6.9160 Y31.2776
G01 X-6.8892 Y31.2683
G01 X-6.8637 Y31.2561
G01 X-6.8397 Y31.2411
G01 X-6.8175 Y31.2235
G01 X-6.7975 Y31.2035
G01 X-6.7799 Y31.1813
G01 X-6.7649 Y31.1573
G01 X-6.7527 Y31.1318
G01 X-6.7434 Y31.1050
G01 X-6.7373 Y31.0774
G01 X-6.7343 Y31.0493
G01 X-6.7340 Y30.7871
G01 X-6.7224 Y30.7871
G01 X-6.7209 Y31.0175
G01 X-6.7278 Y31.0880
G01 X-6.7427 Y31.1369
G01 X-6.7668 Y31.1821
G01 X-6.7993 Y31.2217
G01 X-6.8389 Y31.2542
G01 X-6.8841 Y31.2783
G01 X-6.9330 Y31.2932
G01 X-7.0038 Y31.3001
G01 X-7.3739 Y31.2982
G00 Z1.0000
G00 X-9.1500 Y31.0608
G01 F30.00
G01 Z-0.1000
G01 F200.00
G01 X-9.1490 Y31.0370
G01 X-9.1490 Y29.5370
G01 X-9.1500 Y29.5132
G01 X-9.1380 Y29.5132
G01 X-9.1390 Y29.5370
G01 X-9.1390 Y31.0370
G01 X-9.1380 Y31.0608
G01 X-9.1500 Y31.0608
G00 Z1.0000
G00 X-9.5117 Y29.2873
G01 F30.00
G01 Z-0.1000
G01 F200.00
G01 X-9.4836 Y29.2903
G01 X-9.4560 Y29.2964
G01 X-9.4292 Y29.3057
G01 X-9.4037 Y29.3179
G01 X-9.3797 Y29.3329
G01 X-9.3575 Y29.3505
G01 X-9.3375 Y29.3705
G01 X-9.3199 Y29.3927
G01 X-9.3049 Y29.4167
G01 X-9.2927 Y29.4422
G01 X-9.2834 Y29.4690
G01 X-9.2773 Y29.4966
G01 X-9.2743 Y29.5247
G01 X-9.2743 Y31.0493
G01 X-9.2773 Y31.0774
G01 X-9.2834 Y31.1050
G01 X-9.2927 Y31.1318
G01 X-9.3049 Y31.1573
G01 X-9.3199 Y31.1813
G01 X-9.3375 Y31.2035
G01 X-9.3575 Y31.2235
G01 X-9.3797 Y31.2411
G01 X-9.4037 Y31.2561
G01 X-9.4292 Y31.2683
G01 X-9.4560 Y31.2776
G01 X-9.4836 Y31.2837
G01 X-9.5117 Y31.2867
G01 X-11.3040 Y31.2870
G01 X-11.3163 Y31.2867
G01 X-11.3444 Y31.2837
G01 X-11.3720 Y31.2776
G01 X-11.3988 Y31.2683
G01 X-11.4243 Y31.2561
G01 X-11.4483 Y31.2411
G01 X-11.4705 Y31.2235
G01 X-11.4905 Y31.2035
G01 X-11.5081 Y31.1813
G01 X-11.5231 Y31.1573
G01 X-11.5353 Y31.1318
G01 X-11.5446 Y31.1050
G01 X-11.5507 Y31.0774
G01 X-11.5537 Y31.0493
G01 X-11.5540 Y29.5370
G01 X-11.5537 Y29.5247
G01 X-11.5507 Y29.4966
G01 X-11.5446 Y29.4690
G01 X-11.5353 Y29.4422
G01 X-11.5231 Y29.4167
G01 X-11.5081 Y29.3927
G01 X-11.4905 Y29.3705
G01 X-11.4705 Y29.3505
G01 X-11.4483 Y29.3329
G01 X-11.4243 Y29.3179
G01 X-11.3988 Y29.3057
G01 X-11.3720 Y29.2964
G01 X-11.3444 Y29.2903
G01 X-11.3163 Y29.2873
G01 X-11.3040 Y29.2870
G01 X-10.8391 Y29.2870
G01 X-10.8391 Y25.2550
G01 X-11.0543 Y25.2547
G01 X-11.0824 Y25.2517
G01 X-11.1100 Y25.2456
G01 X-11.1368 Y25.2363
G01 X-11.1623 Y25.2241
G01 X-11.1863 Y25.2091
G01 X-11.2085 Y25.1915
G01 X-11.2285 Y25.1715
G01 X-11.2461 Y25.1493
G01 X-11.2611 Y25.1253
G01 X-11.2733 Y25.0998
G01 X-11.2826 Y25.0730
G01 X-11.2887 Y25.0454
G01 X-11.2917 Y25.0173
G01 X-11.2917 Y23.2427
G01 X-11.2887 Y23.2146
G01 X-11.2826 Y23.1870
G01 X-11.2733 Y23.1602
G01 X-11.2611 Y23.1347
G01 X-11.2461 Y23.1107
G01 X-11.2285 Y23.0885
G01 X-11.2085 Y23.0685
G01 X-11.1863 Y23.0509
G01 X-11.1623 Y23.0359
G01 X-11.1368 Y23.0237
G01 X-11.1100 Y23.0144
G01 X-11.0824 Y23.0083
G01 X-11.0543 Y23.0053
G01 X-11.0420 Y23.0050
G01 X-9.7920 Y23.0050
G01 X-9.7797 Y23.0053
G01 X-9.7516 Y23.0083
G01 X-9.7240 Y23.0144
G01 X-9.6972 Y23.0237
G01 X-9.6717 Y23.0359
G01 X-9.6477 Y23.0509
G01 X-9.6255 Y23.0685
G01 X-9.6055 Y23.0885
G01 X-9.5879 Y23.1107
G01 X-9.5729 Y23.1347
G01 X-9.5607 Y23.1602
G01 X-9.5514 Y23.1870
G01 X-9.5453 Y23.2146
G01 X-9.5423 Y23.2427
G01 X-9.5420 Y23.2550
G01 X-9.5420 Y25.0050
G01 X-9.5423 Y25.0173
G01 X-9.5453 Y25.0454
G01 X-9.5514 Y25.0730
G01 X-9.5607 Y25.0998
G01 X-9.5729 Y25.1253
G01 X-9.5879 Y25.1493
G01 X-9.6055 Y25.1715
G01 X-9.6255 Y25.1915
G01 X-9.6477 Y25.2091
G01 X-9.6717 Y25.2241
G01 X-9.6972 Y25.2363
G01 X-9.7240 Y25.2456
G01 X-9.7516 Y25.2517
G01 X-9.7797 Y25.2547
G01 X-9.9889 Y25.2550
G01 X-9.9889 Y29.2870
G01 X-9.5117 Y29.2873
G00 Z1.0000
G00 X-7.3739 Y29.2758
G01 F30.00
G01 Z-0.1000
G01 F200.00
G01 X-7.0038 Y29.2739
G01 X-6.9330 Y29.2808
G01 X-6.8841 Y29.2957
G01 X-6.8389 Y29.3198
G01 X-6.7993 Y29.3523
G01 X-6.7668 Y29.3919
G01 X-6.7427 Y29.4371
G01 X-6.7278 Y29.4860
G01 X-6.7209 Y29.5565
G01 X-6.7224 Y29.7869
G01 X-6.7340 Y29.7869
G01 X-6.7343 Y29.5247
G01 X-6.7373 Y29.4966
G01 X-6.7434 Y29.4690
G01 X-6.7527 Y29.4422
G01 X-6.7649 Y29.4167
G01 X-6.7799 Y29.3927
G01 X-6.7975 Y29.3705
G01 X-6.8175 Y29.3505
G01 X-6.8397 Y29.3329
G01 X-6.8637 Y29.3179
G01 X-6.8892 Y29.3057
G01 X-6.9160 Y29.2964
G01 X-6.9436 Y29.2903
G01 X-6.9717 Y29.2873
G01 X-6.9840 Y29.2870
G01 X-7.3739 Y29.2870
G01 X-7.3739 Y29.2758
G00 Z1.0000
G00 X-9.4748 Y25.4105
G01 F30.00
G01 Z-0.1000
G01 F200.00
G01 X-9.4976 Y25.4074
G01 X-9.5185 Y25.4059
G01 X-9.5589 Y25.4046
G01 X-9.5798 Y25.4053
G01 X-9.6201 Y25.4085
G01 X-9.6408 Y25.4116
G01 X-9.6805 Y25.4193
G01 X-9.7007 Y25.4247
G01 X-9.7393 Y25.4367
G01 X-9.7768 Y25.4519
G01 X-9.7958 Y25.4605
G01 X-9.8144 Y25.4703
G01 X-9.8493 Y25.4905
G01 X-9.8639 Y25.5004
G01 X-9.8639 Y25.3800
G01 X-9.7736 Y25.3795
G01 X-9.7314 Y25.3751
G01 X-9.6899 Y25.3658
G01 X-9.6498 Y25.3520
G01 X-9.6115 Y25.3337
G01 X-9.5755 Y25.3112
G01 X-9.5423 Y25.2847
G01 X-9.5122 Y25.2547
G01 X-9.4858 Y25.2215
G01 X-9.4771 Y25.2076
G01 X-9.4771 Y25.3630
G01 X-9.4748 Y25.4105
G00 Z1.0000
G00 X-9.4771 Y23.0524
G01 F30.00
G01 Z-0.1000
G01 F200.00
G01 X-9.4858 Y23.0385
G01 X-9.4916 Y23.0312
G01 X-9.4771 Y23.0214
G01 X-9.4771 Y23.0524
G00 Z1.0000
G00 X-6.7420 Y23.4128
G01 F30.00
G01 Z-0.1000
G01 F200.00
G01 X-5.0913 Y21.7622
G01 X-5.1151 Y21.7038
G01 X-5.1462 Y21.5974
G01 X-5.1524 Y21.5700
G01 X-5.1706 Y21.4607
G01 X-5.1776 Y21.3360
G01 X-5.1718 Y21.2253
G01 X-5.1686 Y21.1974
G01 X-5.1497 Y21.0882
G01 X-5.1194 Y20.9816
G01 X-5.1101 Y20.9551
G01 X-5.0673 Y20.8528
G01 X-5.0069 Y20.7435
G01 X-4.9346 Y20.6417
G01 X-4.8611 Y20.5588
G01 X-4.8412 Y20.5389
G01 X-4.7583 Y20.4654
G01 X-4.6565 Y20.3931
G01 X-4.5472 Y20.3327
G01 X-4.4318 Y20.2849
G01 X-4.3254 Y20.2538
G01 X-4.2980 Y20.2476
G01 X-4.2026 Y20.2314
G01 X-4.1747 Y20.2282
G01 X-4.0640 Y20.2224
G01 X-3.9393 Y20.2294
G01 X-3.8162 Y20.2503
G01 X-3.7096 Y20.2806
G01 X-3.6831 Y20.2899
G01 X-3.5936 Y20.3270
G01 X-3.5684 Y20.3391
G01 X-3.4715 Y20.3931
G01 X-3.3697 Y20.4654
G01 X-3.2766 Y20.5486
G01 X-3.1934 Y20.6417
G01 X-3.1211 Y20.7435
G01 X-3.0671 Y20.8404
G01 X-3.0550 Y20.8656
G01 X-3.0179 Y20.9551
G01 X-3.0086 Y20.9816
G01 X-2.9783 Y21.0882
G01 X-2.9574 Y21.2113
G01 X-2.9504 Y21.3360
G01 X-2.9574 Y21.4607
G01 X-2.9783 Y21.5838
G01 X-3.0086 Y21.6904
G01 X-3.0179 Y21.7169
G01 X-3.0550 Y21.8064
G01 X-3.0671 Y21.8316
G01 X-3.1211 Y21.9285
G01 X-3.1934 Y22.0303
G01 X-3.2766 Y22.1234
G01 X-3.3590 Y22.1976
G01 X-3.3809 Y22.2151
G01 X-3.4715 Y22.2789
G01 X-3.5684 Y22.3329
G01 X-3.5936 Y22.3450
G01 X-3.6831 Y22.3821
G01 X-3.7096 Y22.3914
G01 X-3.8162 Y22.4217
G01 X-3.9254 Y22.4406
G01 X-3.9533 Y22.4438
G01 X-4.0640 Y22.4496
G01 X-4.1887 Y22.4426
G01 X-4.2980 Y22.4244
G01 X-4.3254 Y22.4182
G01 X-4.4318 Y22.3871
G01 X-4.4902 Y22.3633
G01 X-6.5624 Y24.4355
G01 X-6.5930 Y24.4623
G01 X-6.6202 Y24.4821
G01 X-6.6439 Y24.4971
G01 X-6.6736 Y24.5130
G01 X-6.6864 Y24.5187
G01 X-6.7176 Y24.5312
G01 X-6.7420 Y24.5387
G01 X-6.7420 Y25.0050
G01 X-6.7423 Y25.0173
G01 X-6.7453 Y25.0454
G01 X-6.7514 Y25.0730
G01 X-6.7607 Y25.0998
G01 X-6.7729 Y25.1253
G01 X-6.7879 Y25.1493
G01 X-6.8055 Y25.1715
G01 X-6.8255 Y25.1915
G01 X-6.8477 Y25.2091
G01 X-6.8717 Y25.2241
G01 X-6.8972 Y25.2363
G01 X-6.9240 Y25.2456
G01 X-6.9516 Y25.2517
G01 X-6.9797 Y25.2547
G01 X-6.9920 Y25.2550
G01 X-8.2420 Y25.2550
G01 X-8.2543 Y25.2547
G01 X-8.2824 Y25.2517
G01 X-8.3100 Y25.2456
G01 X-8.3368 Y25.2363
G01 X-8.3623 Y25.2241
G01 X-8.3863 Y25.2091
G01 X-8.4085 Y25.1915
G01 X-8.4285 Y25.1715
G01 X-8.4461 Y25.1493
G01 X-8.4611 Y25.1253
G01 X-8.4733 Y25.0998
G01 X-8.4826 Y25.0730
G01 X-8.4887 Y25.0454
G01 X-8.4917 Y25.0173
G01 X-8.4920 Y25.0050
G01 X-8.4917 Y23.2427
G01 X-8.4887 Y23.2146
G01 X-8.4826 Y23.1870
G01 X-8.4733 Y23.1602
G01 X-8.4611 Y23.1347
G01 X-8.4461 Y23.1107
G01 X-8.4285 Y23.0885
G01 X-8.4085 Y23.0685
G01 X-8.3863 Y23.0509
G01 X-8.3623 Y23.0359
G01 X-8.3368 Y23.0237
G01 X-8.3100 Y23.0144
G01 X-8.2824 Y23.0083
G01 X-8.2543 Y23.0053
G01 X-6.9920 Y23.0050
G01 X-6.9797 Y23.0053
G01 X-6.9516 Y23.0083
G01 X-6.9240 Y23.0144
G01 X-6.8972 Y23.0237
G01 X-6.8717 Y23.0359
G01 X-6.8477 Y23.0509
G01 X-6.8255 Y23.0685
G01 X-6.8055 Y23.0885
G01 X-6.7879 Y23.1107
G01 X-6.7729 Y23.1347
G01 X-6.7607 Y23.1602
G01 X-6.7514 Y23.1870
G01 X-6.7453 Y23.2146
G01 X-6.7423 Y23.2427
G01 X-6.7420 Y23.2550
G01 X-6.7420 Y23.4128
G00 Z1.0000
G00 X-4.4891 Y24.9038
G01 F30.00
G01 Z-0.1000
G01 F200.00
G01 X-4.5472 Y24.8793
G01 X-4.6565 Y24.8189
G01 X-4.7583 Y24.7466
G01 X-4.8514 Y24.6634
G01 X-4.9346 Y24.5703
G01 X-4.9991 Y24.4801
G01 X-5.0140 Y24.4564
G01 X-5.0609 Y24.3716
G01 X-5.0730 Y24.3464
G01 X-5.1151 Y24.2438
G01 X-5.1497 Y24.1238
G01 X-5.1706 Y24.0007
G01 X-5.1772 Y23.8900
G01 X-5.1772 Y23.8620
G01 X-5.1718 Y23.7653
G01 X-5.1686 Y23.7374
G01 X-5.1497 Y23.6282
G01 X-5.1194 Y23.5216
G01 X-5.1101 Y23.4951
G01 X-5.0673 Y23.3928
G01 X-5.0069 Y23.2835
G01 X-4.9346 Y23.1817
G01 X-4.8611 Y23.0988
G01 X-4.8412 Y23.0789
G01 X-4.7690 Y23.0144
G01 X-4.7471 Y22.9969
G01 X-4.6565 Y22.9331
G01 X-4.5472 Y22.8727
G01 X-4.4318 Y22.8249
G01 X-4.3118 Y22.7903
G01 X-4.1887 Y22.7694
G01 X-4.0780 Y22.7628
G01 X-4.0500 Y22.7628
G01 X-3.9533 Y22.7682
G01 X-3.9254 Y22.7714
G01 X-3.8162 Y22.7903
G01 X-3.7096 Y22.8206
G01 X-3.6831 Y22.8299
G01 X-3.5936 Y22.8670
G01 X-3.5684 Y22.8791
G01 X-3.4715 Y22.9331
G01 X-3.3809 Y22.9969
G01 X-3.3590 Y23.0144
G01 X-3.2766 Y23.0886
G01 X-3.1934 Y23.1817
G01 X-3.1211 Y23.2835
G01 X-3.0671 Y23.3804
G01 X-3.0550 Y23.4056
G01 X-3.0129 Y23.5082
G01 X-2.9818 Y23.6146
G01 X-2.9756 Y23.6420
G01 X-2.9574 Y23.7513
G01 X-2.9504 Y23.8760
G01 X-2.9562 Y23.9867
G01 X-2.9594 Y24.0146
G01 X-2.9783 Y24.1238
G01 X-3.0086 Y24.2304
G01 X-3.0179 Y24.2569
G01 X-3.0607 Y24.3592
G01 X-3.1211 Y24.4685
G01 X-3.1849 Y24.5591
G01 X-3.2024 Y24.5810
G01 X-3.2669 Y24.6532
G01 X-3.2868 Y24.6731
G01 X-3.3697 Y24.7466
G01 X-3.4715 Y24.8189
G01 X-3.5808 Y24.8793
G01 X-3.6389 Y24.9038
G01 X-3.6389 Y25.2239
G01 X-3.1265 Y25.7364
G01 X-3.0997 Y25.7670
G01 X-3.0721 Y25.8058
G01 X-3.0490 Y25.8476
G01 X-3.0358 Y25.8785
G01 X-3.0308 Y25.8916
G01 X-3.0211 Y25.9238
G01 X-3.0148 Y25.9512
G01 X-3.0096 Y25.9844
G01 X-3.0070 Y26.0250
G01 X-3.0069 Y26.8150
G01 X-2.7947 Y26.8153
G01 X-2.7666 Y26.8183
G01 X-2.7390 Y26.8244
G01 X-2.7122 Y26.8337
G01 X-2.6867 Y26.8459
G01 X-2.6627 Y26.8609
G01 X-2.6405 Y26.8785
G01 X-2.6205 Y26.8985
G01 X-2.6029 Y26.9207
G01 X-2.5879 Y26.9447
G01 X-2.5757 Y26.9702
G01 X-2.5664 Y26.9970
G01 X-2.5603 Y27.0246
G01 X-2.5573 Y27.0527
G01 X-2.5570 Y27.0650
G01 X-2.5570 Y28.8150
G01 X-2.5573 Y28.8273
G01 X-2.5603 Y28.8554
G01 X-2.5664 Y28.8830
G01 X-2.5757 Y28.9098
G01 X-2.5879 Y28.9353
G01 X-2.6029 Y28.9593
G01 X-2.6205 Y28.9815
G01 X-2.6405 Y29.0015
G01 X-2.6627 Y29.0191
G01 X-2.6867 Y29.0341
G01 X-2.7122 Y29.0463
G01 X-2.7390 Y29.0556
G01 X-2.7666 Y29.0617
G01 X-2.7947 Y29.0647
G01 X-2.8560 Y29.0650
G01 X-0.0455 Y31.8756
G01 X-0.0277 Y31.8954
G01 X-0.0102 Y31.9174
G01 X0.0089 Y31.9450
G01 X0.0256 Y31.9743
G01 X0.0377 Y31.9996
G01 X0.0502 Y32.0308
G01 X0.0634 Y32.0766
G01 X0.0714 Y32.1236
G01 X0.0741 Y32.1712
G01 X0.0741 Y34.5650
G01 X0.0714 Y34.6126
G01 X0.0662 Y34.6458
G01 X0.0634 Y34.6596
G01 X0.0545 Y34.6920
G01 X0.0452 Y34.7185
G01 X0.0320 Y34.7494
G01 X0.0089 Y34.7912
G01 X-0.0187 Y34.8300
G01 X-0.0504 Y34.8656
G01 X-1.7848 Y36.6000
G01 X-1.0360 Y36.6000
G01 X-1.0237 Y36.6003
G01 X-0.9956 Y36.6033
G01 X-0.9680 Y36.6094
G01 X-0.9412 Y36.6187
G01 X-0.9157 Y36.6309
G01 X-0.8917 Y36.6459
G01 X-0.8695 Y36.6635
G01 X-0.8495 Y36.6835
G01 X-0.8319 Y36.7057
G01 X-0.8169 Y36.7297
G01 X-0.8047 Y36.7552
G01 X-0.7954 Y36.7820
G01 X-0.7893 Y36.8096
G01 X-0.7863 Y36.8377
G01 X-0.7860 Y36.8500
G01 X-0.7863 Y39.3623
G01 X-0.7893 Y39.3904
G01 X-0.7954 Y39.4180
G01 X-0.8047 Y39.4448
G01 X-0.8169 Y39.4703
G01 X-0.8319 Y39.4943
G01 X-0.8495 Y39.5165
G01 X-0.8695 Y39.5365
G01 X-0.8917 Y39.5541
G01 X-0.9157 Y39.5691
G01 X-0.9412 Y39.5813
G01 X-0.9680 Y39.5906
G01 X-0.9956 Y39.5967
G01 X-1.0237 Y39.5997
G01 X-1.0360 Y39.6000
G01 X-3.5483 Y39.5997
G01 X-3.5764 Y39.5967
G01 X-3.6040 Y39.5906
G01 X-3.6308 Y39.5813
G01 X-3.6563 Y39.5691
G01 X-3.6803 Y39.5541
G01 X-3.7025 Y39.5365
G01 X-3.7225 Y39.5165
G01 X-3.7401 Y39.4943
G01 X-3.7551 Y39.4703
G01 X-3.7673 Y39.4448
G01 X-3.7766 Y39.4180
G01 X-3.7827 Y39.3904
G01 X-3.7857 Y39.3623
G01 X-3.7860 Y39.3500
G01 X-3.7860 Y36.8500
G01 X-3.7857 Y36.8377
G01 X-3.7827 Y36.8096
G01 X-3.7766 Y36.7820
G01 X-3.7673 Y36.7552
G01 X-3.7551 Y36.7297
G01 X-3.7401 Y36.7057
G01 X-3.7225 Y36.6835
G01 X-3.7025 Y36.6635
G01 X-3.6803 Y36.6459
G01 X-3.6563 Y36.6309
G01 X-3.6308 Y36.6187
G01 X-3.6040 Y36.6094
G01 X-3.5764 Y36.6033
G01 X-3.5483 Y36.6003
G01 X-3.5360 Y36.6000
G01 X-2.7111 Y36.6000
G01 X-2.7111 Y36.5000
G01 X-2.7096 Y36.4664
G01 X-2.7065 Y36.4385
G01 X-2.7004 Y36.4054
G01 X-2.6969 Y36.3918
G01 X-2.6872 Y36.3596
G01 X-2.6822 Y36.3465
G01 X-2.6690 Y36.3156
G01 X-2.6626 Y36.3031
G01 X-2.6459 Y36.2738
G01 X-2.6381 Y36.2622
G01 X-2.6183 Y36.2350
G01 X-2.6093 Y36.2242
G01 X-2.5866 Y36.1994
G01 X-0.7761 Y34.3889
G01 X-0.7761 Y32.3473
G01 X-3.7375 Y29.3858
G01 X-3.7643 Y29.3552
G01 X-3.7919 Y29.3164
G01 X-3.8150 Y29.2746
G01 X-3.8332 Y29.2306
G01 X-3.8464 Y29.1848
G01 X-3.8525 Y29.1517
G01 X-3.8544 Y29.1378
G01 X-3.8567 Y29.1042
G01 X-3.8571 Y29.0650
G01 X-4.0693 Y29.0647
G01 X-4.0974 Y29.0617
G01 X-4.1250 Y29.0556
G01 X-4.1518 Y29.0463
G01 X-4.1773 Y29.0341
G01 X-4.2013 Y29.0191
G01 X-4.2235 Y29.0015
G01 X-4.2435 Y28.9815
G01 X-4.2611 Y28.9593
G01 X-4.2761 Y28.9353
G01 X-4.2883 Y28.9098
G01 X-4.2976 Y28.8830
G01 X-4.3037 Y28.8554
G01 X-4.3067 Y28.8273
G01 X-4.3070 Y28.8150
G01 X-4.3070 Y27.0650
G01 X-4.3067 Y27.0527
G01 X-4.3037 Y27.0246
G01 X-4.2976 Y26.9970
G01 X-4.2883 Y26.9702
G01 X-4.2761 Y26.9447
G01 X-4.2611 Y26.9207
G01 X-4.2435 Y26.8985
G01 X-4.2235 Y26.8785
G01 X-4.2013 Y26.8609
G01 X-4.1773 Y26.8459
G01 X-4.1518 Y26.8337
G01 X-4.1250 Y26.8244
G01 X-4.0974 Y26.8183
G01 X-4.0693 Y26.8153
G01 X-3.8571 Y26.8150
G01 X-3.8571 Y26.2081
G01 X-4.3695 Y25.6956
G01 X-4.3963 Y25.6650
G01 X-4.4161 Y25.6378
G01 X-4.4311 Y25.6141
G01 X-4.4470 Y25.5844
G01 X-4.4652 Y25.5404
G01 X-4.4749 Y25.5082
G01 X-4.4784 Y25.4946
G01 X-4.4845 Y25.4615
G01 X-4.4876 Y25.4336
G01 X-4.4891 Y25.4000
G01 X-4.4891 Y24.9038
G00 Z1.0000
G00 X-5.0918 Y18.3709
G01 F30.00
G01 Z-0.1000
G01 F200.00
G01 X-5.0673 Y18.3128
G01 X-5.0069 Y18.2035
G01 X-4.9346 Y18.1017
G01 X-4.8514 Y18.0086
G01 X-4.7583 Y17.9254
G01 X-4.6681 Y17.8609
G01 X-4.6444 Y17.8460
G01 X-4.5596 Y17.7991
G01 X-4.5344 Y17.7870
G01 X-4.4318 Y17.7449
G01 X-4.3118 Y17.7103
G01 X-4.1887 Y17.6894
G01 X-4.0780 Y17.6828
G01 X-4.0500 Y17.6828
G01 X-3.9533 Y17.6882
G01 X-3.9254 Y17.6914
G01 X-3.8162 Y17.7103
G01 X-3.7096 Y17.7406
G01 X-3.6831 Y17.7499
G01 X-3.5808 Y17.7927
G01 X-3.4715 Y17.8531
G01 X-3.3697 Y17.9254
G01 X-3.2868 Y17.9989
G01 X-3.2669 Y18.0188
G01 X-3.2024 Y18.0910
G01 X-3.1849 Y18.1129
G01 X-3.1211 Y18.2035
G01 X-3.0607 Y18.3128
G01 X-3.0129 Y18.4282
G01 X-2.9783 Y18.5482
G01 X-2.9574 Y18.6713
G01 X-2.9508 Y18.7820
G01 X-2.9508 Y18.8100
G01 X-2.9574 Y18.9207
G01 X-2.9756 Y19.0300
G01 X-2.9818 Y19.0574
G01 X-3.0086 Y19.1504
G01 X-3.0179 Y19.1769
G01 X-3.0550 Y19.2664
G01 X-3.0671 Y19.2916
G01 X-3.1211 Y19.3885
G01 X-3.1849 Y19.4791
G01 X-3.2024 Y19.5010
G01 X-3.2766 Y19.5834
G01 X-3.3697 Y19.6666
G01 X-3.4599 Y19.7311
G01 X-3.4836 Y19.7460
G01 X-3.5808 Y19.7993
G01 X-3.6831 Y19.8421
G01 X-3.7096 Y19.8514
G01 X-3.8162 Y19.8817
G01 X-3.9393 Y19.9026
G01 X-4.0500 Y19.9092
G01 X-4.0780 Y19.9092
G01 X-4.1887 Y19.9026
G01 X-4.3118 Y19.8817
G01 X-4.4318 Y19.8471
G01 X-4.5344 Y19.8050
G01 X-4.5596 Y19.7929
G01 X-4.6565 Y19.7389
G01 X-4.7471 Y19.6751
G01 X-4.7690 Y19.6576
G01 X-4.8514 Y19.5834
G01 X-4.9346 Y19.4903
G01 X-4.9991 Y19.4001
G01 X-5.0140 Y19.3764
G01 X-5.0673 Y19.2792
G01 X-5.0918 Y19.2211
G01 X-6.4880 Y19.2211
G01 X-6.4880 Y19.6710
G01 X-6.4883 Y19.6833
G01 X-6.4913 Y19.7114
G01 X-6.4974 Y19.7390
G01 X-6.5067 Y19.7658
G01 X-6.5189 Y19.7913
G01 X-6.5339 Y19.8153
G01 X-6.5515 Y19.8375
G01 X-6.5715 Y19.8575
G01 X-6.5937 Y19.8751
G01 X-6.6177 Y19.8901
G01 X-6.6432 Y19.9023
G01 X-6.6700 Y19.9116
G01 X-6.6976 Y19.9177
G01 X-6.7257 Y19.9207
G01 X-6.7380 Y19.9210
G01 X-8.0003 Y19.9207
G01 X-8.0284 Y19.9177
G01 X-8.0560 Y19.9116
G01 X-8.0828 Y19.9023
G01 X-8.1083 Y19.8901
G01 X-8.1323 Y19.8751
G01 X-8.1545 Y19.8575
G01 X-8.1745 Y19.8375
G01 X-8.1921 Y19.8153
G01 X-8.2071 Y19.7913
G01 X-8.2193 Y19.7658
G01 X-8.2286 Y19.7390
G01 X-8.2347 Y19.7114
G01 X-8.2377 Y19.6833
G01 X-8.2380 Y19.6710
G01 X-8.2377 Y17.9087
G01 X-8.2347 Y17.8806
G01 X-8.2286 Y17.8530
G01 X-8.2193 Y17.8262
G01 X-8.2071 Y17.8007
G01 X-8.1921 Y17.7767
G01 X-8.1745 Y17.7545
G01 X-8.1545 Y17.7345
G01 X-8.1323 Y17.7169
G01 X-8.1083 Y17.7019
G01 X-8.0828 Y17.6897
G01 X-8.0560 Y17.6804
G01 X-8.0284 Y17.6743
G01 X-8.0003 Y17.6713
G01 X-7.9880 Y17.6710
G01 X-6.7380 Y17.6710
G01 X-6.7257 Y17.6713
G01 X-6.6976 Y17.6743
G01 X-6.6700 Y17.6804
G01 X-6.6432 Y17.6897
G01 X-6.6177 Y17.7019
G01 X-6.5937 Y17.7169
G01 X-6.5715 Y17.7345
G01 X-6.5515 Y17.7545
G01 X-6.5339 Y17.7767
G01 X-6.5189 Y17.8007
G01 X-6.5067 Y17.8262
G01 X-6.4974 Y17.8530
G01 X-6.4913 Y17.8806
G01 X-6.4883 Y17.9087
G01 X-6.4880 Y17.9210
G01 X-6.4880 Y18.3709
G01 X-5.0918 Y18.3709
G00 Z1.0000
G00 X-4.4095 Y15.0680
G01 F30.00
G01 Z-0.1000
G01 F200.00
G01 X-4.4061 Y15.0447
G01 X-4.4043 Y15.0242
G01 X-4.4025 Y14.9844
G01 X-4.4039 Y14.9446
G01 X-4.4055 Y14.9241
G01 X-4.4082 Y14.9044
G01 X-4.3600 Y14.9183
G01 X-4.3396 Y14.9235
G01 X-4.3190 Y14.9276
G01 X-4.2235 Y14.9439
G01 X-4.2027 Y14.9468
G01 X-4.1817 Y14.9486
G01 X-4.0640 Y14.9546
G01 X-3.9463 Y14.9486
G01 X-3.9253 Y14.9468
G01 X-3.9045 Y14.9439
G01 X-3.7884 Y14.9235
G01 X-3.7680 Y14.9183
G01 X-3.6549 Y14.8851
G01 X-3.5458 Y14.8405
G01 X-3.5266 Y14.8319
G01 X-3.4231 Y14.7754
G01 X-3.4050 Y14.7648
G01 X-3.3875 Y14.7531
G01 X-3.2917 Y14.6844
G01 X-3.2757 Y14.6708
G01 X-3.1882 Y14.5918
G01 X-3.1737 Y14.5765
G01 X-3.0956 Y14.4883
G01 X-3.0269 Y14.3925
G01 X-3.0152 Y14.3750
G01 X-3.0046 Y14.3569
G01 X-2.9577 Y14.2721
G01 X-2.9481 Y14.2534
G01 X-2.9395 Y14.2342
G01 X-2.8949 Y14.1251
G01 X-2.8617 Y14.0120
G01 X-2.8565 Y13.9916
G01 X-2.8361 Y13.8755
G01 X-2.8332 Y13.8547
G01 X-2.8314 Y13.8337
G01 X-2.8254 Y13.7160
G01 X-2.8314 Y13.5983
G01 X-2.8332 Y13.5773
G01 X-2.8361 Y13.5565
G01 X-2.8565 Y13.4404
G01 X-2.8617 Y13.4200
G01 X-2.8949 Y13.3069
G01 X-2.9395 Y13.1978
G01 X-2.9481 Y13.1786
G01 X-2.9577 Y13.1599
G01 X-3.0152 Y13.0570
G01 X-3.0269 Y13.0395
G01 X-3.0956 Y12.9437
G01 X-3.1737 Y12.8555
G01 X-3.1882 Y12.8402
G01 X-3.2757 Y12.7612
G01 X-3.2917 Y12.7476
G01 X-3.3086 Y12.7350
G01 X-3.3875 Y12.6789
G01 X-3.4050 Y12.6672
G01 X-3.4389 Y12.6478
G01 X-3.4389 Y12.2442
G01 X-3.4050 Y12.2248
G01 X-3.3875 Y12.2131
G01 X-3.2917 Y12.1444
G01 X-3.2035 Y12.0663
G01 X-3.1882 Y12.0518
G01 X-3.1737 Y12.0365
G01 X-3.0956 Y11.9483
G01 X-3.0269 Y11.8525
G01 X-3.0152 Y11.8350
G01 X-3.0046 Y11.8169
G01 X-2.9481 Y11.7134
G01 X-2.9395 Y11.6942
G01 X-2.8949 Y11.5851
G01 X-2.8617 Y11.4720
G01 X-2.8565 Y11.4516
G01 X-2.8524 Y11.4310
G01 X-2.8332 Y11.3147
G01 X-2.8260 Y11.1970
G01 X-2.8254 Y11.1760
G01 X-2.8260 Y11.1550
G01 X-2.8332 Y11.0373
G01 X-2.8361 Y11.0165
G01 X-2.8565 Y10.9004
G01 X-2.8617 Y10.8800
G01 X-2.8949 Y10.7669
G01 X-2.9395 Y10.6578
G01 X-2.9481 Y10.6386
G01 X-3.0046 Y10.5351
G01 X-3.0152 Y10.5170
G01 X-3.0269 Y10.4995
G01 X-3.0956 Y10.4037
G01 X-3.1737 Y10.3155
G01 X-3.1882 Y10.3002
G01 X-3.2757 Y10.2212
G01 X-3.2917 Y10.2076
G01 X-3.3875 Y10.1389
G01 X-3.4050 Y10.1272
G01 X-3.4389 Y10.1078
G01 X-3.4389 Y9.7042
G01 X-3.4050 Y9.6848
G01 X-3.3875 Y9.6731
G01 X-3.2917 Y9.6044
G01 X-3.2035 Y9.5263
G01 X-3.1882 Y9.5118
G01 X-3.1737 Y9.4965
G01 X-3.0956 Y9.4083
G01 X-3.0269 Y9.3125
G01 X-3.0152 Y9.2950
G01 X-3.0046 Y9.2769
G01 X-2.9481 Y9.1734
G01 X-2.9395 Y9.1542
G01 X-2.8949 Y9.0451
G01 X-2.8617 Y8.9320
G01 X-2.8565 Y8.9116
G01 X-2.8524 Y8.8910
G01 X-2.8361 Y8.7955
G01 X-2.8332 Y8.7747
G01 X-2.8314 Y8.7537
G01 X-2.8254 Y8.6360
G01 X-2.8260 Y8.6150
G01 X-2.8332 Y8.4973
G01 X-2.8361 Y8.4765
G01 X-2.8565 Y8.3604
G01 X-2.8750 Y8.2938
G01 X-2.8422 Y8.2973
G01 X-2.8020 Y8.2992
G01 X-2.7812 Y8.2987
G01 X-2.7410 Y8.2961
G01 X-2.7125 Y8.2920
G01 X-2.7315 Y8.3604
G01 X-2.7519 Y8.4765
G01 X-2.7548 Y8.4973
G01 X-2.7566 Y8.5183
G01 X-2.7620 Y8.6150
G01 X-2.7626 Y8.6360
G01 X-2.7620 Y8.6570
G01 X-2.7548 Y8.7747
G01 X-2.7519 Y8.7955
G01 X-2.7315 Y8.9116
G01 X-2.6995 Y9.0250
G01 X-2.6931 Y9.0451
G01 X-2.6856 Y9.0647
G01 X-2.6399 Y9.1734
G01 X-2.5834 Y9.2769
G01 X-2.5728 Y9.2950
G01 X-2.5611 Y9.3125
G01 X-2.4924 Y9.4083
G01 X-2.4143 Y9.4965
G01 X-2.3998 Y9.5118
G01 X-2.3123 Y9.5908
G01 X-2.2963 Y9.6044
G01 X-2.2794 Y9.6170
G01 X-2.1830 Y9.6848
G01 X-2.0801 Y9.7423
G01 X-2.0614 Y9.7519
G01 X-2.0422 Y9.7605
G01 X-1.9331 Y9.8051
G01 X-1.9130 Y9.8115
G01 X-1.7996 Y9.8435
G01 X-1.7790 Y9.8476
G01 X-1.6627 Y9.8668
G01 X-1.5450 Y9.8740
G01 X-1.5240 Y9.8746
G01 X-1.5030 Y9.8740
G01 X-1.4063 Y9.8686
G01 X-1.3853 Y9.8668
G01 X-1.3645 Y9.8639
G01 X-1.2484 Y9.8435
G01 X-1.1740 Y9.8227
G01 X-1.1772 Y9.8454
G01 X-1.1789 Y9.8660
G01 X-1.1805 Y9.9060
G01 X-1.1789 Y9.9460
G01 X-1.1772 Y9.9666
G01 X-1.1740 Y9.9893
G01 X-1.2484 Y9.9685
G01 X-1.3645 Y9.9481
G01 X-1.3853 Y9.9452
G01 X-1.4063 Y9.9434
G01 X-1.5240 Y9.9374
G01 X-1.6417 Y9.9434
G01 X-1.6627 Y9.9452
G01 X-1.6835 Y9.9481
G01 X-1.7996 Y9.9685
G01 X-1.9130 Y10.0005
G01 X-1.9331 Y10.0069
G01 X-1.9527 Y10.0144
G01 X-2.0614 Y10.0601
G01 X-2.1649 Y10.1166
G01 X-2.1830 Y10.1272
G01 X-2.2005 Y10.1389
G01 X-2.2794 Y10.1950
G01 X-2.2963 Y10.2076
G01 X-2.3123 Y10.2212
G01 X-2.3998 Y10.3002
G01 X-2.4788 Y10.3877
G01 X-2.4924 Y10.4037
G01 X-2.5050 Y10.4206
G01 X-2.5728 Y10.5170
G01 X-2.5834 Y10.5351
G01 X-2.6399 Y10.6386
G01 X-2.6485 Y10.6578
G01 X-2.6931 Y10.7669
G01 X-2.7263 Y10.8800
G01 X-2.7315 Y10.9004
G01 X-2.7356 Y10.9210
G01 X-2.7519 Y11.0165
G01 X-2.7548 Y11.0373
G01 X-2.7566 Y11.0583
G01 X-2.7626 Y11.1760
G01 X-2.7566 Y11.2937
G01 X-2.7548 Y11.3147
G01 X-2.7519 Y11.3355
G01 X-2.7315 Y11.4516
G01 X-2.7263 Y11.4720
G01 X-2.6931 Y11.5851
G01 X-2.6485 Y11.6942
G01 X-2.6399 Y11.7134
G01 X-2.6303 Y11.7321
G01 X-2.5728 Y11.8350
G01 X-2.5611 Y11.8525
G01 X-2.4924 Y11.9483
G01 X-2.4143 Y12.0365
G01 X-2.3998 Y12.0518
G01 X-2.3123 Y12.1308
G01 X-2.2963 Y12.1444
G01 X-2.2794 Y12.1570
G01 X-2.1830 Y12.2248
G01 X-2.0801 Y12.2823
G01 X-2.0614 Y12.2919
G01 X-1.9527 Y12.3376
G01 X-1.9331 Y12.3451
G01 X-1.9130 Y12.3515
G01 X-1.7996 Y12.3835
G01 X-1.7790 Y12.3876
G01 X-1.6627 Y12.4068
G01 X-1.6417 Y12.4086
G01 X-1.5240 Y12.4146
G01 X-1.4063 Y12.4086
G01 X-1.3853 Y12.4068
G01 X-1.2690 Y12.3876
G01 X-1.2484 Y12.3835
G01 X-1.1740 Y12.3627
G01 X-1.1772 Y12.3854
G01 X-1.1789 Y12.4060
G01 X-1.1805 Y12.4460
G01 X-1.1789 Y12.4860
G01 X-1.1772 Y12.5066
G01 X-1.1740 Y12.5293
G01 X-1.2484 Y12.5085
G01 X-1.3645 Y12.4881
G01 X-1.3853 Y12.4852
G01 X-1.4063 Y12.4834
G01 X-1.5030 Y12.4780
G01 X-1.5240 Y12.4774
G01 X-1.5450 Y12.4780
G01 X-1.6627 Y12.4852
G01 X-1.7790 Y12.5044
G01 X-1.7996 Y12.5085
G01 X-1.9130 Y12.5405
G01 X-1.9331 Y12.5469
G01 X-2.0422 Y12.5915
G01 X-2.0614 Y12.6001
G01 X-2.0801 Y12.6097
G01 X-2.1649 Y12.6566
G01 X-2.1830 Y12.6672
G01 X-2.2005 Y12.6789
G01 X-2.2963 Y12.7476
G01 X-2.3845 Y12.8257
G01 X-2.3998 Y12.8402
G01 X-2.4143 Y12.8555
G01 X-2.4924 Y12.9437
G01 X-2.5611 Y13.0395
G01 X-2.5728 Y13.0570
G01 X-2.5834 Y13.0751
G01 X-2.6399 Y13.1786
G01 X-2.6856 Y13.2873
G01 X-2.6931 Y13.3069
G01 X-2.6995 Y13.3270
G01 X-2.7315 Y13.4404
G01 X-2.7519 Y13.5565
G01 X-2.7548 Y13.5773
G01 X-2.7566 Y13.5983
G01 X-2.7620 Y13.6950
G01 X-2.7626 Y13.7160
G01 X-2.7620 Y13.7370
G01 X-2.7548 Y13.8547
G01 X-2.7519 Y13.8755
G01 X-2.7315 Y13.9916
G01 X-2.7263 Y14.0120
G01 X-2.6931 Y14.1251
G01 X-2.6485 Y14.2342
G01 X-2.6399 Y14.2534
G01 X-2.6303 Y14.2721
G01 X-2.5834 Y14.3569
G01 X-2.5728 Y14.3750
G01 X-2.5611 Y14.3925
G01 X-2.4924 Y14.4883
G01 X-2.4143 Y14.5765
G01 X-2.3998 Y14.5918
G01 X-2.3123 Y14.6708
G01 X-2.2963 Y14.6844
G01 X-2.2005 Y14.7531
G01 X-2.1830 Y14.7648
G01 X-2.1649 Y14.7754
G01 X-2.0614 Y14.8319
G01 X-1.9527 Y14.8776
G01 X-1.9331 Y14.8851
G01 X-1.9130 Y14.8915
G01 X-1.7996 Y14.9235
G01 X-1.6835 Y14.9439
G01 X-1.6627 Y14.9468
G01 X-1.6417 Y14.9486
G01 X-1.5240 Y14.9546
G01 X-1.4063 Y14.9486
G01 X-1.3853 Y14.9468
G01 X-1.3645 Y14.9439
G01 X-1.2690 Y14.9276
G01 X-1.2484 Y14.9235
G01 X-1.2280 Y14.9183
G01 X-1.1740 Y14.9027
G01 X-1.1772 Y14.9254
G01 X-1.1789 Y14.9460
G01 X-1.1805 Y14.9860
G01 X-1.1789 Y15.0260
G01 X-1.1772 Y15.0466
G01 X-1.1740 Y15.0693
G01 X-1.2484 Y15.0485
G01 X-1.3645 Y15.0281
G01 X-1.3853 Y15.0252
G01 X-1.4063 Y15.0234
G01 X-1.5030 Y15.0180
G01 X-1.5240 Y15.0174
G01 X-1.5450 Y15.0180
G01 X-1.6627 Y15.0252
G01 X-1.7790 Y15.0444
G01 X-1.7996 Y15.0485
G01 X-1.9130 Y15.0805
G01 X-1.9331 Y15.0869
G01 X-1.9527 Y15.0944
G01 X-2.0614 Y15.1401
G01 X-2.0801 Y15.1497
G01 X-2.1830 Y15.2072
G01 X-2.2794 Y15.2750
G01 X-2.2963 Y15.2876
G01 X-2.3123 Y15.3012
G01 X-2.3998 Y15.3802
G01 X-2.4788 Y15.4677
G01 X-2.4924 Y15.4837
G01 X-2.5050 Y15.5006
G01 X-2.5611 Y15.5795
G01 X-2.5728 Y15.5970
G01 X-2.5834 Y15.6151
G01 X-2.6399 Y15.7186
G01 X-2.6856 Y15.8273
G01 X-2.6931 Y15.8469
G01 X-2.6995 Y15.8670
G01 X-2.7315 Y15.9804
G01 X-2.7356 Y16.0010
G01 X-2.7548 Y16.1173
G01 X-2.7566 Y16.1383
G01 X-2.7626 Y16.2560
G01 X-2.7566 Y16.3737
G01 X-2.7548 Y16.3947
G01 X-2.7519 Y16.4155
G01 X-2.7315 Y16.5316
G01 X-2.6995 Y16.6450
G01 X-2.6931 Y16.6651
G01 X-2.6485 Y16.7742
G01 X-2.6399 Y16.7934
G01 X-2.5834 Y16.8969
G01 X-2.5728 Y16.9150
G01 X-2.5611 Y16.9325
G01 X-2.5050 Y17.0114
G01 X-2.4924 Y17.0283
G01 X-2.4788 Y17.0443
G01 X-2.3998 Y17.1318
G01 X-2.3123 Y17.2108
G01 X-2.2963 Y17.2244
G01 X-2.2005 Y17.2931
G01 X-2.1830 Y17.3048
G01 X-2.1649 Y17.3154
G01 X-2.0614 Y17.3719
G01 X-1.9527 Y17.4176
G01 X-1.9331 Y17.4251
G01 X-1.8200 Y17.4583
G01 X-1.7996 Y17.4635
G01 X-1.7790 Y17.4676
G01 X-1.6627 Y17.4868
G01 X-1.5450 Y17.4940
G01 X-1.5240 Y17.4946
G01 X-1.5030 Y17.4940
G01 X-1.4063 Y17.4886
G01 X-1.3853 Y17.4868
G01 X-1.3645 Y17.4839
G01 X-1.2484 Y17.4635
G01 X-1.1740 Y17.4427
G01 X-1.1772 Y17.4654
G01 X-1.1789 Y17.4860
G01 X-1.1805 Y17.5260
G01 X-1.1789 Y17.5660
G01 X-1.1772 Y17.5866
G01 X-1.1740 Y17.6093
G01 X-1.2484 Y17.5885
G01 X-1.3645 Y17.5681
G01 X-1.3853 Y17.5652
G01 X-1.4063 Y17.5634
G01 X-1.5030 Y17.5580
G01 X-1.5240 Y17.5574
G01 X-1.5450 Y17.5580
G01 X-1.6627 Y17.5652
G01 X-1.7790 Y17.5844
G01 X-1.7996 Y17.5885
G01 X-1.8200 Y17.5937
G01 X-1.9331 Y17.6269
G01 X-1.9527 Y17.6344
G01 X-2.0614 Y17.6801
G01 X-2.1649 Y17.7366
G01 X-2.1830 Y17.7472
G01 X-2.2005 Y17.7589
G01 X-2.2963 Y17.8276
G01 X-2.3123 Y17.8412
G01 X-2.3998 Y17.9202
G01 X-2.4143 Y17.9355
G01 X-2.4924 Y18.0237
G01 X-2.5050 Y18.0406
G01 X-2.5728 Y18.1370
G01 X-2.6303 Y18.2399
G01 X-2.6399 Y18.2586
G01 X-2.6485 Y18.2778
G01 X-2.6931 Y18.3869
G01 X-2.7263 Y18.5000
G01 X-2.7315 Y18.5204
G01 X-2.7356 Y18.5410
G01 X-2.7519 Y18.6365
G01 X-2.7548 Y18.6573
G01 X-2.7566 Y18.6783
G01 X-2.7626 Y18.7960
G01 X-2.7566 Y18.9137
G01 X-2.7548 Y18.9347
G01 X-2.7356 Y19.0510
G01 X-2.7315 Y19.0716
G01 X-2.6995 Y19.1850
G01 X-2.6931 Y19.2051
G01 X-2.6485 Y19.3142
G01 X-2.6399 Y19.3334
G01 X-2.5834 Y19.4369
G01 X-2.5728 Y19.4550
G01 X-2.5611 Y19.4725
G01 X-2.5050 Y19.5514
G01 X-2.4924 Y19.5683
G01 X-2.4788 Y19.5843
G01 X-2.3998 Y19.6718
G01 X-2.3123 Y19.7508
G01 X-2.2963 Y19.7644
G01 X-2.2005 Y19.8331
G01 X-2.1830 Y19.8448
G01 X-2.1649 Y19.8554
G01 X-2.0614 Y19.9119
G01 X-1.9527 Y19.9576
G01 X-1.9331 Y19.9651
G01 X-1.8200 Y19.9983
G01 X-1.7996 Y20.0035
G01 X-1.7790 Y20.0076
G01 X-1.6627 Y20.0268
G01 X-1.5450 Y20.0340
G01 X-1.5240 Y20.0346
G01 X-1.5030 Y20.0340
G01 X-1.4063 Y20.0286
G01 X-1.3853 Y20.0268
G01 X-1.3645 Y20.0239
G01 X-1.2484 Y20.0035
G01 X-1.1740 Y19.9827
G01 X-1.1772 Y20.0054
G01 X-1.1789 Y20.0260
G01 X-1.1805 Y20.0660
G01 X-1.1789 Y20.1060
G01 X-1.1772 Y20.1266
G01 X-1.1740 Y20.1493
G01 X-1.2484 Y20.1285
G01 X-1.3645 Y20.1081
G01 X-1.3853 Y20.1052
G01 X-1.4063 Y20.1034
G01 X-1.5030 Y20.0980
G01 X-1.5240 Y20.0974
G01 X-1.5450 Y20.0980
G01 X-1.6627 Y20.1052
G01 X-1.7790 Y20.1244
G01 X-1.7996 Y20.1285
G01 X-1.8200 Y20.1337
G01 X-1.9331 Y20.1669
G01 X-1.9527 Y20.1744
G01 X-2.0614 Y20.2201
G01 X-2.1649 Y20.2766
G01 X-2.1830 Y20.2872
G01 X-2.2005 Y20.2989
G01 X-2.2963 Y20.3676
G01 X-2.3123 Y20.3812
G01 X-2.3998 Y20.4602
G01 X-2.4143 Y20.4755
G01 X-2.4924 Y20.5637
G01 X-2.5050 Y20.5806
G01 X-2.5728 Y20.6770
G01 X-2.6303 Y20.7799
G01 X-2.6399 Y20.7986
G01 X-2.6485 Y20.8178
G01 X-2.6931 Y20.9269
G01 X-2.7263 Y21.0400
G01 X-2.7315 Y21.0604
G01 X-2.7356 Y21.0810
G01 X-2.7519 Y21.1765
G01 X-2.7548 Y21.1973
G01 X-2.7566 Y21.2183
G01 X-2.7626 Y21.3360
G01 X-2.7566 Y21.4537
G01 X-2.7548 Y21.4747
G01 X-2.7356 Y21.5910
G01 X-2.7315 Y21.6116
G01 X-2.6995 Y21.7250
G01 X-2.6931 Y21.7451
G01 X-2.6485 Y21.8542
G01 X-2.6399 Y21.8734
G01 X-2.5834 Y21.9769
G01 X-2.5728 Y21.9950
G01 X-2.5050 Y22.0914
G01 X-2.4924 Y22.1083
G01 X-2.4143 Y22.1965
G01 X-2.3998 Y22.2118
G01 X-2.3123 Y22.2908
G01 X-2.2963 Y22.3044
G01 X-2.2005 Y22.3731
G01 X-2.1830 Y22.3848
G01 X-2.1649 Y22.3954
G01 X-2.0614 Y22.4519
G01 X-1.9527 Y22.4976
G01 X-1.9331 Y22.5051
G01 X-1.9130 Y22.5115
G01 X-1.8200 Y22.5383
G01 X-1.7996 Y22.5435
G01 X-1.7790 Y22.5476
G01 X-1.6627 Y22.5668
G01 X-1.5450 Y22.5740
G01 X-1.5240 Y22.5746
G01 X-1.5030 Y22.5740
G01 X-1.3853 Y22.5668
G01 X-1.3645 Y22.5639
G01 X-1.2484 Y22.5435
G01 X-1.1350 Y22.5115
G01 X-1.1149 Y22.5051
G01 X-1.0953 Y22.4976
G01 X-0.9866 Y22.4519
G01 X-0.9301 Y22.4214
G01 X-0.9295 Y22.4320
G01 X-0.9244 Y22.4717
G01 X-0.9209 Y22.4921
G01 X-0.9115 Y22.5310
G01 X-0.9058 Y22.5509
G01 X-0.8922 Y22.5886
G01 X-0.8843 Y22.6077
G01 X-0.8698 Y22.6374
G01 X-2.4060 Y22.6379
G01 X-2.4482 Y22.6423
G01 X-2.4897 Y22.6516
G01 X-2.5298 Y22.6654
G01 X-2.5681 Y22.6837
G01 X-2.6041 Y22.7062
G01 X-2.6373 Y22.7327
G01 X-2.6674 Y22.7627
G01 X-2.6938 Y22.7959
G01 X-2.7163 Y22.8319
G01 X-2.7346 Y22.8702
G01 X-2.7484 Y22.9103
G01 X-2.7577 Y22.9518
G01 X-2.7621 Y22.9940
G01 X-2.7626 Y24.5302
G01 X-2.7923 Y24.5157
G01 X-2.8114 Y24.5078
G01 X-2.8491 Y24.4942
G01 X-2.8690 Y24.4885
G01 X-2.9079 Y24.4791
G01 X-2.9283 Y24.4756
G01 X-2.9680 Y24.4705
G01 X-2.9786 Y24.4699
G01 X-2.9481 Y24.4134
G01 X-2.9024 Y24.3047
G01 X-2.8949 Y24.2851
G01 X-2.8885 Y24.2650
G01 X-2.8617 Y24.1720
G01 X-2.8565 Y24.1516
G01 X-2.8524 Y24.1310
G01 X-2.8332 Y24.0147
G01 X-2.8314 Y23.9937
G01 X-2.8254 Y23.8760
G01 X-2.8314 Y23.7583
G01 X-2.8332 Y23.7373
G01 X-2.8524 Y23.6210
G01 X-2.8565 Y23.6004
G01 X-2.8885 Y23.4870
G01 X-2.8949 Y23.4669
G01 X-2.9395 Y23.3578
G01 X-2.9481 Y23.3386
G01 X-2.9577 Y23.3199
G01 X-3.0152 Y23.2170
G01 X-3.0830 Y23.1206
G01 X-3.0956 Y23.1037
G01 X-3.1737 Y23.0155
G01 X-3.1882 Y23.0002
G01 X-3.2757 Y22.9212
G01 X-3.2917 Y22.9076
G01 X-3.3875 Y22.8389
G01 X-3.4050 Y22.8272
G01 X-3.4231 Y22.8166
G01 X-3.5266 Y22.7601
G01 X-3.6353 Y22.7144
G01 X-3.6549 Y22.7069
G01 X-3.7680 Y22.6737
G01 X-3.7884 Y22.6685
G01 X-3.8090 Y22.6644
G01 X-3.9253 Y22.6452
G01 X-3.9463 Y22.6434
G01 X-4.0640 Y22.6374
G01 X-4.1817 Y22.6434
G01 X-4.2027 Y22.6452
G01 X-4.3190 Y22.6644
G01 X-4.3396 Y22.6685
G01 X-4.4530 Y22.7005
G01 X-4.4731 Y22.7069
G01 X-4.5822 Y22.7515
G01 X-4.6014 Y22.7601
G01 X-4.7049 Y22.8166
G01 X-4.7230 Y22.8272
G01 X-4.7405 Y22.8389
G01 X-4.8363 Y22.9076
G01 X-4.8523 Y22.9212
G01 X-4.9398 Y23.0002
G01 X-5.0188 Y23.0877
G01 X-5.0324 Y23.1037
G01 X-5.0450 Y23.1206
G01 X-5.1128 Y23.2170
G01 X-5.1703 Y23.3199
G01 X-5.1799 Y23.3386
G01 X-5.2256 Y23.4473
G01 X-5.2331 Y23.4669
G01 X-5.2663 Y23.5800
G01 X-5.2715 Y23.6004
G01 X-5.2919 Y23.7165
G01 X-5.2948 Y23.7373
G01 X-5.3020 Y23.8550
G01 X-5.3026 Y23.8760
G01 X-5.3020 Y23.8970
G01 X-5.2948 Y24.0147
G01 X-5.2756 Y24.1310
G01 X-5.2715 Y24.1516
G01 X-5.2663 Y24.1720
G01 X-5.2395 Y24.2650
G01 X-5.2331 Y24.2851
G01 X-5.2256 Y24.3047
G01 X-5.1799 Y24.4134
G01 X-5.1703 Y24.4321
G01 X-5.1128 Y24.5350
G01 X-5.0450 Y24.6314
G01 X-5.0324 Y24.6483
G01 X-4.9543 Y24.7365
G01 X-4.9398 Y24.7518
G01 X-4.9245 Y24.7663
G01 X-4.8363 Y24.8444
G01 X-4.7405 Y24.9131
G01 X-4.7230 Y24.9248
G01 X-4.7049 Y24.9354
G01 X-4.6141 Y24.9854
G01 X-4.6141 Y25.4000
G01 X-4.6135 Y25.4210
G01 X-4.6106 Y25.4616
G01 X-4.6077 Y25.4824
G01 X-4.6003 Y25.5224
G01 X-4.5950 Y25.5428
G01 X-4.5832 Y25.5817
G01 X-4.5757 Y25.6013
G01 X-4.5596 Y25.6387
G01 X-4.5405 Y25.6745
G01 X-4.5298 Y25.6927
G01 X-4.5067 Y25.7262
G01 X-4.4941 Y25.7430
G01 X-4.4603 Y25.7814
G01 X-3.9821 Y26.2599
G01 X-3.9821 Y26.6900
G01 X-4.0754 Y26.6905
G01 X-4.1176 Y26.6949
G01 X-4.1591 Y26.7042
G01 X-4.1992 Y26.7180
G01 X-4.2375 Y26.7363
G01 X-4.2735 Y26.7588
G01 X-4.3067 Y26.7853
G01 X-4.3368 Y26.8153
G01 X-4.3632 Y26.8485
G01 X-4.3857 Y26.8845
G01 X-4.4040 Y26.9228
G01 X-4.4178 Y26.9629
G01 X-4.4271 Y27.0044
G01 X-4.4315 Y27.0466
G01 X-4.4320 Y27.0650
G01 X-4.4320 Y28.8150
G01 X-4.4315 Y28.8334
G01 X-4.4271 Y28.8756
G01 X-4.4178 Y28.9171
G01 X-4.4040 Y28.9572
G01 X-4.3857 Y28.9955
G01 X-4.3632 Y29.0315
G01 X-4.3368 Y29.0647
G01 X-4.3067 Y29.0947
G01 X-4.2735 Y29.1212
G01 X-4.2375 Y29.1437
G01 X-4.1992 Y29.1620
G01 X-4.1591 Y29.1758
G01 X-4.1176 Y29.1851
G01 X-4.0754 Y29.1895
G01 X-3.9727 Y29.1900
G01 X-3.9683 Y29.2126
G01 X-3.9630 Y29.2330
G01 X-3.9512 Y29.2719
G01 X-3.9362 Y29.3097
G01 X-3.9276 Y29.3289
G01 X-3.9085 Y29.3647
G01 X-3.8978 Y29.3829
G01 X-3.8861 Y29.4004
G01 X-3.8621 Y29.4332
G01 X-3.8283 Y29.4716
G01 X-1.7242 Y31.5760
G01 X-1.7493 Y31.5662
G01 X-1.7693 Y31.5598
G01 X-1.9040 Y31.5210
G01 X-1.9244 Y31.5157
G01 X-1.9450 Y31.5116
G01 X-2.0118 Y31.5003
G01 X-8.1321 Y25.3800
G01 X-6.9736 Y25.3795
G01 X-6.9314 Y25.3751
G01 X-6.8899 Y25.3658
G01 X-6.8498 Y25.3520
G01 X-6.8115 Y25.3337
G01 X-6.7755 Y25.3112
G01 X-6.7423 Y25.2847
G01 X-6.7122 Y25.2547
G01 X-6.6858 Y25.2215
G01 X-6.6633 Y25.1855
G01 X-6.6450 Y25.1472
G01 X-6.6312 Y25.1071
G01 X-6.6219 Y25.0656
G01 X-6.6175 Y25.0234
G01 X-6.6170 Y24.6244
G01 X-6.5835 Y24.6065
G01 X-6.5653 Y24.5958
G01 X-6.5318 Y24.5727
G01 X-6.5150 Y24.5601
G01 X-6.4990 Y24.5465
G01 X-6.4690 Y24.5190
G01 X-4.4595 Y22.5094
G01 X-4.3600 Y22.5383
G01 X-4.3396 Y22.5435
G01 X-4.3190 Y22.5476
G01 X-4.2027 Y22.5668
G01 X-4.1817 Y22.5686
G01 X-4.0640 Y22.5746
G01 X-3.9463 Y22.5686
G01 X-3.9253 Y22.5668
G01 X-3.9045 Y22.5639
G01 X-3.8090 Y22.5476
G01 X-3.7884 Y22.5435
G01 X-3.7680 Y22.5383
G01 X-3.6549 Y22.5051
G01 X-3.6353 Y22.4976
G01 X-3.5266 Y22.4519
G01 X-3.4231 Y22.3954
G01 X-3.4050 Y22.3848
G01 X-3.3875 Y22.3731
G01 X-3.2917 Y22.3044
G01 X-3.2757 Y22.2908
G01 X-3.1882 Y22.2118
G01 X-3.1092 Y22.1243
G01 X-3.0956 Y22.1083
G01 X-3.0830 Y22.0914
G01 X-3.0269 Y22.0125
G01 X-3.0152 Y21.9950
G01 X-3.0046 Y21.9769
G01 X-2.9481 Y21.8734
G01 X-2.9395 Y21.8542
G01 X-2.8949 Y21.7451
G01 X-2.8885 Y21.7250
G01 X-2.8565 Y21.6116
G01 X-2.8361 Y21.4955
G01 X-2.8332 Y21.4747
G01 X-2.8314 Y21.4537
G01 X-2.8254 Y21.3360
G01 X-2.8314 Y21.2183
G01 X-2.8332 Y21.1973
G01 X-2.8361 Y21.1765
G01 X-2.8524 Y21.0810
G01 X-2.8565 Y21.0604
G01 X-2.8617 Y21.0400
G01 X-2.8949 Y20.9269
G01 X-2.9395 Y20.8178
G01 X-2.9481 Y20.7986
G01 X-3.0046 Y20.6951
G01 X-3.0152 Y20.6770
G01 X-3.0830 Y20.5806
G01 X-3.0956 Y20.5637
G01 X-3.1092 Y20.5477
G01 X-3.1882 Y20.4602
G01 X-3.2757 Y20.3812
G01 X-3.2917 Y20.3676
G01 X-3.3086 Y20.3550
G01 X-3.3875 Y20.2989
G01 X-3.4050 Y20.2872
G01 X-3.4231 Y20.2766
G01 X-3.5266 Y20.2201
G01 X-3.6353 Y20.1744
G01 X-3.6549 Y20.1669
G01 X-3.7680 Y20.1337
G01 X-3.7884 Y20.1285
G01 X-3.8090 Y20.1244
G01 X-3.9253 Y20.1052
G01 X-4.0430 Y20.0980
G01 X-4.0640 Y20.0974
G01 X-4.0850 Y20.0980
G01 X-4.2027 Y20.1052
G01 X-4.3190 Y20.1244
G01 X-4.3396 Y20.1285
G01 X-4.4530 Y20.1605
G01 X-4.4731 Y20.1669
G01 X-4.5822 Y20.2115
G01 X-4.6014 Y20.2201
G01 X-4.6201 Y20.2297
G01 X-4.7230 Y20.2872
G01 X-4.8194 Y20.3550
G01 X-4.8363 Y20.3676
G01 X-4.8523 Y20.3812
G01 X-4.9398 Y20.4602
G01 X-5.0188 Y20.5477
G01 X-5.0324 Y20.5637
G01 X-5.0450 Y20.5806
G01 X-5.1128 Y20.6770
G01 X-5.1703 Y20.7799
G01 X-5.1799 Y20.7986
G01 X-5.2256 Y20.9073
G01 X-5.2331 Y20.9269
G01 X-5.2663 Y21.0400
G01 X-5.2715 Y21.0604
G01 X-5.2756 Y21.0810
G01 X-5.2948 Y21.1973
G01 X-5.3020 Y21.3150
G01 X-5.3026 Y21.3360
G01 X-5.3020 Y21.3570
G01 X-5.2966 Y21.4537
G01 X-5.2948 Y21.4747
G01 X-5.2919 Y21.4955
G01 X-5.2715 Y21.6116
G01 X-5.2663 Y21.6320
G01 X-5.2374 Y21.7315
G01 X-6.6383 Y23.1323
G01 X-6.6450 Y23.1128
G01 X-6.6633 Y23.0745
G01 X-6.6858 Y23.0385
G01 X-6.7122 Y23.0053
G01 X-6.7423 Y22.9753
G01 X-6.7755 Y22.9488
G01 X-6.8115 Y22.9263
G01 X-6.8498 Y22.9080
G01 X-6.8899 Y22.8942
G01 X-6.9314 Y22.8849
G01 X-6.9736 Y22.8805
G01 X-6.9920 Y22.8800
G01 X-8.2420 Y22.8800
G01 X-8.2604 Y22.8805
G01 X-8.3026 Y22.8849
G01 X-8.3441 Y22.8942
G01 X-8.3769 Y22.9055
G01 X-8.3769 Y20.4942
G01 X-8.3574 Y20.4577
G01 X-8.3488 Y20.4385
G01 X-8.3338 Y20.4007
G01 X-8.3274 Y20.3806
G01 X-8.3167 Y20.3414
G01 X-8.3093 Y20.3014
G01 X-8.3064 Y20.2806
G01 X-8.3035 Y20.2400
G01 X-8.3029 Y20.2190
G01 X-8.3029 Y19.8736
G01 X-8.2942 Y19.8875
G01 X-8.2678 Y19.9207
G01 X-8.2377 Y19.9507
G01 X-8.2045 Y19.9772
G01 X-8.1685 Y19.9997
G01 X-8.1302 Y20.0180
G01 X-8.0901 Y20.0318
G01 X-8.0486 Y20.0411
G01 X-8.0064 Y20.0455
G01 X-6.7380 Y20.0460
G01 X-6.7196 Y20.0455
G01 X-6.6774 Y20.0411
G01 X-6.6359 Y20.0318
G01 X-6.5958 Y20.0180
G01 X-6.5575 Y19.9997
G01 X-6.5215 Y19.9772
G01 X-6.4883 Y19.9507
G01 X-6.4582 Y19.9207
G01 X-6.4318 Y19.8875
G01 X-6.4093 Y19.8515
G01 X-6.3910 Y19.8132
G01 X-6.3772 Y19.7731
G01 X-6.3679 Y19.7316
G01 X-6.3635 Y19.6894
G01 X-6.3630 Y19.3461
G01 X-5.1734 Y19.3461
G01 X-5.1234 Y19.4369
G01 X-5.1128 Y19.4550
G01 X-5.0450 Y19.5514
G01 X-5.0324 Y19.5683
G01 X-5.0188 Y19.5843
G01 X-4.9398 Y19.6718
G01 X-4.8523 Y19.7508
G01 X-4.8363 Y19.7644
G01 X-4.8194 Y19.7770
G01 X-4.7230 Y19.8448
G01 X-4.6201 Y19.9023
G01 X-4.6014 Y19.9119
G01 X-4.5822 Y19.9205
G01 X-4.4731 Y19.9651
G01 X-4.3600 Y19.9983
G01 X-4.3396 Y20.0035
G01 X-4.3190 Y20.0076
G01 X-4.2027 Y20.0268
G01 X-4.0850 Y20.0340
G01 X-4.0640 Y20.0346
G01 X-4.0430 Y20.0340
G01 X-3.9253 Y20.0268
G01 X-3.8090 Y20.0076
G01 X-3.7884 Y20.0035
G01 X-3.7680 Y19.9983
G01 X-3.6549 Y19.9651
G01 X-3.6353 Y19.9576
G01 X-3.5266 Y19.9119
G01 X-3.4231 Y19.8554
G01 X-3.4050 Y19.8448
G01 X-3.3875 Y19.8331
G01 X-3.3086 Y19.7770
G01 X-3.2917 Y19.7644
G01 X-3.2757 Y19.7508
G01 X-3.1882 Y19.6718
G01 X-3.1092 Y19.5843
G01 X-3.0956 Y19.5683
G01 X-3.0830 Y19.5514
G01 X-3.0152 Y19.4550
G01 X-3.0046 Y19.4369
G01 X-2.9481 Y19.3334
G01 X-2.9395 Y19.3142
G01 X-2.8949 Y19.2051
G01 X-2.8885 Y19.1850
G01 X-2.8565 Y19.0716
G01 X-2.8524 Y19.0510
G01 X-2.8332 Y18.9347
G01 X-2.8314 Y18.9137
G01 X-2.8254 Y18.7960
G01 X-2.8314 Y18.6783
G01 X-2.8332 Y18.6573
G01 X-2.8524 Y18.5410
G01 X-2.8565 Y18.5204
G01 X-2.8885 Y18.4070
G01 X-2.8949 Y18.3869
G01 X-2.9395 Y18.2778
G01 X-2.9481 Y18.2586
G01 X-2.9577 Y18.2399
G01 X-3.0152 Y18.1370
G01 X-3.0830 Y18.0406
G01 X-3.0956 Y18.0237
G01 X-3.1092 Y18.0077
G01 X-3.1737 Y17.9355
G01 X-3.1882 Y17.9202
G01 X-3.2035 Y17.9057
G01 X-3.2917 Y17.8276
G01 X-3.3875 Y17.7589
G01 X-3.4050 Y17.7472
G01 X-3.4231 Y17.7366
G01 X-3.5266 Y17.6801
G01 X-3.6353 Y17.6344
G01 X-3.6549 Y17.6269
G01 X-3.7680 Y17.5937
G01 X-3.7884 Y17.5885
G01 X-3.9045 Y17.5681
G01 X-3.9253 Y17.5652
G01 X-3.9463 Y17.5634
G01 X-4.0640 Y17.5574
G01 X-4.1817 Y17.5634
G01 X-4.2027 Y17.5652
G01 X-4.3190 Y17.5844
G01 X-4.3396 Y17.5885
G01 X-4.3600 Y17.5937
G01 X-4.4530 Y17.6205
G01 X-4.4731 Y17.6269
G01 X-4.4927 Y17.6344
G01 X-4.6014 Y17.6801
G01 X-4.7049 Y17.7366
G01 X-4.7230 Y17.7472
G01 X-4.7405 Y17.7589
G01 X-4.8363 Y17.8276
G01 X-4.9245 Y17.9057
G01 X-4.9398 Y17.9202
G01 X-4.9543 Y17.9355
G01 X-5.0188 Y18.0077
G01 X-5.0324 Y18.0237
G01 X-5.0450 Y18.0406
G01 X-5.1128 Y18.1370
G01 X-5.1234 Y18.1551
G01 X-5.1734 Y18.2459
G01 X-6.3630 Y18.2459
G01 X-6.3635 Y17.9026
G01 X-6.3679 Y17.8604
G01 X-6.3772 Y17.8189
G01 X-6.3910 Y17.7788
G01 X-6.4093 Y17.7405
G01 X-6.4318 Y17.7045
G01 X-6.4582 Y17.6713
G01 X-6.4883 Y17.6413
G01 X-6.5215 Y17.6148
G01 X-6.5575 Y17.5923
G01 X-6.5958 Y17.5740
G01 X-6.6359 Y17.5602
G01 X-6.6774 Y17.5509
G01 X-6.7196 Y17.5465
G01 X-6.7380 Y17.5460
G01 X-7.9880 Y17.5460
G01 X-8.0064 Y17.5465
G01 X-8.0486 Y17.5509
G01 X-8.0800 Y17.5579
G01 X-7.3281 Y16.8061
G01 X-5.1734 Y16.8061
G01 X-5.1234 Y16.8969
G01 X-5.1128 Y16.9150
G01 X-5.0450 Y17.0114
G01 X-5.0324 Y17.0283
G01 X-5.0188 Y17.0443
G01 X-4.9398 Y17.1318
G01 X-4.8523 Y17.2108
G01 X-4.8363 Y17.2244
G01 X-4.8194 Y17.2370
G01 X-4.7405 Y17.2931
G01 X-4.7230 Y17.3048
G01 X-4.7049 Y17.3154
G01 X-4.6014 Y17.3719
G01 X-4.5822 Y17.3805
G01 X-4.4731 Y17.4251
G01 X-4.4530 Y17.4315
G01 X-4.3396 Y17.4635
G01 X-4.3190 Y17.4676
G01 X-4.2027 Y17.4868
G01 X-4.0850 Y17.4940
G01 X-4.0640 Y17.4946
G01 X-4.0430 Y17.4940
G01 X-3.9253 Y17.4868
G01 X-3.8090 Y17.4676
G01 X-3.7884 Y17.4635
G01 X-3.7680 Y17.4583
G01 X-3.6549 Y17.4251
G01 X-3.5458 Y17.3805
G01 X-3.5266 Y17.3719
G01 X-3.5079 Y17.3623
G01 X-3.4231 Y17.3154
G01 X-3.4050 Y17.3048
G01 X-3.3875 Y17.2931
G01 X-3.2917 Y17.2244
G01 X-3.2035 Y17.1463
G01 X-3.1882 Y17.1318
G01 X-3.1737 Y17.1165
G01 X-3.1092 Y17.0443
G01 X-3.0956 Y17.0283
G01 X-3.0830 Y17.0114
G01 X-3.0152 Y16.9150
G01 X-3.0046 Y16.8969
G01 X-2.9481 Y16.7934
G01 X-2.9395 Y16.7742
G01 X-2.8949 Y16.6651
G01 X-2.8617 Y16.5520
G01 X-2.8565 Y16.5316
G01 X-2.8524 Y16.5110
G01 X-2.8361 Y16.4155
G01 X-2.8332 Y16.3947
G01 X-2.8314 Y16.3737
G01 X-2.8254 Y16.2560
G01 X-2.8314 Y16.1383
G01 X-2.8332 Y16.1173
G01 X-2.8524 Y16.0010
G01 X-2.8565 Y15.9804
G01 X-2.8885 Y15.8670
G01 X-2.8949 Y15.8469
G01 X-2.9024 Y15.8273
G01 X-2.9481 Y15.7186
G01 X-3.0046 Y15.6151
G01 X-3.0152 Y15.5970
G01 X-3.0830 Y15.5006
G01 X-3.0956 Y15.4837
G01 X-3.1092 Y15.4677
G01 X-3.1882 Y15.3802
G01 X-3.2757 Y15.3012
G01 X-3.2917 Y15.2876
G01 X-3.3875 Y15.2189
G01 X-3.4050 Y15.2072
G01 X-3.4231 Y15.1966
G01 X-3.5079 Y15.1497
G01 X-3.5266 Y15.1401
G01 X-3.5458 Y15.1315
G01 X-3.6549 Y15.0869
G01 X-3.7680 Y15.0537
G01 X-3.7884 Y15.0485
G01 X-3.8090 Y15.0444
G01 X-3.9045 Y15.0281
G01 X-3.9253 Y15.0252
G01 X-3.9463 Y15.0234
G01 X-4.0640 Y15.0174
G01 X-4.0850 Y15.0180
G01 X-4.2027 Y15.0252
G01 X-4.2235 Y15.0281
G01 X-4.3396 Y15.0485
G01 X-4.4095 Y15.0680
G00 Z1.0000
G00 X-4.5641 Y12.6290
G01 F30.00
G01 Z-0.1000
G01 F200.00
G01 X-4.5641 Y12.7216
G01 X-4.6565 Y12.7731
G01 X-4.7471 Y12.8369
G01 X-4.7690 Y12.8544
G01 X-4.8514 Y12.9286
G01 X-4.9256 Y13.0110
G01 X-4.9431 Y13.0329
G01 X-5.0069 Y13.1235
G01 X-5.0584 Y13.2159
G01 X-5.0619 Y13.2159
G01 X-5.0021 Y13.1015
G01 X-4.8642 Y12.9303
G01 X-4.6750 Y12.7721
G01 X-4.6411 Y12.7404
G01 X-4.6194 Y12.7158
G01 X-4.6028 Y12.6942
G01 X-4.5845 Y12.6669
G01 X-4.5641 Y12.6290
G00 Z1.0000
G00 X-5.0619 Y11.6761
G01 F30.00
G01 Z-0.1000
G01 F200.00
G01 X-5.0584 Y11.6761
G01 X-5.0069 Y11.7685
G01 X-4.9431 Y11.8591
G01 X-4.9256 Y11.8810
G01 X-4.8514 Y11.9634
G01 X-4.7690 Y12.0376
G01 X-4.7471 Y12.0551
G01 X-4.6565 Y12.1189
G01 X-4.5641 Y12.1704
G01 X-4.5641 Y12.2630
G01 X-4.5845 Y12.2251
G01 X-4.6028 Y12.1978
G01 X-4.6194 Y12.1762
G01 X-4.6411 Y12.1516
G01 X-4.6750 Y12.1199
G01 X-4.8642 Y11.9617
G01 X-5.0021 Y11.7905
G01 X-5.0619 Y11.6761
G00 Z1.0000
G00 X-4.5641 Y10.0890
G01 F30.00
G01 Z-0.1000
G01 F200.00
G01 X-4.5641 Y10.1816
G01 X-4.6565 Y10.2331
G01 X-4.7471 Y10.2969
G01 X-4.7690 Y10.3144
G01 X-4.8514 Y10.3886
G01 X-4.9256 Y10.4710
G01 X-4.9431 Y10.4929
G01 X-5.0069 Y10.5835
G01 X-5.0584 Y10.6759
G01 X-5.0619 Y10.6759
G01 X-5.0021 Y10.5615
G01 X-4.8642 Y10.3903
G01 X-4.6750 Y10.2321
G01 X-4.6411 Y10.2004
G01 X-4.6194 Y10.1758
G01 X-4.6028 Y10.1542
G01 X-4.5845 Y10.1269
G01 X-4.5641 Y10.0890
G00 Z1.0000
G00 X-5.0619 Y9.1361
G01 F30.00
G01 Z-0.1000
G01 F200.00
G01 X-5.0584 Y9.1361
G01 X-5.0069 Y9.2285
G01 X-4.9431 Y9.3191
G01 X-4.9256 Y9.3410
G01 X-4.8514 Y9.4234
G01 X-4.7690 Y9.4976
G01 X-4.7471 Y9.5151
G01 X-4.6565 Y9.5789
G01 X-4.5641 Y9.6304
G01 X-4.5641 Y9.7230
G01 X-4.5845 Y9.6851
G01 X-4.6028 Y9.6578
G01 X-4.6194 Y9.6362
G01 X-4.6411 Y9.6116
G01 X-4.6750 Y9.5799
G01 X-4.8642 Y9.4217
G01 X-5.0021 Y9.2505
G01 X-5.0619 Y9.1361
G00 Z1.0000
G00 X-5.0619 Y8.1359
G01 F30.00
G01 Z-0.1000
G01 F200.00
G01 X-5.0021 Y8.0215
G01 X-4.8642 Y7.8503
G01 X-4.6956 Y7.7093
G01 X-4.5641 Y7.6375
G01 X-4.5641 Y7.6416
G01 X-4.6565 Y7.6931
G01 X-4.7471 Y7.7569
G01 X-4.7690 Y7.7744
G01 X-4.8514 Y7.8486
G01 X-4.9256 Y7.9310
G01 X-4.9431 Y7.9529
G01 X-5.0069 Y8.0435
G01 X-5.0584 Y8.1359
G01 X-5.0619 Y8.1359
G00 Z1.0000
G00 X-11.6780 Y6.8551
G01 F30.00
G01 Z-0.1000
G01 F200.00
G01 X-11.6828 Y6.8313
G01 X-11.6938 Y6.7919
G01 X-11.7004 Y6.7718
G01 X-11.7158 Y6.7338
G01 X-11.7246 Y6.7146
G01 X-11.7441 Y6.6787
G01 X-11.7550 Y6.6605
G01 X-11.7836 Y6.6204
G01 X-11.6769 Y6.5891
G01 X-11.6573 Y6.5816
G01 X-11.5552 Y6.5386
G01 X-11.5365 Y6.5290
G01 X-11.4399 Y6.4749
G01 X-11.3492 Y6.4113
G01 X-11.3324 Y6.3987
G01 X-11.2494 Y6.3253
G01 X-11.2341 Y6.3109
G01 X-11.1599 Y6.2287
G01 X-11.1463 Y6.2126
G01 X-11.0818 Y6.1226
G01 X-11.0701 Y6.1051
G01 X-11.0160 Y6.0085
G01 X-11.0064 Y5.9898
G01 X-10.9978 Y5.9706
G01 X-10.9559 Y5.8681
G01 X-10.9247 Y5.7618
G01 X-10.9195 Y5.7415
G01 X-10.9003 Y5.6324
G01 X-10.8974 Y5.6116
G01 X-10.8906 Y5.5010
G01 X-10.8900 Y5.4800
G01 X-10.8901 Y4.6695
G01 X-10.8956 Y4.5694
G01 X-10.8974 Y4.5484
G01 X-10.9148 Y4.4424
G01 X-10.8883 Y4.4479
G01 X-10.8672 Y4.4509
G01 X-10.8262 Y4.4550
G01 X-10.8049 Y4.4556
G01 X-10.7637 Y4.4550
G01 X-10.7425 Y4.4532
G01 X-10.7017 Y4.4479
G01 X-10.6752 Y4.4424
G01 X-10.6926 Y4.5484
G01 X-10.6944 Y4.5694
G01 X-10.6999 Y4.6695
G01 X-10.6999 Y5.4905
G01 X-10.6944 Y5.5906
G01 X-10.6926 Y5.6116
G01 X-10.6897 Y5.6324
G01 X-10.6705 Y5.7415
G01 X-10.6473 Y5.8243
G01 X-11.6780 Y6.8551
G00 Z1.0000
G00 X-13.2152 Y4.4424
G01 F30.00
G01 Z-0.1000
G01 F200.00
G01 X-13.2326 Y4.5484
G01 X-13.2344 Y4.5694
G01 X-13.2399 Y4.6695
G01 X-13.2400 Y5.4800
G01 X-13.2394 Y5.5010
G01 X-13.2326 Y5.6116
G01 X-13.2152 Y5.7176
G01 X-13.2417 Y5.7121
G01 X-13.2628 Y5.7091
G01 X-13.3038 Y5.7050
G01 X-13.3251 Y5.7044
G01 X-13.3662 Y5.7050
G01 X-13.3875 Y5.7068
G01 X-13.4283 Y5.7121
G01 X-13.4548 Y5.7176
G01 X-13.4374 Y5.6116
G01 X-13.4306 Y5.5010
G01 X-13.4300 Y5.4800
G01 X-13.4301 Y4.6695
G01 X-13.4356 Y4.5694
G01 X-13.4374 Y4.5484
G01 X-13.4548 Y4.4424
G01 X-13.4283 Y4.4479
G01 X-13.4072 Y4.4509
G01 X-13.3662 Y4.4550
G01 X-13.3449 Y4.4556
G01 X-13.3037 Y4.4550
G01 X-13.2825 Y4.4532
G01 X-13.2417 Y4.4479
G01 X-13.2152 Y4.4424
G00 Z1.0000
G00 X-12.0790 Y3.6304
G01 F30.00
G01 Z-0.1000
G01 F200.00
G01 X-12.0510 Y3.6304
G01 X-11.9614 Y3.6354
G01 X-11.9336 Y3.6386
G01 X-11.8314 Y3.6563
G01 X-11.7316 Y3.6847
G01 X-11.7051 Y3.6939
G01 X-11.6094 Y3.7340
G01 X-11.5064 Y3.7909
G01 X-11.4103 Y3.8591
G01 X-11.3225 Y3.9375
G01 X-11.2441 Y4.0253
G01 X-11.1759 Y4.1214
G01 X-11.1190 Y4.2244
G01 X-11.0789 Y4.3201
G01 X-11.0697 Y4.3466
G01 X-11.0448 Y4.4328
G01 X-11.0386 Y4.4601
G01 X-11.0216 Y4.5624
G01 X-11.0150 Y4.6800
G01 X-11.0150 Y5.4800
G01 X-11.0216 Y5.5976
G01 X-11.0413 Y5.7136
G01 X-11.0739 Y5.8268
G01 X-11.1190 Y5.9356
G01 X-11.1688 Y6.0266
G01 X-11.1837 Y6.0503
G01 X-11.2441 Y6.1347
G01 X-11.3225 Y6.2225
G01 X-11.4103 Y6.3009
G01 X-11.4947 Y6.3613
G01 X-11.5184 Y6.3762
G01 X-11.5970 Y6.4196
G01 X-11.6222 Y6.4317
G01 X-11.7182 Y6.4711
G01 X-11.8178 Y6.5002
G01 X-11.8451 Y6.5064
G01 X-11.9474 Y6.5234
G01 X-12.0650 Y6.5300
G01 X-12.1826 Y6.5234
G01 X-12.2986 Y6.5037
G01 X-12.4118 Y6.4711
G01 X-12.5078 Y6.4317
G01 X-12.5330 Y6.4196
G01 X-12.6116 Y6.3762
G01 X-12.6353 Y6.3613
G01 X-12.7197 Y6.3009
G01 X-12.8075 Y6.2225
G01 X-12.8859 Y6.1347
G01 X-12.9541 Y6.0386
G01 X-13.0110 Y5.9356
G01 X-13.0511 Y5.8399
G01 X-13.0603 Y5.8134
G01 X-13.0852 Y5.7272
G01 X-13.0914 Y5.6999
G01 X-13.1084 Y5.5976
G01 X-13.1150 Y5.4800
G01 X-13.1150 Y4.6800
G01 X-13.1084 Y4.5624
G01 X-13.0887 Y4.4464
G01 X-13.0561 Y4.3332
G01 X-13.0110 Y4.2244
G01 X-12.9612 Y4.1334
G01 X-12.9463 Y4.1097
G01 X-12.8859 Y4.0253
G01 X-12.8075 Y3.9375
G01 X-12.7197 Y3.8591
G01 X-12.6353 Y3.7987
G01 X-12.6116 Y3.7838
G01 X-12.5330 Y3.7404
G01 X-12.5078 Y3.7283
G01 X-12.4118 Y3.6889
G01 X-12.3122 Y3.6598
G01 X-12.2849 Y3.6536
G01 X-12.1826 Y3.6366
G01 X-12.0790 Y3.6304
G00 Z1.0000
G00 X-14.8829 Y3.3892
G01 F30.00
G01 Z-0.1000
G01 F200.00
G01 X-15.0044 Y3.2676
G01 X-15.0044 Y3.1916
G01 X-14.9807 Y3.1900
G01 X-14.9625 Y3.1877
G01 X-14.9382 Y3.1841
G01 X-14.9111 Y3.1790
G01 X-14.9124 Y3.2089
G01 X-14.9108 Y3.2500
G01 X-14.9091 Y3.2713
G01 X-14.9030 Y3.3120
G01 X-14.8989 Y3.3329
G01 X-14.8936 Y3.3536
G01 X-14.8829 Y3.3892
G00 Z1.0000
G00 X-15.5071 Y4.1441
G01 F30.00
G01 Z-0.1000
G01 F200.00
G01 X-15.8647 Y3.7859
G01 X-15.8868 Y3.7605
G01 X-15.9144 Y3.7217
G01 X-15.9311 Y3.6924
G01 X-15.9432 Y3.6671
G01 X-15.9557 Y3.6359
G01 X-15.9689 Y3.5901
G01 X-15.9750 Y3.5570
G01 X-15.9781 Y3.5291
G01 X-15.9796 Y3.4955
G01 X-15.9796 Y3.0680
G01 X-16.0731 Y3.0679
G01 X-16.1160 Y3.0656
G01 X-16.1645 Y3.0584
G01 X-16.2003 Y3.0497
G01 X-16.2121 Y3.0465
G01 X-16.2469 Y3.0344
G01 X-16.2696 Y3.0250
G01 X-16.2917 Y3.0145
G01 X-16.3134 Y3.0029
G01 X-16.3448 Y2.9837
G01 X-16.3745 Y2.9621
G01 X-16.3935 Y2.9465
G01 X-16.4206 Y2.9216
G01 X-16.4535 Y2.8852
G01 X-16.4827 Y2.8458
G01 X-16.5019 Y2.8144
G01 X-16.5135 Y2.7927
G01 X-16.5289 Y2.7593
G01 X-16.5455 Y2.7131
G01 X-16.5574 Y2.6655
G01 X-16.5631 Y2.6292
G01 X-16.5655 Y2.6048
G01 X-16.5670 Y2.5680
G01 X-16.5670 Y-0.2820
G01 X-16.5655 Y-0.3188
G01 X-16.5631 Y-0.3432
G01 X-16.5574 Y-0.3795
G01 X-16.5455 Y-0.4271
G01 X-16.5289 Y-0.4733
G01 X-16.5135 Y-0.5067
G01 X-16.5019 Y-0.5284
G01 X-16.4893 Y-0.5494
G01 X-16.4757 Y-0.5698
G01 X-16.4535 Y-0.5992
G01 X-16.4206 Y-0.6356
G01 X-16.3842 Y-0.6685
G01 X-16.3548 Y-0.6907
G01 X-16.3344 Y-0.7043
G01 X-16.3134 Y-0.7169
G01 X-16.2917 Y-0.7285
G01 X-16.2583 Y-0.7439
G01 X-16.2121 Y-0.7605
G01 X-16.1645 Y-0.7724
G01 X-16.1282 Y-0.7781
G01 X-16.1038 Y-0.7805
G01 X-16.0670 Y-0.7820
G01 X-15.0420 Y-0.7820
G01 X-14.9930 Y-0.7796
G01 X-14.9445 Y-0.7724
G01 X-14.9087 Y-0.7637
G01 X-14.8852 Y-0.7566
G01 X-14.8507 Y-0.7439
G01 X-14.8173 Y-0.7285
G01 X-14.7956 Y-0.7169
G01 X-14.7642 Y-0.6977
G01 X-14.7345 Y-0.6761
G01 X-14.7155 Y-0.6605
G01 X-14.6884 Y-0.6356
G01 X-14.6635 Y-0.6085
G01 X-14.6479 Y-0.5895
G01 X-14.6263 Y-0.5598
G01 X-14.6010 Y-0.5177
G01 X-14.5850 Y-0.4846
G01 X-14.5756 Y-0.4619
G01 X-14.5635 Y-0.4271
G01 X-14.5516 Y-0.3795
G01 X-14.5459 Y-0.3432
G01 X-14.5435 Y-0.3188
G01 X-14.5420 Y-0.2820
G01 X-14.5420 Y2.5680
G01 X-14.5444 Y2.6170
G01 X-14.5495 Y2.6535
G01 X-14.5543 Y2.6775
G01 X-14.5635 Y2.7131
G01 X-14.5801 Y2.7593
G01 X-14.6010 Y2.8037
G01 X-14.6263 Y2.8458
G01 X-14.6555 Y2.8852
G01 X-14.6884 Y2.9216
G01 X-14.7248 Y2.9545
G01 X-14.7542 Y2.9767
G01 X-14.7746 Y2.9903
G01 X-14.8063 Y3.0090
G01 X-14.8507 Y3.0299
G01 X-14.8969 Y3.0465
G01 X-14.9325 Y3.0557
G01 X-14.9565 Y3.0605
G01 X-14.9808 Y3.0641
G01 X-15.0052 Y3.0665
G01 X-15.0420 Y3.0680
G01 X-15.1294 Y3.0680
G01 X-15.1294 Y3.3194
G01 X-14.7996 Y3.6493
G01 X-14.7226 Y3.6366
G01 X-14.6050 Y3.6300
G01 X-14.4874 Y3.6366
G01 X-14.3851 Y3.6536
G01 X-14.3578 Y3.6598
G01 X-14.2582 Y3.6889
G01 X-14.1622 Y3.7283
G01 X-14.1370 Y3.7404
G01 X-14.0584 Y3.7838
G01 X-14.0347 Y3.7987
G01 X-13.9503 Y3.8591
G01 X-13.8727 Y3.9279
G01 X-13.8529 Y3.9477
G01 X-13.7841 Y4.0253
G01 X-13.7237 Y4.1097
G01 X-13.7088 Y4.1334
G01 X-13.6590 Y4.2244
G01 X-13.6139 Y4.3332
G01 X-13.5848 Y4.4328
G01 X-13.5786 Y4.4601
G01 X-13.5616 Y4.5624
G01 X-13.5551 Y4.6730
G01 X-13.5551 Y5.4870
G01 X-13.5616 Y5.5976
G01 X-13.5813 Y5.7136
G01 X-13.6139 Y5.8268
G01 X-13.6533 Y5.9228
G01 X-13.6654 Y5.9480
G01 X-13.7088 Y6.0266
G01 X-13.7237 Y6.0503
G01 X-13.7841 Y6.1347
G01 X-13.8625 Y6.2225
G01 X-13.9503 Y6.3009
G01 X-14.0464 Y6.3691
G01 X-14.1494 Y6.4260
G01 X-14.2582 Y6.4711
G01 X-14.3714 Y6.5037
G01 X-14.4736 Y6.5214
G01 X-14.5014 Y6.5246
G01 X-14.5910 Y6.5296
G01 X-14.6190 Y6.5296
G01 X-14.7226 Y6.5234
G01 X-14.8386 Y6.5037
G01 X-14.9518 Y6.4711
G01 X-15.0606 Y6.4260
G01 X-15.1636 Y6.3691
G01 X-15.2485 Y6.3094
G01 X-15.2704 Y6.2919
G01 X-15.3373 Y6.2321
G01 X-15.3571 Y6.2123
G01 X-15.4259 Y6.1347
G01 X-15.4941 Y6.0386
G01 X-15.5446 Y5.9480
G01 X-15.5567 Y5.9228
G01 X-15.5961 Y5.8268
G01 X-15.6252 Y5.7272
G01 X-15.6314 Y5.6999
G01 X-15.6484 Y5.5976
G01 X-15.6550 Y5.4800
G01 X-15.6550 Y4.6800
G01 X-15.6484 Y4.5624
G01 X-15.6287 Y4.4464
G01 X-15.5961 Y4.3332
G01 X-15.5510 Y4.2244
G01 X-15.5071 Y4.1441
G00 Z1.0000
G00 X-24.0270 Y8.3625
G01 F30.00
G01 Z-0.1000
G01 F200.00
G01 X-24.0273 Y8.3743
G01 X-24.0303 Y8.4024
G01 X-24.0364 Y8.4300
G01 X-24.0457 Y8.4568
G01 X-24.0579 Y8.4823
G01 X-24.0729 Y8.5063
G01 X-24.0905 Y8.5285
G01 X-24.1105 Y8.5485
G01 X-24.1327 Y8.5661
G01 X-24.1567 Y8.5811
G01 X-24.1822 Y8.5933
G01 X-24.2090 Y8.6026
G01 X-24.2366 Y8.6087
G01 X-24.2647 Y8.6117
G01 X-26.7770 Y8.6120
G01 X-26.7893 Y8.6117
G01 X-26.8174 Y8.6087
G01 X-26.8450 Y8.6026
G01 X-26.8718 Y8.5933
G01 X-26.8973 Y8.5811
G01 X-26.9213 Y8.5661
G01 X-26.9435 Y8.5485
G01 X-26.9635 Y8.5285
G01 X-26.9811 Y8.5063
G01 X-26.9961 Y8.4823
G01 X-27.0083 Y8.4568
G01 X-27.0176 Y8.4300
G01 X-27.0237 Y8.4024
G01 X-27.0267 Y8.3743
G01 X-27.0270 Y8.3620
G01 X-27.0270 Y5.8620
G01 X-27.0267 Y5.8497
G01 X-27.0237 Y5.8216
G01 X-27.0176 Y5.7940
G01 X-27.0083 Y5.7672
G01 X-26.9961 Y5.7417
G01 X-26.9811 Y5.7177
G01 X-26.9635 Y5.6955
G01 X-26.9435 Y5.6755
G01 X-26.9213 Y5.6579
G01 X-26.8973 Y5.6429
G01 X-26.8718 Y5.6307
G01 X-26.8450 Y5.6214
G01 X-26.8174 Y5.6153
G01 X-26.7893 Y5.6123
G01 X-26.7770 Y5.6120
G01 X-25.7955 Y5.6120
G01 X-22.7800 Y2.5965
G01 X-22.7800 Y1.1430
G01 X-22.7721 Y1.0030
G01 X-22.7486 Y0.8647
G01 X-22.7141 Y0.7433
G01 X-22.7048 Y0.7169
G01 X-22.6619 Y0.6132
G01 X-22.6497 Y0.5880
G01 X-22.5883 Y0.4777
G01 X-22.5420 Y0.4117
G01 X-22.5420 Y-0.2820
G01 X-22.5405 Y-0.3188
G01 X-22.5381 Y-0.3432
G01 X-22.5324 Y-0.3795
G01 X-22.5205 Y-0.4271
G01 X-22.5084 Y-0.4619
G01 X-22.4990 Y-0.4846
G01 X-22.4830 Y-0.5177
G01 X-22.4577 Y-0.5598
G01 X-22.4285 Y-0.5992
G01 X-22.4040 Y-0.6267
G01 X-22.3867 Y-0.6440
G01 X-22.3592 Y-0.6685
G01 X-22.3298 Y-0.6907
G01 X-22.3094 Y-0.7043
G01 X-22.2884 Y-0.7169
G01 X-22.2667 Y-0.7285
G01 X-22.2333 Y-0.7439
G01 X-22.1871 Y-0.7605
G01 X-22.1395 Y-0.7724
G01 X-22.0910 Y-0.7796
G01 X-22.0420 Y-0.7820
G01 X-21.0109 Y-0.7819
G01 X-20.9680 Y-0.7796
G01 X-20.9315 Y-0.7745
G01 X-20.9075 Y-0.7697
G01 X-20.8837 Y-0.7637
G01 X-20.8602 Y-0.7566
G01 X-20.8257 Y-0.7439
G01 X-20.8144 Y-0.7390
G01 X-20.7813 Y-0.7230
G01 X-20.7496 Y-0.7043
G01 X-20.7292 Y-0.6907
G01 X-20.6998 Y-0.6685
G01 X-20.6634 Y-0.6356
G01 X-20.6305 Y-0.5992
G01 X-20.6083 Y-0.5698
G01 X-20.5947 Y-0.5494
G01 X-20.5760 Y-0.5177
G01 X-20.5600 Y-0.4846
G01 X-20.5506 Y-0.4619
G01 X-20.5385 Y-0.4271
G01 X-20.5293 Y-0.3915
G01 X-20.5245 Y-0.3675
G01 X-20.5194 Y-0.3310
G01 X-20.5171 Y-0.2881
G01 X-20.5170 Y0.4117
G01 X-20.4707 Y0.4777
G01 X-20.4093 Y0.5880
G01 X-20.3971 Y0.6132
G01 X-20.3542 Y0.7169
G01 X-20.3449 Y0.7433
G01 X-20.3104 Y0.8647
G01 X-20.2869 Y1.0030
G01 X-20.2790 Y1.1430
G01 X-20.2790 Y3.1145
G01 X-20.2869 Y3.2545
G01 X-20.3076 Y3.3790
G01 X-20.3139 Y3.4063
G01 X-20.3449 Y3.5142
G01 X-20.3542 Y3.5406
G01 X-20.4028 Y3.6571
G01 X-20.4635 Y3.7677
G01 X-20.4785 Y3.7915
G01 X-20.5518 Y3.8942
G01 X-20.6356 Y3.9885
G01 X-22.7534 Y6.1068
G01 X-22.7265 Y6.1259
G01 X-22.7046 Y6.1434
G01 X-22.6108 Y6.2278
G01 X-19.6849 Y9.1538
G01 X-19.6054 Y9.2426
G01 X-19.5879 Y9.2645
G01 X-19.5152 Y9.3677
G01 X-19.4538 Y9.4780
G01 X-19.4416 Y9.5032
G01 X-19.3937 Y9.6200
G01 X-19.3584 Y9.7412
G01 X-19.3521 Y9.7685
G01 X-19.3314 Y9.8930
G01 X-19.3235 Y10.0330
G01 X-19.3235 Y25.9340
G01 X-19.3302 Y26.0600
G01 X-19.3333 Y26.0879
G01 X-19.3549 Y26.2122
G01 X-19.3894 Y26.3336
G01 X-19.3987 Y26.3601
G01 X-19.4473 Y26.4766
G01 X-19.5080 Y26.5872
G01 X-19.5230 Y26.6110
G01 X-19.5963 Y26.7137
G01 X-19.6849 Y26.8132
G01 X-24.2765 Y31.4050
G01 X-24.2769 Y31.8910
G01 X-24.2844 Y32.0170
G01 X-24.3051 Y32.1415
G01 X-24.3114 Y32.1688
G01 X-24.3467 Y32.2900
G01 X-24.3946 Y32.4068
G01 X-24.4068 Y32.4320
G01 X-24.4610 Y32.5302
G01 X-24.4760 Y32.5540
G01 X-24.5493 Y32.6567
G01 X-24.6331 Y32.7510
G01 X-24.6530 Y32.7709
G01 X-24.7473 Y32.8547
G01 X-24.8617 Y32.9358
G01 X-24.9844 Y33.0037
G01 X-25.1140 Y33.0573
G01 X-25.2487 Y33.0961
G01 X-25.3870 Y33.1196
G01 X-25.5270 Y33.1275
G01 X-25.6530 Y33.1208
G01 X-25.6809 Y33.1177
G01 X-25.8053 Y33.0961
G01 X-25.9267 Y33.0616
G01 X-25.9531 Y33.0523
G01 X-26.0696 Y33.0037
G01 X-26.1802 Y32.9430
G01 X-26.2040 Y32.9280
G01 X-26.3067 Y32.8547
G01 X-26.4010 Y32.7709
G01 X-26.4209 Y32.7510
G01 X-26.5047 Y32.6567
G01 X-26.5780 Y32.5540
G01 X-26.5930 Y32.5302
G01 X-26.6537 Y32.4196
G01 X-26.7073 Y32.2900
G01 X-26.7426 Y32.1688
G01 X-26.7489 Y32.1415
G01 X-26.7696 Y32.0170
G01 X-26.7771 Y31.8910
G01 X-26.7774 Y30.8800
G01 X-26.7696 Y30.7470
G01 X-26.7461 Y30.6087
G01 X-26.7073 Y30.4740
G01 X-26.6537 Y30.3444
G01 X-26.5930 Y30.2338
G01 X-26.5780 Y30.2100
G01 X-26.5047 Y30.1073
G01 X-26.4112 Y30.0027
G01 X-21.8245 Y25.4160
G01 X-21.8245 Y10.5510
G01 X-24.0130 Y8.3625
G01 X-24.0270 Y8.3625
G00 Z1.0000
G00 X-25.2271 Y3.5805
G01 F30.00
G01 Z-0.1000
G01 F200.00
G01 X-29.9915 Y8.3450
G01 X-29.9915 Y33.2170
G01 X-25.2271 Y37.9815
G01 X-25.1932 Y37.9876
G01 X-25.1796 Y37.9911
G01 X-25.0449 Y38.0299
G01 X-25.0185 Y38.0392
G01 X-24.8762 Y38.0985
G01 X-24.7410 Y38.1728
G01 X-24.7173 Y38.1877
G01 X-24.5918 Y38.2773
G01 X-24.4663 Y38.3893
G01 X-24.3543 Y38.5148
G01 X-24.2647 Y38.6403
G01 X-24.2498 Y38.6640
G01 X-24.1755 Y38.7992
G01 X-24.1162 Y38.9415
G01 X-24.1069 Y38.9679
G01 X-24.0681 Y39.1026
G01 X-24.0619 Y39.1300
G01 X-24.0364 Y39.2821
G01 X-24.0270 Y39.4500
G01 X-24.0364 Y39.6179
G01 X-24.0619 Y39.7700
G01 X-24.0681 Y39.7974
G01 X-24.1112 Y39.9454
G01 X-24.1698 Y40.0880
G01 X-24.1820 Y40.1133
G01 X-24.2498 Y40.2360
G01 X-24.2647 Y40.2597
G01 X-24.3543 Y40.3852
G01 X-24.4663 Y40.5107
G01 X-24.5918 Y40.6227
G01 X-24.7173 Y40.7123
G01 X-24.7410 Y40.7272
G01 X-24.8762 Y40.8015
G01 X-25.0185 Y40.8608
G01 X-25.0449 Y40.8701
G01 X-25.1796 Y40.9089
G01 X-25.2070 Y40.9151
G01 X-25.3591 Y40.9406
G01 X-25.5270 Y40.9500
G01 X-25.6949 Y40.9406
G01 X-25.8470 Y40.9151
G01 X-25.8744 Y40.9089
G01 X-26.0091 Y40.8701
G01 X-26.0355 Y40.8608
G01 X-26.1778 Y40.8015
G01 X-26.3250 Y40.7201
G01 X-26.4622 Y40.6227
G01 X-26.5877 Y40.5107
G01 X-26.6907 Y40.3959
G01 X-26.7082 Y40.3740
G01 X-26.7971 Y40.2480
G01 X-26.8720 Y40.1133
G01 X-26.8842 Y40.0880
G01 X-26.9428 Y39.9454
G01 X-26.9859 Y39.7974
G01 X-26.9894 Y39.7838
G01 X-26.9955 Y39.7499
G01 X-32.1311 Y34.6142
G01 X-32.2106 Y34.5254
G01 X-32.2281 Y34.5035
G01 X-32.3008 Y34.4003
G01 X-32.3622 Y34.2900
G01 X-32.3744 Y34.2648
G01 X-32.4223 Y34.1480
G01 X-32.4611 Y34.0133
G01 X-32.4846 Y33.8750
G01 X-32.4925 Y33.7350
G01 X-32.4925 Y7.8270
G01 X-32.4846 Y7.6870
G01 X-32.4639 Y7.5625
G01 X-32.4576 Y7.5352
G01 X-32.4266 Y7.4273
G01 X-32.4173 Y7.4009
G01 X-32.3687 Y7.2844
G01 X-32.3008 Y7.1617
G01 X-32.2197 Y7.0473
G01 X-32.1311 Y6.9478
G01 X-26.9955 Y1.8121
G01 X-26.9894 Y1.7782
G01 X-26.9859 Y1.7646
G01 X-26.9428 Y1.6166
G01 X-26.8842 Y1.4740
G01 X-26.8720 Y1.4487
G01 X-26.7971 Y1.3140
G01 X-26.7082 Y1.1880
G01 X-26.6907 Y1.1661
G01 X-26.5877 Y1.0513
G01 X-26.4622 Y0.9393
G01 X-26.3367 Y0.8497
G01 X-26.3130 Y0.8348
G01 X-26.1778 Y0.7605
G01 X-26.0355 Y0.7012
G01 X-26.0091 Y0.6919
G01 X-25.8608 Y0.6496
G01 X-25.6949 Y0.6214
G01 X-25.5410 Y0.6124
G01 X-25.5130 Y0.6124
G01 X-25.3730 Y0.6203
G01 X-25.3452 Y0.6234
G01 X-25.1932 Y0.6496
G01 X-25.0316 Y0.6962
G01 X-24.8762 Y0.7605
G01 X-24.7290 Y0.8419
G01 X-24.5918 Y0.9393
G01 X-24.4663 Y1.0513
G01 X-24.3543 Y1.1768
G01 X-24.2647 Y1.3023
G01 X-24.2498 Y1.3260
G01 X-24.1820 Y1.4487
G01 X-24.1698 Y1.4740
G01 X-24.1112 Y1.6166
G01 X-24.0646 Y1.7782
G01 X-24.0364 Y1.9441
G01 X-24.0270 Y2.1120
G01 X-24.0364 Y2.2799
G01 X-24.0619 Y2.4320
G01 X-24.0681 Y2.4594
G01 X-24.1069 Y2.5941
G01 X-24.1162 Y2.6205
G01 X-24.1755 Y2.7628
G01 X-24.2569 Y2.9100
G01 X-24.3543 Y3.0472
G01 X-24.4663 Y3.1727
G01 X-24.5918 Y3.2847
G01 X-24.7173 Y3.3743
G01 X-24.7410 Y3.3892
G01 X-24.8762 Y3.4635
G01 X-25.0185 Y3.5228
G01 X-25.0449 Y3.5321
G01 X-25.1796 Y3.5709
G01 X-25.1932 Y3.5744
G01 X-25.2271 Y3.5805
G00 Z1.0000
G00 X-27.1114 Y1.7512
G01 F30.00
G01 Z-0.1000
G01 F200.00
G01 X-27.1060 Y1.7300
G01 X-27.0672 Y1.5953
G01 X-27.0608 Y1.5753
G01 X-27.0533 Y1.5556
G01 X-26.9997 Y1.4261
G01 X-26.9911 Y1.4069
G01 X-26.9814 Y1.3883
G01 X-26.9136 Y1.2656
G01 X-26.9029 Y1.2474
G01 X-26.8912 Y1.2300
G01 X-26.8101 Y1.1156
G01 X-26.7975 Y1.0988
G01 X-26.7839 Y1.0828
G01 X-26.6905 Y0.9782
G01 X-26.6760 Y0.9630
G01 X-26.6608 Y0.9485
G01 X-26.5562 Y0.8551
G01 X-26.5402 Y0.8415
G01 X-26.5234 Y0.8289
G01 X-26.4090 Y0.7478
G01 X-26.3916 Y0.7361
G01 X-26.3734 Y0.7254
G01 X-26.2507 Y0.6576
G01 X-26.2321 Y0.6479
G01 X-26.2129 Y0.6393
G01 X-26.0834 Y0.5857
G01 X-26.0637 Y0.5782
G01 X-26.0437 Y0.5718
G01 X-25.9090 Y0.5330
G01 X-25.8886 Y0.5277
G01 X-25.8680 Y0.5236
G01 X-25.7298 Y0.5002
G01 X-25.7089 Y0.4972
G01 X-25.6880 Y0.4954
G01 X-25.5480 Y0.4876
G01 X-25.5270 Y0.4870
G01 X-25.5060 Y0.4876
G01 X-25.3660 Y0.4954
G01 X-25.3451 Y0.4972
G01 X-25.3242 Y0.5002
G01 X-25.1860 Y0.5236
G01 X-25.1654 Y0.5277
G01 X-25.1450 Y0.5330
G01 X-25.0103 Y0.5718
G01 X-24.9903 Y0.5782
G01 X-24.9706 Y0.5857
G01 X-24.8411 Y0.6393
G01 X-24.8219 Y0.6479
G01 X-24.8033 Y0.6576
G01 X-24.6806 Y0.7254
G01 X-24.6624 Y0.7361
G01 X-24.6450 Y0.7478
G01 X-24.5306 Y0.8289
G01 X-24.5138 Y0.8415
G01 X-24.4978 Y0.8551
G01 X-24.3932 Y0.9485
G01 X-24.3780 Y0.9630
G01 X-24.3635 Y0.9782
G01 X-24.2701 Y1.0828
G01 X-24.2565 Y1.0988
G01 X-24.2439 Y1.1156
G01 X-24.1628 Y1.2300
G01 X-24.1511 Y1.2474
G01 X-24.1404 Y1.2656
G01 X-24.0726 Y1.3883
G01 X-24.0629 Y1.4069
G01 X-24.0543 Y1.4261
G01 X-24.0007 Y1.5556
G01 X-23.9932 Y1.5753
G01 X-23.9868 Y1.5953
G01 X-23.9480 Y1.7300
G01 X-23.9427 Y1.7504
G01 X-23.9386 Y1.7710
G01 X-23.9152 Y1.9092
G01 X-23.9122 Y1.9301
G01 X-23.9104 Y1.9510
G01 X-23.9026 Y2.0910
G01 X-23.9020 Y2.1120
G01 X-23.9026 Y2.1330
G01 X-23.9104 Y2.2730
G01 X-23.9122 Y2.2939
G01 X-23.9152 Y2.3148
G01 X-23.9386 Y2.4530
G01 X-23.9427 Y2.4736
G01 X-23.9480 Y2.4940
G01 X-23.9868 Y2.6287
G01 X-23.9932 Y2.6487
G01 X-24.0007 Y2.6684
G01 X-24.0543 Y2.7979
G01 X-24.0629 Y2.8171
G01 X-24.0726 Y2.8357
G01 X-24.1404 Y2.9584
G01 X-24.1511 Y2.9766
G01 X-24.1628 Y2.9940
G01 X-24.2439 Y3.1084
G01 X-24.2565 Y3.1252
G01 X-24.2701 Y3.1412
G01 X-24.3635 Y3.2458
G01 X-24.3780 Y3.2610
G01 X-24.3932 Y3.2755
G01 X-24.4978 Y3.3689
G01 X-24.5138 Y3.3825
G01 X-24.5306 Y3.3951
G01 X-24.6450 Y3.4762
G01 X-24.6624 Y3.4879
G01 X-24.6806 Y3.4986
G01 X-24.8033 Y3.5664
G01 X-24.8219 Y3.5761
G01 X-24.8411 Y3.5847
G01 X-24.9706 Y3.6383
G01 X-24.9903 Y3.6458
G01 X-25.0103 Y3.6522
G01 X-25.1450 Y3.6910
G01 X-25.1662 Y3.6964
G01 X-29.8665 Y8.3968
G01 X-29.8665 Y33.1652
G01 X-25.1662 Y37.8656
G01 X-25.1450 Y37.8710
G01 X-25.0103 Y37.9098
G01 X-24.9903 Y37.9162
G01 X-24.9706 Y37.9237
G01 X-24.8411 Y37.9773
G01 X-24.8219 Y37.9859
G01 X-24.8033 Y37.9956
G01 X-24.6806 Y38.0634
G01 X-24.6624 Y38.0741
G01 X-24.6450 Y38.0858
G01 X-24.5306 Y38.1669
G01 X-24.5138 Y38.1795
G01 X-24.4978 Y38.1931
G01 X-24.3932 Y38.2865
G01 X-24.3780 Y38.3010
G01 X-24.3635 Y38.3162
G01 X-24.2701 Y38.4208
G01 X-24.2565 Y38.4368
G01 X-24.2439 Y38.4536
G01 X-24.1628 Y38.5680
G01 X-24.1511 Y38.5854
G01 X-24.1404 Y38.6036
G01 X-24.0726 Y38.7263
G01 X-24.0629 Y38.7449
G01 X-24.0543 Y38.7641
G01 X-24.0007 Y38.8936
G01 X-23.9932 Y38.9133
G01 X-23.9868 Y38.9333
G01 X-23.9480 Y39.0680
G01 X-23.9427 Y39.0884
G01 X-23.9386 Y39.1090
G01 X-23.9152 Y39.2472
G01 X-23.9122 Y39.2681
G01 X-23.9104 Y39.2890
G01 X-23.9026 Y39.4290
G01 X-23.9020 Y39.4500
G01 X-23.9026 Y39.4710
G01 X-23.9104 Y39.6110
G01 X-23.9122 Y39.6319
G01 X-23.9152 Y39.6528
G01 X-23.9386 Y39.7910
G01 X-23.9427 Y39.8116
G01 X-23.9480 Y39.8320
G01 X-23.9868 Y39.9667
G01 X-23.9932 Y39.9867
G01 X-24.0007 Y40.0064
G01 X-24.0543 Y40.1359
G01 X-24.0629 Y40.1551
G01 X-24.0726 Y40.1737
G01 X-24.1404 Y40.2964
G01 X-24.1511 Y40.3146
G01 X-24.1628 Y40.3320
G01 X-24.2439 Y40.4464
G01 X-24.2565 Y40.4632
G01 X-24.2701 Y40.4792
G01 X-24.3635 Y40.5838
G01 X-24.3780 Y40.5990
G01 X-24.3932 Y40.6135
G01 X-24.4978 Y40.7069
G01 X-24.5138 Y40.7205
G01 X-24.5306 Y40.7331
G01 X-24.6450 Y40.8142
G01 X-24.6624 Y40.8259
G01 X-24.6806 Y40.8366
G01 X-24.8033 Y40.9044
G01 X-24.8219 Y40.9141
G01 X-24.8411 Y40.9227
G01 X-24.9706 Y40.9763
G01 X-24.9903 Y40.9838
G01 X-25.0103 Y40.9902
G01 X-25.1450 Y41.0290
G01 X-25.1654 Y41.0343
G01 X-25.1860 Y41.0384
G01 X-25.3242 Y41.0618
G01 X-25.3451 Y41.0648
G01 X-25.3660 Y41.0666
G01 X-25.5060 Y41.0744
G01 X-25.5270 Y41.0750
G01 X-25.5480 Y41.0744
G01 X-25.6880 Y41.0666
G01 X-25.7089 Y41.0648
G01 X-25.7298 Y41.0618
G01 X-25.8680 Y41.0384
G01 X-25.8886 Y41.0343
G01 X-25.9090 Y41.0290
G01 X-26.0437 Y40.9902
G01 X-26.0637 Y40.9838
G01 X-26.0834 Y40.9763
G01 X-26.2129 Y40.9227
G01 X-26.2321 Y40.9141
G01 X-26.2507 Y40.9044
G01 X-26.3734 Y40.8366
G01 X-26.3916 Y40.8259
G01 X-26.4090 Y40.8142
G01 X-26.5234 Y40.7331
G01 X-26.5402 Y40.7205
G01 X-26.5562 Y40.7069
G01 X-26.6608 Y40.6135
G01 X-26.6760 Y40.5990
G01 X-26.6905 Y40.5838
G01 X-26.7839 Y40.4792
G01 X-26.7975 Y40.4632
G01 X-26.8101 Y40.4464
G01 X-26.8912 Y40.3320
G01 X-26.9029 Y40.3146
G01 X-26.9136 Y40.2964
G01 X-26.9814 Y40.1737
G01 X-26.9911 Y40.1551
G01 X-26.9997 Y40.1359
G01 X-27.0533 Y40.0064
G01 X-27.0608 Y39.9867
G01 X-27.0672 Y39.9667
G01 X-27.1060 Y39.8320
G01 X-27.1114 Y39.8108
G01 X-32.2146 Y34.7076
G01 X-32.3038 Y34.6087
G01 X-32.3174 Y34.5926
G01 X-32.3301 Y34.5758
G01 X-32.3950 Y34.4843
G01 X-32.4067 Y34.4668
G01 X-32.4174 Y34.4487
G01 X-32.4813 Y34.3318
G01 X-32.5328 Y34.2090
G01 X-32.5403 Y34.1893
G01 X-32.5778 Y34.0614
G01 X-32.5830 Y34.0411
G01 X-32.5871 Y34.0204
G01 X-32.6089 Y33.8890
G01 X-32.6106 Y33.8680
G01 X-32.6174 Y33.7455
G01 X-32.6175 Y7.8270
G01 X-32.6106 Y7.6940
G01 X-32.6089 Y7.6730
G01 X-32.5871 Y7.5416
G01 X-32.5830 Y7.5209
G01 X-32.5778 Y7.5006
G01 X-32.5403 Y7.3727
G01 X-32.4899 Y7.2494
G01 X-32.4813 Y7.2302
G01 X-32.4716 Y7.2115
G01 X-32.4067 Y7.0952
G01 X-32.3301 Y6.9862
G01 X-32.3174 Y6.9694
G01 X-32.3038 Y6.9533
G01 X-32.2220 Y6.8619
G01 X-27.1114 Y1.7512
G00 Z1.0000
G00 X-23.9445 Y15.2170
G01 F30.00
G01 Z-0.1000
G01 F200.00
G01 X-23.9749 Y15.5257
G01 X-24.0649 Y15.8226
G01 X-24.2112 Y16.0962
G01 X-24.4080 Y16.3360
G01 X-24.6478 Y16.5328
G01 X-24.9214 Y16.6791
G01 X-25.2183 Y16.7691
G01 X-25.4496 Y16.7919
G01 X-25.6044 Y16.7919
G01 X-25.8357 Y16.7691
G01 X-26.1326 Y16.6791
G01 X-26.4062 Y16.5328
G01 X-26.6460 Y16.3360
G01 X-26.8428 Y16.0962
G01 X-26.9891 Y15.8226
G01 X-27.0791 Y15.5257
G01 X-27.1095 Y15.2170
G01 X-27.0791 Y14.9083
G01 X-26.9891 Y14.6114
G01 X-26.8428 Y14.3378
G01 X-26.6460 Y14.0980
G01 X-26.4062 Y13.9012
G01 X-26.1326 Y13.7549
G01 X-25.8357 Y13.6649
G01 X-25.6044 Y13.6421
G01 X-25.4496 Y13.6421
G01 X-25.2183 Y13.6649
G01 X-24.9214 Y13.7549
G01 X-24.6478 Y13.9012
G01 X-24.4080 Y14.0980
G01 X-24.2112 Y14.3378
G01 X-24.0649 Y14.6114
G01 X-23.9749 Y14.9083
G01 X-23.9445 Y15.2170
G00 Z1.0000
G00 X-23.8189 Y15.2170
G01 F30.00
G01 Z-0.1000
G01 F200.00
G01 X-23.8517 Y15.5502
G01 X-23.9489 Y15.8707
G01 X-24.1067 Y16.1660
G01 X-24.3192 Y16.4248
G01 X-24.5780 Y16.6373
G01 X-24.8733 Y16.7951
G01 X-25.1938 Y16.8923
G01 X-25.4435 Y16.9169
G01 X-25.6105 Y16.9169
G01 X-25.8602 Y16.8923
G01 X-26.1807 Y16.7951
G01 X-26.4760 Y16.6373
G01 X-26.7348 Y16.4248
G01 X-26.9473 Y16.1660
G01 X-27.1051 Y15.8707
G01 X-27.2023 Y15.5502
G01 X-27.2351 Y15.2170
G01 X-27.2023 Y14.8838
G01 X-27.1051 Y14.5633
G01 X-26.9473 Y14.2680
G01 X-26.7348 Y14.0092
G01 X-26.4760 Y13.7967
G01 X-26.1807 Y13.6389
G01 X-25.8602 Y13.5417
G01 X-25.6105 Y13.5171
G01 X-25.4435 Y13.5171
G01 X-25.1938 Y13.5417
G01 X-24.8733 Y13.6389
G01 X-24.5780 Y13.7967
G01 X-24.3192 Y14.0092
G01 X-24.1067 Y14.2680
G01 X-23.9489 Y14.5633
G01 X-23.8517 Y14.8838
G01 X-23.8189 Y15.2170
G00 Z1.0000
G00 X-22.2289 Y24.6897
G01 F30.00
G01 Z-0.1000
G01 F200.00
G01 X-22.2318 Y24.7390
G01 X-22.2374 Y24.7733
G01 X-22.2441 Y24.8015
G01 X-22.2544 Y24.8348
G01 X-22.2598 Y24.8482
G01 X-22.2739 Y24.8801
G01 X-22.2985 Y24.9228
G01 X-22.3279 Y24.9624
G01 X-22.3565 Y24.9933
G01 X-27.0824 Y29.4706
G01 X-27.1175 Y29.5004
G01 X-27.1442 Y29.5189
G01 X-27.1673 Y29.5329
G01 X-27.1962 Y29.5478
G01 X-27.2263 Y29.5602
G01 X-27.2519 Y29.5688
G01 X-27.2833 Y29.5771
G01 X-27.3154 Y29.5828
G01 X-27.3423 Y29.5857
G01 X-27.3680 Y29.5870
G01 X-29.0350 Y29.5871
G01 X-29.0686 Y29.5856
G01 X-29.0965 Y29.5825
G01 X-29.1296 Y29.5764
G01 X-29.1754 Y29.5632
G01 X-29.2194 Y29.5450
G01 X-29.2612 Y29.5219
G01 X-29.3000 Y29.4943
G01 X-29.3356 Y29.4626
G01 X-29.3673 Y29.4270
G01 X-29.3949 Y29.3882
G01 X-29.4180 Y29.3464
G01 X-29.4312 Y29.3155
G01 X-29.4405 Y29.2890
G01 X-29.4494 Y29.2566
G01 X-29.4555 Y29.2235
G01 X-29.4586 Y29.1956
G01 X-29.4601 Y29.1620
G01 X-29.4601 Y10.2080
G01 X-29.4574 Y10.1604
G01 X-29.4522 Y10.1272
G01 X-29.4459 Y10.0998
G01 X-29.4362 Y10.0676
G01 X-29.4237 Y10.0364
G01 X-29.4116 Y10.0111
G01 X-29.3949 Y9.9818
G01 X-29.3673 Y9.9430
G01 X-29.3452 Y9.9176
G01 X-29.3254 Y9.8978
G01 X-29.3000 Y9.8757
G01 X-29.2728 Y9.8559
G01 X-29.2491 Y9.8409
G01 X-29.2194 Y9.8250
G01 X-29.1754 Y9.8068
G01 X-29.1296 Y9.7936
G01 X-29.0826 Y9.7856
G01 X-29.0350 Y9.7829
G01 X-23.5608 Y9.7829
G01 X-23.5099 Y9.7860
G01 X-23.4599 Y9.7951
G01 X-23.4254 Y9.8052
G01 X-23.3974 Y9.8158
G01 X-23.3648 Y9.8308
G01 X-23.3337 Y9.8489
G01 X-23.3090 Y9.8657
G01 X-23.2865 Y9.8832
G01 X-22.3691 Y10.6859
G01 X-22.3417 Y10.7131
G01 X-22.3128 Y10.7479
G01 X-22.2878 Y10.7856
G01 X-22.2669 Y10.8258
G01 X-22.2504 Y10.8679
G01 X-22.2385 Y10.9116
G01 X-22.2313 Y10.9562
G01 X-22.2289 Y11.0014
G01 X-22.2289 Y24.6897
G00 Z1.0000
G00 X-22.1039 Y24.6897
G01 F30.00
G01 Z-0.1000
G01 F200.00
G01 X-22.1057 Y24.7318
G01 X-22.1076 Y24.7534
G01 X-22.1143 Y24.7950
G01 X-22.1187 Y24.8163
G01 X-22.1243 Y24.8373
G01 X-22.1369 Y24.8774
G01 X-22.1449 Y24.8976
G01 X-22.1621 Y24.9360
G01 X-22.1724 Y24.9552
G01 X-22.1940 Y24.9913
G01 X-22.2185 Y25.0255
G01 X-22.2320 Y25.0426
G01 X-22.2679 Y25.0815
G01 X-26.9964 Y29.5613
G01 X-27.0115 Y29.5749
G01 X-27.0418 Y29.5999
G01 X-27.0740 Y29.6224
G01 X-27.0911 Y29.6333
G01 X-27.1088 Y29.6433
G01 X-27.1437 Y29.6612
G01 X-27.1800 Y29.6763
G01 X-27.1991 Y29.6833
G01 X-27.2368 Y29.6943
G01 X-27.2565 Y29.6992
G01 X-27.2764 Y29.7031
G01 X-27.3153 Y29.7089
G01 X-27.3544 Y29.7115
G01 X-27.3747 Y29.7121
G01 X-29.0350 Y29.7121
G01 X-29.0756 Y29.7104
G01 X-29.0966 Y29.7086
G01 X-29.1174 Y29.7057
G01 X-29.1574 Y29.6983
G01 X-29.1778 Y29.6930
G01 X-29.2167 Y29.6812
G01 X-29.2363 Y29.6737
G01 X-29.2737 Y29.6576
G01 X-29.3095 Y29.6385
G01 X-29.3277 Y29.6278
G01 X-29.3612 Y29.6047
G01 X-29.3780 Y29.5921
G01 X-29.4087 Y29.5654
G01 X-29.4240 Y29.5510
G01 X-29.4384 Y29.5357
G01 X-29.4651 Y29.5050
G01 X-29.4777 Y29.4882
G01 X-29.5008 Y29.4547
G01 X-29.5115 Y29.4365
G01 X-29.5306 Y29.4007
G01 X-29.5467 Y29.3633
G01 X-29.5542 Y29.3437
G01 X-29.5606 Y29.3236
G01 X-29.5713 Y29.2844
G01 X-29.5787 Y29.2444
G01 X-29.5816 Y29.2236
G01 X-29.5834 Y29.2026
G01 X-29.5851 Y29.1620
G01 X-29.5851 Y10.2080
G01 X-29.5845 Y10.1870
G01 X-29.5816 Y10.1464
G01 X-29.5754 Y10.1062
G01 X-29.5713 Y10.0856
G01 X-29.5660 Y10.0652
G01 X-29.5542 Y10.0263
G01 X-29.5392 Y9.9885
G01 X-29.5306 Y9.9693
G01 X-29.5210 Y9.9506
G01 X-29.5008 Y9.9153
G01 X-29.4891 Y9.8978
G01 X-29.4651 Y9.8650
G01 X-29.4384 Y9.8343
G01 X-29.4240 Y9.8190
G01 X-29.4087 Y9.8046
G01 X-29.3780 Y9.7779
G01 X-29.3452 Y9.7539
G01 X-29.3277 Y9.7422
G01 X-29.3095 Y9.7315
G01 X-29.2737 Y9.7124
G01 X-29.2545 Y9.7038
G01 X-29.2167 Y9.6888
G01 X-29.1966 Y9.6824
G01 X-29.1574 Y9.6717
G01 X-29.1174 Y9.6643
G01 X-29.0966 Y9.6614
G01 X-29.0560 Y9.6585
G01 X-29.0350 Y9.6579
G01 X-23.5608 Y9.6579
G01 X-23.5383 Y9.6586
G01 X-23.4950 Y9.6619
G01 X-23.4728 Y9.6652
G01 X-23.4302 Y9.6736
G01 X-23.3885 Y9.6858
G01 X-23.3673 Y9.6931
G01 X-23.3465 Y9.7016
G01 X-23.3071 Y9.7199
G01 X-23.2695 Y9.7416
G01 X-23.2506 Y9.7537
G01 X-23.2071 Y9.7867
G01 X-22.2843 Y10.5941
G01 X-22.2498 Y10.6283
G01 X-22.2248 Y10.6576
G01 X-22.2124 Y10.6734
G01 X-22.1907 Y10.7052
G01 X-22.1801 Y10.7221
G01 X-22.1704 Y10.7396
G01 X-22.1531 Y10.7741
G01 X-22.1385 Y10.8099
G01 X-22.1317 Y10.8286
G01 X-22.1211 Y10.8657
G01 X-22.1163 Y10.8851
G01 X-22.1097 Y10.9231
G01 X-22.1070 Y10.9429
G01 X-22.1044 Y10.9815
G01 X-22.1039 Y11.0014
G01 X-22.1039 Y24.6897
G00 Z1.0000
G00 X-21.8459 Y31.4519
G01 F30.00
G01 Z-0.1000
G01 F200.00
G01 X-17.5701 Y31.4519
G01 X-17.5701 Y13.1000
G01 X-17.5686 Y13.0664
G01 X-17.5655 Y13.0385
G01 X-17.5594 Y13.0054
G01 X-17.5505 Y12.9730
G01 X-17.5412 Y12.9465
G01 X-17.5280 Y12.9156
G01 X-17.5049 Y12.8738
G01 X-17.4773 Y12.8350
G01 X-17.4456 Y12.7994
G01 X-10.5037 Y5.8576
G01 X-10.5161 Y5.8268
G01 X-10.5203 Y5.8134
G01 X-10.5452 Y5.7272
G01 X-10.5514 Y5.6999
G01 X-10.5684 Y5.5976
G01 X-10.5746 Y5.4940
G01 X-10.5750 Y4.6800
G01 X-10.5684 Y4.5624
G01 X-10.5514 Y4.4601
G01 X-10.5452 Y4.4328
G01 X-10.5161 Y4.3332
G01 X-10.4710 Y4.2244
G01 X-10.4212 Y4.1334
G01 X-10.4063 Y4.1097
G01 X-10.3459 Y4.0253
G01 X-10.2771 Y3.9477
G01 X-10.2573 Y3.9279
G01 X-10.1797 Y3.8591
G01 X-10.0953 Y3.7987
G01 X-10.0716 Y3.7838
G01 X-9.9806 Y3.7340
G01 X-9.8849 Y3.6939
G01 X-9.8584 Y3.6847
G01 X-9.7722 Y3.6598
G01 X-9.7449 Y3.6536
G01 X-9.6426 Y3.6366
G01 X-9.5390 Y3.6304
G01 X-9.5110 Y3.6304
G01 X-9.4074 Y3.6366
G01 X-9.2914 Y3.6563
G01 X-9.1916 Y3.6847
G01 X-9.1651 Y3.6939
G01 X-9.0694 Y3.7340
G01 X-8.9664 Y3.7909
G01 X-8.8703 Y3.8591
G01 X-8.7825 Y3.9375
G01 X-8.7131 Y4.0146
G01 X-8.6956 Y4.0365
G01 X-8.6359 Y4.1214
G01 X-8.5854 Y4.2120
G01 X-8.5733 Y4.2372
G01 X-8.5339 Y4.3332
G01 X-8.5048 Y4.4328
G01 X-8.4986 Y4.4601
G01 X-8.4836 Y4.5486
G01 X-8.4804 Y4.5764
G01 X-8.4750 Y4.6800
G01 X-8.4750 Y5.4800
G01 X-8.4816 Y5.5976
G01 X-8.4986 Y5.6999
G01 X-8.5048 Y5.7272
G01 X-8.5339 Y5.8268
G01 X-8.5733 Y5.9228
G01 X-8.5854 Y5.9480
G01 X-8.6359 Y6.0386
G01 X-8.7041 Y6.1347
G01 X-8.7825 Y6.2225
G01 X-8.8596 Y6.2919
G01 X-8.8815 Y6.3094
G01 X-8.9664 Y6.3691
G01 X-9.0570 Y6.4196
G01 X-9.0822 Y6.4317
G01 X-9.1782 Y6.4711
G01 X-9.2778 Y6.5002
G01 X-9.3051 Y6.5064
G01 X-9.3936 Y6.5214
G01 X-9.4214 Y6.5246
G01 X-9.5250 Y6.5300
G01 X-9.6286 Y6.5246
G01 X-9.6564 Y6.5214
G01 X-9.7586 Y6.5037
G01 X-9.8584 Y6.4753
G01 X-9.8718 Y6.4711
G01 X-9.9026 Y6.4587
G01 X-16.7199 Y13.2761
G01 X-16.7199 Y31.7009
G01 X-15.8235 Y32.5974
G01 X-15.8057 Y32.6172
G01 X-15.7882 Y32.6392
G01 X-15.7691 Y32.6668
G01 X-15.7524 Y32.6961
G01 X-15.7460 Y32.7086
G01 X-15.7328 Y32.7395
G01 X-15.7278 Y32.7526
G01 X-15.7181 Y32.7848
G01 X-15.7146 Y32.7984
G01 X-15.7085 Y32.8315
G01 X-15.7066 Y32.8454
G01 X-15.7043 Y32.8790
G01 X-15.7039 Y33.6350
G01 X-15.5439 Y33.6351
G01 X-15.5010 Y33.6374
G01 X-15.4645 Y33.6425
G01 X-15.4405 Y33.6473
G01 X-15.4167 Y33.6533
G01 X-15.3932 Y33.6604
G01 X-15.3587 Y33.6731
G01 X-15.3253 Y33.6885
G01 X-15.3036 Y33.7001
G01 X-15.2722 Y33.7193
G01 X-15.2328 Y33.7485
G01 X-15.1964 Y33.7814
G01 X-15.1715 Y33.8085
G01 X-15.1559 Y33.8275
G01 X-15.1343 Y33.8572
G01 X-15.1151 Y33.8886
G01 X-15.1035 Y33.9103
G01 X-15.0930 Y33.9324
G01 X-15.0836 Y33.9551
G01 X-15.0715 Y33.9899
G01 X-15.0683 Y34.0017
G01 X-15.0596 Y34.0375
G01 X-15.0539 Y34.0738
G01 X-15.0515 Y34.0982
G01 X-15.0500 Y34.1350
G01 X-15.0501 Y36.9911
G01 X-15.0524 Y37.0340
G01 X-15.0596 Y37.0825
G01 X-15.0715 Y37.1301
G01 X-15.0836 Y37.1649
G01 X-15.0930 Y37.1876
G01 X-15.1035 Y37.2097
G01 X-15.1151 Y37.2314
G01 X-15.1277 Y37.2524
G01 X-15.1413 Y37.2728
G01 X-15.1559 Y37.2925
G01 X-15.1715 Y37.3115
G01 X-15.1964 Y37.3386
G01 X-15.2328 Y37.3715
G01 X-15.2722 Y37.4007
G01 X-15.3143 Y37.4260
G01 X-15.3587 Y37.4469
G01 X-15.4049 Y37.4635
G01 X-15.4525 Y37.4754
G01 X-15.5010 Y37.4826
G01 X-15.5500 Y37.4850
G01 X-16.5750 Y37.4850
G01 X-16.6118 Y37.4835
G01 X-16.6362 Y37.4811
G01 X-16.6725 Y37.4754
G01 X-16.7083 Y37.4667
G01 X-16.7318 Y37.4596
G01 X-16.7663 Y37.4469
G01 X-16.8107 Y37.4260
G01 X-16.8424 Y37.4073
G01 X-16.8628 Y37.3937
G01 X-16.8922 Y37.3715
G01 X-16.9197 Y37.3470
G01 X-16.9370 Y37.3297
G01 X-16.9615 Y37.3022
G01 X-16.9837 Y37.2728
G01 X-16.9973 Y37.2524
G01 X-17.0160 Y37.2207
G01 X-17.0369 Y37.1763
G01 X-17.0535 Y37.1301
G01 X-17.0654 Y37.0825
G01 X-17.0726 Y37.0340
G01 X-17.0750 Y36.9850
G01 X-17.0750 Y34.1350
G01 X-17.0726 Y34.0860
G01 X-17.0654 Y34.0375
G01 X-17.0535 Y33.9899
G01 X-17.0369 Y33.9437
G01 X-17.0160 Y33.8993
G01 X-16.9907 Y33.8572
G01 X-16.9615 Y33.8178
G01 X-16.9286 Y33.7814
G01 X-16.9015 Y33.7565
G01 X-16.8825 Y33.7409
G01 X-16.8528 Y33.7193
G01 X-16.8214 Y33.7001
G01 X-16.7997 Y33.6885
G01 X-16.7663 Y33.6731
G01 X-16.7318 Y33.6604
G01 X-16.7201 Y33.6565
G01 X-16.6845 Y33.6473
G01 X-16.6605 Y33.6425
G01 X-16.6362 Y33.6389
G01 X-16.6240 Y33.6374
G01 X-16.5873 Y33.6353
G01 X-16.5541 Y33.6350
G01 X-16.5541 Y33.0691
G01 X-17.3211 Y32.3021
G01 X-21.8459 Y32.3021
G01 X-21.8520 Y32.3217
G01 X-21.8570 Y32.3348
G01 X-21.9036 Y32.4462
G01 X-21.9617 Y32.5522
G01 X-21.9766 Y32.5759
G01 X-22.0468 Y32.6742
G01 X-22.1271 Y32.7646
G01 X-22.1469 Y32.7844
G01 X-22.2265 Y32.8556
G01 X-22.2485 Y32.8731
G01 X-22.3472 Y32.9427
G01 X-22.4528 Y33.0015
G01 X-22.4781 Y33.0136
G01 X-22.5898 Y33.0595
G01 X-22.7194 Y33.0969
G01 X-22.8385 Y33.1175
G01 X-22.8663 Y33.1206
G01 X-22.9870 Y33.1270
G01 X-23.1077 Y33.1206
G01 X-23.1355 Y33.1175
G01 X-23.2546 Y33.0969
G01 X-23.3708 Y33.0638
G01 X-23.3973 Y33.0545
G01 X-23.5087 Y33.0079
G01 X-23.6147 Y32.9498
G01 X-23.6384 Y32.9349
G01 X-23.7367 Y32.8647
G01 X-23.8271 Y32.7844
G01 X-23.8469 Y32.7646
G01 X-23.9272 Y32.6742
G01 X-23.9974 Y32.5759
G01 X-24.0123 Y32.5522
G01 X-24.0704 Y32.4462
G01 X-24.1170 Y32.3348
G01 X-24.1263 Y32.3083
G01 X-24.1594 Y32.1921
G01 X-24.1800 Y32.0730
G01 X-24.1831 Y32.0452
G01 X-24.1894 Y31.9315
G01 X-24.1894 Y31.8225
G01 X-24.1819 Y31.6949
G01 X-24.1594 Y31.5619
G01 X-24.1220 Y31.4323
G01 X-24.0761 Y31.3206
G01 X-24.0640 Y31.2953
G01 X-24.0052 Y31.1897
G01 X-23.9356 Y31.0910
G01 X-23.9181 Y31.0690
G01 X-23.8469 Y30.9894
G01 X-23.8271 Y30.9696
G01 X-23.7367 Y30.8893
G01 X-23.6268 Y30.8113
G01 X-23.5087 Y30.7461
G01 X-23.3973 Y30.6995
G01 X-23.3708 Y30.6902
G01 X-23.2546 Y30.6571
G01 X-23.1355 Y30.6365
G01 X-23.1077 Y30.6334
G01 X-23.0010 Y30.6274
G01 X-22.9730 Y30.6274
G01 X-22.8524 Y30.6346
G01 X-22.7194 Y30.6571
G01 X-22.5898 Y30.6945
G01 X-22.4653 Y30.7461
G01 X-22.3472 Y30.8113
G01 X-22.2373 Y30.8893
G01 X-22.1367 Y30.9792
G01 X-22.0559 Y31.0690
G01 X-22.0384 Y31.0910
G01 X-21.9688 Y31.1897
G01 X-21.9100 Y31.2953
G01 X-21.8979 Y31.3206
G01 X-21.8570 Y31.4192
G01 X-21.8520 Y31.4323
G01 X-21.8459 Y31.4519
G00 Z1.0000
G00 X-21.0250 Y34.8287
G01 F30.00
G01 Z-0.1000
G01 F200.00
G01 X-20.9787 Y34.8947
G01 X-20.9173 Y35.0050
G01 X-20.9051 Y35.0302
G01 X-20.8572 Y35.1470
G01 X-20.8219 Y35.2682
G01 X-20.8156 Y35.2955
G01 X-20.7949 Y35.4200
G01 X-20.7871 Y35.5530
G01 X-20.7871 Y40.9675
G01 X-20.7949 Y41.1005
G01 X-20.8184 Y41.2388
G01 X-20.8572 Y41.3735
G01 X-20.9051 Y41.4903
G01 X-20.9173 Y41.5155
G01 X-20.9787 Y41.6258
G01 X-21.0514 Y41.7290
G01 X-21.0689 Y41.7509
G01 X-21.1484 Y41.8397
G01 X-24.0270 Y44.7185
G01 X-24.0273 Y45.7123
G01 X-24.0303 Y45.7404
G01 X-24.0364 Y45.7680
G01 X-24.0457 Y45.7948
G01 X-24.0579 Y45.8203
G01 X-24.0729 Y45.8443
G01 X-24.0905 Y45.8665
G01 X-24.1105 Y45.8865
G01 X-24.1327 Y45.9041
G01 X-24.1567 Y45.9191
G01 X-24.1822 Y45.9313
G01 X-24.2090 Y45.9406
G01 X-24.2366 Y45.9467
G01 X-24.2647 Y45.9497
G01 X-24.2770 Y45.9500
G01 X-26.7770 Y45.9500
G01 X-26.7893 Y45.9497
G01 X-26.8174 Y45.9467
G01 X-26.8450 Y45.9406
G01 X-26.8718 Y45.9313
G01 X-26.8973 Y45.9191
G01 X-26.9213 Y45.9041
G01 X-26.9435 Y45.8865
G01 X-26.9635 Y45.8665
G01 X-26.9811 Y45.8443
G01 X-26.9961 Y45.8203
G01 X-27.0083 Y45.7948
G01 X-27.0176 Y45.7680
G01 X-27.0237 Y45.7404
G01 X-27.0267 Y45.7123
G01 X-27.0270 Y43.2000
G01 X-27.0267 Y43.1877
G01 X-27.0237 Y43.1596
G01 X-27.0176 Y43.1320
G01 X-27.0083 Y43.1052
G01 X-26.9961 Y43.0797
G01 X-26.9811 Y43.0557
G01 X-26.9635 Y43.0335
G01 X-26.9435 Y43.0135
G01 X-26.9213 Y42.9959
G01 X-26.8973 Y42.9809
G01 X-26.8718 Y42.9687
G01 X-26.8450 Y42.9594
G01 X-26.8174 Y42.9533
G01 X-26.7893 Y42.9503
G01 X-25.7955 Y42.9500
G01 X-23.2880 Y40.4425
G01 X-23.2880 Y36.9375
G01 X-25.2667 Y36.9375
G01 X-25.3927 Y36.9308
G01 X-25.4206 Y36.9277
G01 X-25.5450 Y36.9061
G01 X-25.6797 Y36.8673
G01 X-25.8093 Y36.8137
G01 X-25.9199 Y36.7530
G01 X-25.9437 Y36.7380
G01 X-26.0464 Y36.6647
G01 X-26.1509 Y36.5712
G01 X-28.9561 Y33.7659
G01 X-29.0447 Y33.6664
G01 X-29.1180 Y33.5637
G01 X-29.1330 Y33.5399
G01 X-29.1937 Y33.4293
G01 X-29.2423 Y33.3128
G01 X-29.2516 Y33.2863
G01 X-29.2861 Y33.1650
G01 X-29.3096 Y33.0267
G01 X-29.3175 Y32.8867
G01 X-29.3174 Y31.8700
G01 X-29.3108 Y31.7510
G01 X-29.3077 Y31.7231
G01 X-29.2861 Y31.5987
G01 X-29.2695 Y31.5395
G01 X-29.2692 Y30.8647
G01 X-29.2662 Y30.8366
G01 X-29.2601 Y30.8090
G01 X-29.2508 Y30.7822
G01 X-29.2386 Y30.7567
G01 X-29.2236 Y30.7327
G01 X-29.2060 Y30.7105
G01 X-29.1860 Y30.6905
G01 X-29.1638 Y30.6729
G01 X-29.1398 Y30.6579
G01 X-29.1143 Y30.6457
G01 X-29.0875 Y30.6364
G01 X-29.0599 Y30.6303
G01 X-29.0318 Y30.6273
G01 X-28.0670 Y30.6265
G01 X-27.1022 Y30.6273
G01 X-27.0741 Y30.6303
G01 X-27.0465 Y30.6364
G01 X-27.0197 Y30.6457
G01 X-26.9942 Y30.6579
G01 X-26.9702 Y30.6729
G01 X-26.9480 Y30.6905
G01 X-26.9280 Y30.7105
G01 X-26.9104 Y30.7327
G01 X-26.8954 Y30.7567
G01 X-26.8832 Y30.7822
G01 X-26.8739 Y30.8090
G01 X-26.8678 Y30.8366
G01 X-26.8648 Y30.8647
G01 X-26.8645 Y31.5395
G01 X-26.8514 Y31.5852
G01 X-26.8451 Y31.6125
G01 X-26.8263 Y31.7231
G01 X-26.8232 Y31.7510
G01 X-26.8165 Y31.8770
G01 X-26.8165 Y32.3687
G01 X-24.7487 Y34.4365
G01 X-23.0500 Y34.4365
G01 X-23.0500 Y34.1350
G01 X-23.0485 Y34.0982
G01 X-23.0461 Y34.0738
G01 X-23.0404 Y34.0375
G01 X-23.0317 Y34.0017
G01 X-23.0246 Y33.9782
G01 X-23.0119 Y33.9437
G01 X-22.9910 Y33.8993
G01 X-22.9657 Y33.8572
G01 X-22.9365 Y33.8178
G01 X-22.9036 Y33.7814
G01 X-22.8672 Y33.7485
G01 X-22.8278 Y33.7193
G01 X-22.7857 Y33.6940
G01 X-22.7413 Y33.6731
G01 X-22.7068 Y33.6604
G01 X-22.6833 Y33.6533
G01 X-22.6475 Y33.6446
G01 X-22.6112 Y33.6389
G01 X-22.5990 Y33.6374
G01 X-22.5623 Y33.6353
G01 X-21.5250 Y33.6350
G01 X-21.4760 Y33.6374
G01 X-21.4275 Y33.6446
G01 X-21.3917 Y33.6533
G01 X-21.3682 Y33.6604
G01 X-21.3337 Y33.6731
G01 X-21.3003 Y33.6885
G01 X-21.2786 Y33.7001
G01 X-21.2472 Y33.7193
G01 X-21.2175 Y33.7409
G01 X-21.1985 Y33.7565
G01 X-21.1803 Y33.7730
G01 X-21.1630 Y33.7903
G01 X-21.1385 Y33.8178
G01 X-21.1163 Y33.8472
G01 X-21.1027 Y33.8676
G01 X-21.0840 Y33.8993
G01 X-21.0680 Y33.9324
G01 X-21.0586 Y33.9551
G01 X-21.0465 Y33.9899
G01 X-21.0346 Y34.0375
G01 X-21.0274 Y34.0860
G01 X-21.0253 Y34.1227
G01 X-21.0250 Y34.8287
G00 Z1.0000
G00 X-28.0848 Y30.5020
G01 F30.00
G01 Z-0.1000
G01 F200.00
G01 X-28.0670 Y30.5015
G01 X-27.0961 Y30.5025
G01 X-27.0539 Y30.5069
G01 X-27.0124 Y30.5162
G01 X-26.9723 Y30.5300
G01 X-26.9340 Y30.5483
G01 X-26.8980 Y30.5708
G01 X-26.8704 Y30.5928
G01 X-26.8628 Y30.5605
G01 X-26.8253 Y30.4327
G01 X-26.7749 Y30.3094
G01 X-26.7663 Y30.2902
G01 X-26.7566 Y30.2715
G01 X-26.6917 Y30.1552
G01 X-26.6151 Y30.0462
G01 X-26.6024 Y30.0294
G01 X-26.5888 Y30.0133
G01 X-26.5070 Y29.9219
G01 X-21.9495 Y25.3642
G01 X-21.9495 Y10.6028
G01 X-23.9721 Y8.5801
G01 X-23.9973 Y8.6117
G01 X-24.0273 Y8.6418
G01 X-24.0605 Y8.6682
G01 X-24.0965 Y8.6907
G01 X-24.1348 Y8.7090
G01 X-24.1749 Y8.7228
G01 X-24.2164 Y8.7321
G01 X-24.2586 Y8.7365
G01 X-26.7954 Y8.7365
G01 X-26.8376 Y8.7321
G01 X-26.8791 Y8.7228
G01 X-26.9192 Y8.7090
G01 X-26.9575 Y8.6907
G01 X-26.9935 Y8.6682
G01 X-27.0267 Y8.6418
G01 X-27.0567 Y8.6117
G01 X-27.0832 Y8.5785
G01 X-27.1057 Y8.5425
G01 X-27.1240 Y8.5042
G01 X-27.1378 Y8.4641
G01 X-27.1471 Y8.4226
G01 X-27.1515 Y8.3804
G01 X-27.1520 Y8.3620
G01 X-27.1520 Y5.8620
G01 X-27.1515 Y5.8436
G01 X-27.1471 Y5.8014
G01 X-27.1378 Y5.7599
G01 X-27.1240 Y5.7198
G01 X-27.1057 Y5.6815
G01 X-27.0832 Y5.6455
G01 X-27.0567 Y5.6123
G01 X-27.0267 Y5.5822
G01 X-26.9935 Y5.5558
G01 X-26.9575 Y5.5333
G01 X-26.9192 Y5.5150
G01 X-26.8791 Y5.5012
G01 X-26.8376 Y5.4919
G01 X-26.7954 Y5.4875
G01 X-26.7770 Y5.4870
G01 X-25.8473 Y5.4870
G01 X-22.9050 Y2.5447
G01 X-22.9050 Y1.1430
G01 X-22.8981 Y1.0100
G01 X-22.8964 Y0.9890
G01 X-22.8934 Y0.9682
G01 X-22.8705 Y0.8369
G01 X-22.8653 Y0.8166
G01 X-22.8278 Y0.6887
G01 X-22.8203 Y0.6690
G01 X-22.7688 Y0.5462
G01 X-22.7049 Y0.4293
G01 X-22.6942 Y0.4112
G01 X-22.6670 Y0.3719
G01 X-22.6670 Y-0.2820
G01 X-22.6653 Y-0.3249
G01 X-22.6617 Y-0.3615
G01 X-22.6550 Y-0.4039
G01 X-22.6450 Y-0.4457
G01 X-22.6343 Y-0.4809
G01 X-22.6194 Y-0.5212
G01 X-22.5932 Y-0.5766
G01 X-22.5715 Y-0.6137
G01 X-22.5511 Y-0.6443
G01 X-22.5251 Y-0.6785
G01 X-22.4839 Y-0.7239
G01 X-22.4385 Y-0.7651
G01 X-22.3892 Y-0.8017
G01 X-22.3366 Y-0.8332
G01 X-22.2812 Y-0.8594
G01 X-22.2234 Y-0.8801
G01 X-22.1639 Y-0.8950
G01 X-22.1215 Y-0.9017
G01 X-22.0849 Y-0.9053
G01 X-22.0420 Y-0.9070
