(G-CODE GENERATED BY FLATCAM v8.901 - www.flatcam.org - Version Date: 2019/01/09)

(Name: Clever_Light-B_Cu.gbr_noncopper_multitool_paint_cnc)
(Type: G-code from Geometry)
(Units: MM)

(Created on Суббота, 17 августа 2019 at 15:58)

(TOOL DIAMETER: 0.65 mm)
(Feedrate: 150.0 mm/min)
(Feedrate_Z: 20.0 mm/min)
(Feedrate rapids 100.0 mm/min)

(Z_Cut: -1.0263 mm)
(Z_Move: 1.0 mm)
(Z Toolchange: 30.0 mm)
(X,Y Toolchange: 0.0000, 0.0000 mm)
(Z Start: None mm)
(Z End: 20.0 mm)
(Steps per circle: 64)
(Postprocessor Geometry: default)
(Spindle Speed: None RPM)

G21
G90
G94

G01 F150.00
G00 Z1.0000

M03
G4 P1
G00 X0.3385 Y-0.6020
G01 F20.00
G01 Z-1.0263
G01 F150.00
G01 X0.2940 Y-0.5356
G01 X0.2439 Y-0.4655
G01 X0.2006 Y-0.4085
G01 X0.1505 Y-0.3464
G01 X0.1013 Y-0.2892
G01 X0.0422 Y-0.2241
G01 X-0.0031 Y-0.1771
G01 X-0.0990 Y-0.0812
G01 X-0.1129 Y-0.0604
G01 X-0.1225 Y-0.0372
G01 X-0.1274 Y-0.0125
G01 X-0.1274 Y0.0125
G01 X-0.1225 Y0.0372
G01 X-0.1129 Y0.0604
G01 X-0.0990 Y0.0812
G01 X-0.0812 Y0.0990
G01 X-0.0604 Y0.1129
G01 X-0.0372 Y0.1225
G01 X-0.0125 Y0.1274
G01 X0.0125 Y0.1274
G01 X0.0372 Y0.1225
G01 X0.0604 Y0.1129
G01 X0.0812 Y0.0990
G01 X0.1770 Y0.0033
G01 X0.2218 Y-0.0399
G01 X0.2865 Y-0.0989
G01 X0.3410 Y-0.1460
G01 X0.4014 Y-0.1950
G01 X0.4545 Y-0.2358
G01 X0.5229 Y-0.2851
G01 X0.5841 Y-0.3268
G01 X0.5905 Y-0.6019
G01 X0.3385 Y-0.6020
G01 X0.2110 Y-0.8296
G01 X0.1866 Y-0.7881
G01 X0.1597 Y-0.7448
G01 X0.1151 Y-0.6769
G01 X0.0539 Y-0.5913
G01 X-0.0031 Y-0.5179
G01 X-0.0585 Y-0.4520
G01 X-0.1192 Y-0.3846
G01 X-0.1650 Y-0.3370
G01 X-0.2757 Y-0.2262
G01 X-0.3145 Y-0.1681
G01 X-0.3413 Y-0.1035
G01 X-0.3549 Y-0.0350
G01 X-0.3549 Y0.0350
G01 X-0.3413 Y0.1035
G01 X-0.3145 Y0.1681
G01 X-0.2757 Y0.2262
G01 X-0.2262 Y0.2757
G01 X-0.1681 Y0.3145
G01 X-0.1035 Y0.3413
G01 X-0.0350 Y0.3549
G01 X0.0350 Y0.3549
G01 X0.1035 Y0.3413
G01 X0.1681 Y0.3145
G01 X0.2262 Y0.2757
G01 X0.3373 Y0.1646
G01 X0.3877 Y0.1164
G01 X0.4617 Y0.0500
G01 X0.5235 Y-0.0014
G01 X0.5904 Y-0.0533
G01 X0.6679 Y-0.1088
G01 X0.7375 Y-0.1551
G01 X0.8148 Y-0.2025
G01 X0.8233 Y-0.8292
G01 X0.2110 Y-0.8296
G01 X0.0754 Y-1.0571
G01 X0.0542 Y-1.0161
G01 X0.0252 Y-0.9632
G01 X-0.0003 Y-0.9188
G01 X-0.0230 Y-0.8816
G01 X-0.0508 Y-0.8380
G01 X-0.0800 Y-0.7948
G01 X-0.1134 Y-0.7477
G01 X-0.1469 Y-0.7028
G01 X-0.1802 Y-0.6606
G01 X-0.2085 Y-0.6264
G01 X-0.2769 Y-0.5492
G01 X-0.3262 Y-0.4975
G01 X-0.4524 Y-0.3713
G01 X-0.5161 Y-0.2759
G01 X-0.5600 Y-0.1699
G01 X-0.5824 Y-0.0574
G01 X-0.5824 Y0.0574
G01 X-0.5600 Y0.1699
G01 X-0.5161 Y0.2759
G01 X-0.4524 Y0.3713
G01 X-0.3713 Y0.4524
G01 X-0.2759 Y0.5161
G01 X-0.1699 Y0.5600
G01 X-0.0574 Y0.5824
G01 X0.0574 Y0.5824
G01 X0.1699 Y0.5600
G01 X0.2759 Y0.5161
G01 X0.3713 Y0.4524
G01 X0.4972 Y0.3265
G01 X0.5486 Y0.2774
G01 X0.6258 Y0.2090
G01 X0.6603 Y0.1805
G01 X0.7002 Y0.1489
G01 X0.7373 Y0.1210
G01 X0.7858 Y0.0862
G01 X0.8234 Y0.0605
G01 X0.8631 Y0.0346
G01 X0.9077 Y0.0069
G01 X0.9515 Y-0.0186
G01 X1.0014 Y-0.0463
G01 X1.0454 Y-0.0695
G01 X1.0539 Y-1.0566
G01 X0.0754 Y-1.0571
G01 X-0.0706 Y-1.2847
G01 X-0.0949 Y-1.2284
G01 X-0.1200 Y-1.1751
G01 X-0.1438 Y-1.1283
G01 X-0.1722 Y-1.0761
G01 X-0.2008 Y-1.0268
G01 X-0.2310 Y-0.9783
G01 X-0.2584 Y-0.9369
G01 X-0.2916 Y-0.8895
G01 X-0.3252 Y-0.8442
G01 X-0.3609 Y-0.7990
G01 X-0.3921 Y-0.7617
G01 X-0.4319 Y-0.7168
G01 X-0.4838 Y-0.6617
G01 X-0.6291 Y-0.5163
G01 X-0.7177 Y-0.3836
G01 X-0.7788 Y-0.2362
G01 X-0.8099 Y-0.0798
G01 X-0.8099 Y0.0798
G01 X-0.7788 Y0.2362
G01 X-0.7177 Y0.3836
G01 X-0.6291 Y0.5163
G01 X-0.5163 Y0.6291
G01 X-0.3836 Y0.7177
G01 X-0.2362 Y0.7788
G01 X-0.0798 Y0.8099
G01 X0.0798 Y0.8099
G01 X0.2362 Y0.7788
G01 X0.3836 Y0.7177
G01 X0.5163 Y0.6291
G01 X0.6693 Y0.4763
G01 X0.7059 Y0.4419
G01 X0.7479 Y0.4041
G01 X0.7903 Y0.3681
G01 X0.8427 Y0.3263
G01 X0.8891 Y0.2919
G01 X0.9441 Y0.2535
G01 X0.9815 Y0.2289
G01 X1.0261 Y0.2012
G01 X1.0667 Y0.1776
G01 X1.1122 Y0.1524
G01 X1.1549 Y0.1300
G01 X1.1998 Y0.1081
G01 X1.2380 Y0.0906
G01 X1.2804 Y0.0724
G01 X1.2834 Y-1.2840
G01 X-0.0706 Y-1.2847
G01 X-0.2290 Y-1.5123
G01 X-0.2503 Y-1.4497
G01 X-0.2704 Y-1.3970
G01 X-0.2974 Y-1.3328
G01 X-0.3232 Y-1.2776
G01 X-0.3515 Y-1.2222
G01 X-0.3830 Y-1.1658
G01 X-0.4078 Y-1.1243
G01 X-0.4417 Y-1.0718
G01 X-0.4768 Y-1.0216
G01 X-0.5078 Y-0.9799
G01 X-0.5448 Y-0.9335
G01 X-0.5797 Y-0.8928
G01 X-0.6123 Y-0.8566
G01 X-0.6428 Y-0.8245
G01 X-0.8058 Y-0.6613
G01 X-0.9193 Y-0.4914
G01 X-0.9975 Y-0.3026
G01 X-1.0374 Y-0.1022
G01 X-1.0374 Y0.1022
G01 X-0.9975 Y0.3026
G01 X-0.9193 Y0.4914
G01 X-0.8058 Y0.6613
G01 X-0.6613 Y0.8058
G01 X-0.4914 Y0.9193
G01 X-0.3026 Y0.9975
G01 X-0.1022 Y1.0374
G01 X0.1022 Y1.0374
G01 X0.3026 Y0.9975
G01 X0.4914 Y0.9193
G01 X0.6613 Y0.8058
G01 X0.8256 Y0.6417
G01 X0.8604 Y0.6088
G01 X0.9015 Y0.5721
G01 X0.9434 Y0.5367
G01 X0.9953 Y0.4961
G01 X1.0523 Y0.4551
G01 X1.1042 Y0.4205
G01 X1.1554 Y0.3890
G01 X1.2087 Y0.3589
G01 X1.2536 Y0.3351
G01 X1.3019 Y0.3115
G01 X1.3534 Y0.2885
G01 X1.4112 Y0.2648
G01 X1.4542 Y0.2487
G01 X1.5076 Y0.2305
G01 X1.5114 Y-1.5114
G01 X-0.2290 Y-1.5123
G01 X-0.4046 Y-1.7399
G01 X-0.4196 Y-1.6734
G01 X-0.4376 Y-1.6084
G01 X-0.4552 Y-1.5529
G01 X-0.4775 Y-1.4920
G01 X-0.5064 Y-1.4228
G01 X-0.5350 Y-1.3623
G01 X-0.5699 Y-1.2973
G01 X-0.6011 Y-1.2444
G01 X-0.6329 Y-1.1953
G01 X-0.6735 Y-1.1380
G01 X-0.7111 Y-1.0896
G01 X-0.7439 Y-1.0505
G01 X-0.7767 Y-1.0139
G01 X-0.8056 Y-0.9834
G01 X-0.9825 Y-0.8063
G01 X-1.1210 Y-0.5992
G01 X-1.2163 Y-0.3690
G01 X-1.2649 Y-0.1246
G01 X-1.2649 Y0.1246
G01 X-1.2163 Y0.3690
G01 X-1.1210 Y0.5992
G01 X-0.9825 Y0.8063
G01 X-0.8063 Y0.9825
G01 X-0.5992 Y1.1210
G01 X-0.3690 Y1.2163
G01 X-0.1246 Y1.2649
G01 X0.1246 Y1.2649
G01 X0.3690 Y1.2163
G01 X0.5992 Y1.1210
G01 X0.8063 Y0.9825
G01 X0.9844 Y0.8046
G01 X1.0172 Y0.7737
G01 X1.0610 Y0.7348
G01 X1.1107 Y0.6943
G01 X1.1554 Y0.6609
G01 X1.2102 Y0.6229
G01 X1.2655 Y0.5882
G01 X1.3256 Y0.5543
G01 X1.3759 Y0.5283
G01 X1.4301 Y0.5032
G01 X1.4994 Y0.4746
G01 X1.5567 Y0.4539
G01 X1.6095 Y0.4372
G01 X1.6734 Y0.4196
G01 X1.7358 Y0.4054
G01 X1.7393 Y-1.7388
G01 X-0.4046 Y-1.7399
G01 X-0.6042 Y-1.9675
G01 X-0.6084 Y-1.9118
G01 X-0.6157 Y-1.8533
G01 X-0.6281 Y-1.7822
G01 X-0.6427 Y-1.7194
G01 X-0.6624 Y-1.6508
G01 X-0.6819 Y-1.5943
G01 X-0.7072 Y-1.5314
G01 X-0.7336 Y-1.4739
G01 X-0.7574 Y-1.4283
G01 X-0.7929 Y-1.3668
G01 X-0.8275 Y-1.3138
G01 X-0.8673 Y-1.2589
G01 X-0.9079 Y-1.2087
G01 X-0.9596 Y-1.1515
G01 X-1.1592 Y-0.9514
G01 X-1.3226 Y-0.7069
G01 X-1.4351 Y-0.4353
G01 X-1.4924 Y-0.1470
G01 X-1.4924 Y0.1470
G01 X-1.4351 Y0.4353
G01 X-1.3226 Y0.7069
G01 X-1.1592 Y0.9514
G01 X-0.9514 Y1.1592
G01 X-0.7069 Y1.3226
G01 X-0.4353 Y1.4351
G01 X-0.1470 Y1.4924
G01 X0.1470 Y1.4924
G01 X0.4353 Y1.4351
G01 X0.7069 Y1.3226
G01 X0.9514 Y1.1592
G01 X1.1451 Y0.9656
G01 X1.1758 Y0.9370
G01 X1.2185 Y0.8996
G01 X1.2678 Y0.8605
G01 X1.3266 Y0.8187
G01 X1.3777 Y0.7862
G01 X1.4311 Y0.7558
G01 X1.4625 Y0.7393
G01 X1.4975 Y0.7223
G01 X1.5650 Y0.6933
G01 X1.5958 Y0.6813
G01 X1.6311 Y0.6689
G01 X1.6952 Y0.6493
G01 X1.7318 Y0.6395
G01 X1.7682 Y0.6311
G01 X1.8357 Y0.6185
G01 X1.8699 Y0.6133
G01 X1.9055 Y0.6090
G01 X1.9630 Y0.6044
G01 X1.9672 Y-1.9662
G01 X-0.6042 Y-1.9675
G01 X-0.8410 Y-2.1951
G01 X-0.8371 Y-2.1672
G01 X-0.8332 Y-2.1292
G01 X-0.8305 Y-2.0846
G01 X-0.8295 Y-2.0491
G01 X-0.8299 Y-2.0109
G01 X-0.8321 Y-1.9663
G01 X-0.8348 Y-1.9341
G01 X-0.8398 Y-1.8930
G01 X-0.8470 Y-1.8489
G01 X-0.8539 Y-1.8141
G01 X-0.8628 Y-1.7770
G01 X-0.8749 Y-1.7340
G01 X-0.8846 Y-1.7032
G01 X-0.8981 Y-1.6657
G01 X-0.9155 Y-1.6229
G01 X-0.9300 Y-1.5905
G01 X-0.9542 Y-1.5426
G01 X-0.9847 Y-1.4892
G01 X-1.0097 Y-1.4504
G01 X-1.0481 Y-1.3969
G01 X-1.0801 Y-1.3573
G01 X-1.1254 Y-1.3072
G01 X-1.3359 Y-1.0964
G01 X-1.5242 Y-0.8147
G01 X-1.6538 Y-0.5017
G01 X-1.7199 Y-0.1694
G01 X-1.7199 Y0.1694
G01 X-1.6538 Y0.5017
G01 X-1.5242 Y0.8147
G01 X-1.3359 Y1.0964
G01 X-1.0964 Y1.3359
G01 X-0.8147 Y1.5242
G01 X-0.5017 Y1.6538
G01 X-0.1694 Y1.7199
G01 X0.1694 Y1.7199
G01 X0.5017 Y1.6538
G01 X0.8147 Y1.5242
G01 X1.0964 Y1.3359
G01 X1.3072 Y1.1254
G01 X1.3573 Y1.0801
G01 X1.3969 Y1.0481
G01 X1.4504 Y1.0097
G01 X1.4892 Y0.9847
G01 X1.5426 Y0.9542
G01 X1.5905 Y0.9300
G01 X1.6229 Y0.9155
G01 X1.6657 Y0.8981
G01 X1.7032 Y0.8846
G01 X1.7340 Y0.8749
G01 X1.7770 Y0.8628
G01 X1.8141 Y0.8539
G01 X1.8489 Y0.8470
G01 X1.8930 Y0.8398
G01 X1.9341 Y0.8348
G01 X1.9663 Y0.8321
G01 X2.0109 Y0.8299
G01 X2.0491 Y0.8295
G01 X2.0846 Y0.8305
G01 X2.1292 Y0.8332
G01 X2.1672 Y0.8371
G01 X2.1934 Y0.8407
G01 X2.1950 Y-2.1950
G01 X-0.8410 Y-2.1951
G01 X-1.1508 Y-2.4226
G01 X-1.1323 Y-2.3850
G01 X-1.1118 Y-2.3361
G01 X-1.0984 Y-2.2986
G01 X-1.0867 Y-2.2596
G01 X-1.0757 Y-2.2152
G01 X-1.0705 Y-2.1883
G01 X-1.0640 Y-2.1480
G01 X-1.0592 Y-2.0994
G01 X-1.0571 Y-2.0555
G01 X-1.0572 Y-2.0189
G01 X-1.0601 Y-1.9684
G01 X-1.0640 Y-1.9320
G01 X-1.0727 Y-1.8796
G01 X-1.0813 Y-1.8408
G01 X-1.0957 Y-1.7898
G01 X-1.1064 Y-1.7581
G01 X-1.1300 Y-1.7001
G01 X-1.1429 Y-1.6728
G01 X-1.1541 Y-1.6512
G01 X-1.1728 Y-1.6178
G01 X-1.1887 Y-1.5920
G01 X-1.2226 Y-1.5433
G01 X-1.2509 Y-1.5077
G01 X-1.2919 Y-1.4623
G01 X-1.5127 Y-1.2414
G01 X-1.7258 Y-0.9224
G01 X-1.8726 Y-0.5680
G01 X-1.9474 Y-0.1918
G01 X-1.9474 Y0.1918
G01 X-1.8726 Y0.5680
G01 X-1.7258 Y0.9224
G01 X-1.5127 Y1.2414
G01 X-1.2414 Y1.5127
G01 X-0.9224 Y1.7258
G01 X-0.5680 Y1.8726
G01 X-0.1918 Y1.9474
G01 X0.1918 Y1.9474
G01 X0.5680 Y1.8726
G01 X0.9224 Y1.7258
G01 X1.2414 Y1.5127
G01 X1.4623 Y1.2919
G01 X1.5077 Y1.2509
G01 X1.5433 Y1.2226
G01 X1.5920 Y1.1887
G01 X1.6178 Y1.1728
G01 X1.6512 Y1.1541
G01 X1.6728 Y1.1429
G01 X1.7001 Y1.1300
G01 X1.7581 Y1.1064
G01 X1.7898 Y1.0957
G01 X1.8408 Y1.0813
G01 X1.8796 Y1.0727
G01 X1.9320 Y1.0640
G01 X1.9684 Y1.0601
G01 X2.0189 Y1.0572
G01 X2.0555 Y1.0571
G01 X2.0994 Y1.0592
G01 X2.1480 Y1.0640
G01 X2.1883 Y1.0705
G01 X2.2152 Y1.0757
G01 X2.2596 Y1.0867
G01 X2.2986 Y1.0984
G01 X2.3361 Y1.1118
G01 X2.3850 Y1.1323
G01 X2.4226 Y1.1508
G01 X2.4226 Y-2.1991
G01 X2.4208 Y-2.2353
G01 X2.4178 Y-2.2554
G01 X2.4129 Y-2.2751
G01 X2.4061 Y-2.2942
G01 X2.3974 Y-2.3125
G01 X2.3870 Y-2.3299
G01 X2.3749 Y-2.3462
G01 X2.3613 Y-2.3613
G01 X2.3462 Y-2.3749
G01 X2.3299 Y-2.3870
G01 X2.3125 Y-2.3974
G01 X2.2942 Y-2.4061
G01 X2.2751 Y-2.4129
G01 X2.2554 Y-2.4178
G01 X2.2353 Y-2.4208
G01 X2.1991 Y-2.4226
G01 X-1.1508 Y-2.4226
G00 Z1.0000
G00 X-2.7800 Y8.3487
G01 F20.00
G01 Z-1.0263
G01 F150.00
G01 X-2.8079 Y8.3490
G01 X-2.8031 Y8.3726
G01 X-2.7940 Y8.4259
G01 X-2.7849 Y8.3726
G01 X-2.7800 Y8.3487
G00 Z1.0000
G00 X-2.7940 Y8.8461
G01 F20.00
G01 Z-1.0263
G01 F150.00
G01 X-2.8047 Y8.9083
G01 X-2.8099 Y8.9316
G01 X-2.8405 Y9.0389
G01 X-2.8528 Y9.0754
G01 X-2.8933 Y9.1733
G01 X-2.9071 Y9.2033
G01 X-2.9608 Y9.3010
G01 X-2.9810 Y9.3339
G01 X-3.0422 Y9.4204
G01 X-3.0623 Y9.4465
G01 X-3.1364 Y9.5299
G01 X-3.1594 Y9.5535
G01 X-3.2424 Y9.6281
G01 X-3.2678 Y9.6491
G01 X-3.3586 Y9.7138
G01 X-3.3889 Y9.7334
G01 X-3.3889 Y10.0786
G01 X-3.3586 Y10.0982
G01 X-3.2678 Y10.1629
G01 X-3.2424 Y10.1839
G01 X-3.1594 Y10.2585
G01 X-3.1364 Y10.2821
G01 X-3.0623 Y10.3655
G01 X-3.0422 Y10.3916
G01 X-2.9810 Y10.4781
G01 X-2.9608 Y10.5110
G01 X-2.9071 Y10.6087
G01 X-2.8933 Y10.6387
G01 X-2.8528 Y10.7366
G01 X-2.8405 Y10.7731
G01 X-2.8099 Y10.8804
G01 X-2.8047 Y10.9037
G01 X-2.7940 Y10.9659
G01 X-2.7833 Y10.9037
G01 X-2.7781 Y10.8804
G01 X-2.7449 Y10.7644
G01 X-2.7318 Y10.7281
G01 X-2.6947 Y10.6387
G01 X-2.6809 Y10.6087
G01 X-2.6198 Y10.4982
G01 X-2.6018 Y10.4706
G01 X-2.5458 Y10.3916
G01 X-2.5221 Y10.3612
G01 X-2.4415 Y10.2714
G01 X-2.4179 Y10.2484
G01 X-2.3456 Y10.1839
G01 X-2.3202 Y10.1629
G01 X-2.3084 Y10.1542
G01 X-2.2294 Y10.0982
G01 X-2.2018 Y10.0802
G01 X-2.0913 Y10.0191
G01 X-2.0613 Y10.0053
G01 X-1.9719 Y9.9682
G01 X-1.9356 Y9.9551
G01 X-1.8196 Y9.9219
G01 X-1.7963 Y9.9167
G01 X-1.7341 Y9.9060
G01 X-1.7963 Y9.8953
G01 X-1.8196 Y9.8901
G01 X-1.9356 Y9.8569
G01 X-1.9719 Y9.8438
G01 X-2.0613 Y9.8067
G01 X-2.0913 Y9.7929
G01 X-2.2018 Y9.7318
G01 X-2.2294 Y9.7138
G01 X-2.3084 Y9.6578
G01 X-2.3202 Y9.6491
G01 X-2.3456 Y9.6281
G01 X-2.4179 Y9.5636
G01 X-2.4415 Y9.5406
G01 X-2.5221 Y9.4508
G01 X-2.5458 Y9.4204
G01 X-2.6018 Y9.3414
G01 X-2.6198 Y9.3138
G01 X-2.6809 Y9.2033
G01 X-2.6947 Y9.1733
G01 X-2.7318 Y9.0839
G01 X-2.7449 Y9.0476
G01 X-2.7781 Y8.9316
G01 X-2.7833 Y8.9083
G01 X-2.7940 Y8.8461
G01 X-2.8705 Y9.9060
G01 X-2.8468 Y9.9278
G01 X-2.8247 Y9.9496
G01 X-2.7940 Y9.9825
G01 X-2.7633 Y9.9496
G01 X-2.7412 Y9.9278
G01 X-2.7175 Y9.9060
G01 X-2.7412 Y9.8842
G01 X-2.7633 Y9.8624
G01 X-2.7940 Y9.8295
G01 X-2.8247 Y9.8624
G01 X-2.8468 Y9.8842
G01 X-2.8705 Y9.9060
G01 X-3.1614 Y9.8529
G01 X-3.1614 Y9.9591
G01 X-3.1259 Y9.9851
G01 X-3.0932 Y10.0122
G01 X-3.0095 Y10.0871
G01 X-2.9773 Y10.1191
G01 X-2.9023 Y10.2028
G01 X-2.8844 Y10.2237
G01 X-2.8585 Y10.2574
G01 X-2.7940 Y10.3485
G01 X-2.7295 Y10.2574
G01 X-2.7036 Y10.2237
G01 X-2.6857 Y10.2028
G01 X-2.6212 Y10.1306
G01 X-2.6024 Y10.1105
G01 X-2.5694 Y10.0788
G01 X-2.4972 Y10.0143
G01 X-2.4763 Y9.9964
G01 X-2.4426 Y9.9705
G01 X-2.3515 Y9.9060
G01 X-2.4426 Y9.8415
G01 X-2.4763 Y9.8156
G01 X-2.4972 Y9.7977
G01 X-2.5694 Y9.7332
G01 X-2.6024 Y9.7015
G01 X-2.6212 Y9.6814
G01 X-2.6857 Y9.6092
G01 X-2.7036 Y9.5883
G01 X-2.7295 Y9.5546
G01 X-2.7940 Y9.4635
G01 X-2.8006 Y9.4730
G01 X-2.8567 Y9.5520
G01 X-2.8585 Y9.5546
G01 X-2.8844 Y9.5883
G01 X-2.9023 Y9.6092
G01 X-2.9773 Y9.6929
G01 X-3.0095 Y9.7249
G01 X-3.0932 Y9.7998
G01 X-3.1259 Y9.8269
G01 X-3.1614 Y9.8529
G00 Z1.0000
G00 X-1.2302 Y9.9215
G01 F20.00
G01 Z-1.0263
G01 F150.00
G01 X-1.2302 Y9.8905
G01 X-1.2517 Y9.8953
G01 X-1.3139 Y9.9060
G01 X-1.2517 Y9.9167
G01 X-1.2302 Y9.9215
G00 Z1.0000
G00 X-1.3139 Y12.4460
G01 F20.00
G01 Z-1.0263
G01 F150.00
G01 X-1.2517 Y12.4567
G01 X-1.2302 Y12.4615
G01 X-1.2302 Y12.4305
G01 X-1.2517 Y12.4353
G01 X-1.3139 Y12.4460
G00 Z1.0000
G00 X-2.8705 Y12.4460
G01 F20.00
G01 Z-1.0263
G01 F150.00
G01 X-2.8468 Y12.4678
G01 X-2.8247 Y12.4896
G01 X-2.7940 Y12.5225
G01 X-2.7633 Y12.4896
G01 X-2.7412 Y12.4678
G01 X-2.7175 Y12.4460
G01 X-2.7412 Y12.4242
G01 X-2.7633 Y12.4024
G01 X-2.7940 Y12.3695
G01 X-2.8247 Y12.4024
G01 X-2.8468 Y12.4242
G01 X-2.8705 Y12.4460
G01 X-3.1614 Y12.3929
G01 X-3.1614 Y12.4991
G01 X-3.1259 Y12.5251
G01 X-3.0932 Y12.5522
G01 X-3.0095 Y12.6271
G01 X-2.9773 Y12.6591
G01 X-2.9023 Y12.7428
G01 X-2.8844 Y12.7637
G01 X-2.8585 Y12.7974
G01 X-2.7940 Y12.8885
G01 X-2.7295 Y12.7974
G01 X-2.7036 Y12.7637
G01 X-2.6857 Y12.7428
G01 X-2.6212 Y12.6706
G01 X-2.6024 Y12.6505
G01 X-2.5694 Y12.6188
G01 X-2.4972 Y12.5543
G01 X-2.4763 Y12.5364
G01 X-2.4426 Y12.5105
G01 X-2.3515 Y12.4460
G01 X-2.4426 Y12.3815
G01 X-2.4763 Y12.3556
G01 X-2.4972 Y12.3377
G01 X-2.5694 Y12.2732
G01 X-2.6024 Y12.2415
G01 X-2.6212 Y12.2214
G01 X-2.6857 Y12.1492
G01 X-2.7036 Y12.1283
G01 X-2.7295 Y12.0946
G01 X-2.7940 Y12.0035
G01 X-2.8585 Y12.0946
G01 X-2.8844 Y12.1283
G01 X-2.9023 Y12.1492
G01 X-2.9773 Y12.2329
G01 X-3.0095 Y12.2649
G01 X-3.0932 Y12.3398
G01 X-3.1259 Y12.3669
G01 X-3.1614 Y12.3929
G00 Z1.0000
G00 X-2.7940 Y13.5059
G01 F20.00
G01 Z-1.0263
G01 F150.00
G01 X-2.7833 Y13.4437
G01 X-2.7781 Y13.4204
G01 X-2.7449 Y13.3044
G01 X-2.7318 Y13.2681
G01 X-2.6947 Y13.1787
G01 X-2.6809 Y13.1487
G01 X-2.6198 Y13.0382
G01 X-2.6018 Y13.0106
G01 X-2.5458 Y12.9316
G01 X-2.5221 Y12.9012
G01 X-2.4415 Y12.8114
G01 X-2.4179 Y12.7884
G01 X-2.3456 Y12.7239
G01 X-2.3202 Y12.7029
G01 X-2.3084 Y12.6942
G01 X-2.2294 Y12.6382
G01 X-2.2018 Y12.6202
G01 X-2.0913 Y12.5591
G01 X-2.0613 Y12.5453
G01 X-1.9719 Y12.5082
G01 X-1.9356 Y12.4951
G01 X-1.8196 Y12.4619
G01 X-1.7963 Y12.4567
G01 X-1.7341 Y12.4460
G01 X-1.7963 Y12.4353
G01 X-1.8196 Y12.4301
G01 X-1.9356 Y12.3969
G01 X-1.9719 Y12.3838
G01 X-2.0613 Y12.3467
G01 X-2.0913 Y12.3329
G01 X-2.2018 Y12.2718
G01 X-2.2294 Y12.2538
G01 X-2.3084 Y12.1978
G01 X-2.3202 Y12.1891
G01 X-2.3456 Y12.1681
G01 X-2.4179 Y12.1036
G01 X-2.4415 Y12.0806
G01 X-2.5221 Y11.9908
G01 X-2.5458 Y11.9604
G01 X-2.6018 Y11.8814
G01 X-2.6198 Y11.8538
G01 X-2.6809 Y11.7433
G01 X-2.6947 Y11.7133
G01 X-2.7318 Y11.6239
G01 X-2.7449 Y11.5876
G01 X-2.7781 Y11.4716
G01 X-2.7833 Y11.4483
G01 X-2.7940 Y11.3861
G01 X-2.8047 Y11.4483
G01 X-2.8099 Y11.4716
G01 X-2.8405 Y11.5789
G01 X-2.8528 Y11.6154
G01 X-2.8933 Y11.7133
G01 X-2.9071 Y11.7433
G01 X-2.9608 Y11.8410
G01 X-2.9810 Y11.8739
G01 X-3.0422 Y11.9604
G01 X-3.0623 Y11.9865
G01 X-3.1364 Y12.0699
G01 X-3.1594 Y12.0935
G01 X-3.2424 Y12.1681
G01 X-3.2678 Y12.1891
G01 X-3.3586 Y12.2538
G01 X-3.3889 Y12.2734
G01 X-3.3889 Y12.6186
G01 X-3.3586 Y12.6382
G01 X-3.2678 Y12.7029
G01 X-3.2424 Y12.7239
G01 X-3.1594 Y12.7985
G01 X-3.1364 Y12.8221
G01 X-3.0623 Y12.9055
G01 X-3.0422 Y12.9316
G01 X-2.9810 Y13.0181
G01 X-2.9608 Y13.0510
G01 X-2.9071 Y13.1487
G01 X-2.8933 Y13.1787
G01 X-2.8528 Y13.2766
G01 X-2.8405 Y13.3131
G01 X-2.8099 Y13.4204
G01 X-2.8047 Y13.4437
G01 X-2.7940 Y13.5059
G00 Z1.0000
G00 X-2.8705 Y14.9860
G01 F20.00
G01 Z-1.0263
G01 F150.00
G01 X-2.8468 Y15.0078
G01 X-2.8247 Y15.0296
G01 X-2.7940 Y15.0625
G01 X-2.7633 Y15.0296
G01 X-2.7412 Y15.0078
G01 X-2.7175 Y14.9860
G01 X-2.7412 Y14.9642
G01 X-2.7633 Y14.9424
G01 X-2.7940 Y14.9095
G01 X-2.8247 Y14.9424
G01 X-2.8468 Y14.9642
G01 X-2.8705 Y14.9860
G01 X-3.2365 Y14.9860
G01 X-3.1454 Y15.0505
G01 X-3.1117 Y15.0764
G01 X-3.0908 Y15.0943
G01 X-3.0186 Y15.1588
G01 X-2.9856 Y15.1905
G01 X-2.9668 Y15.2106
G01 X-2.9023 Y15.2828
G01 X-2.8844 Y15.3037
G01 X-2.8585 Y15.3374
G01 X-2.7940 Y15.4285
G01 X-2.7295 Y15.3374
G01 X-2.7036 Y15.3037
G01 X-2.6857 Y15.2828
G01 X-2.6212 Y15.2106
G01 X-2.6024 Y15.1905
G01 X-2.5694 Y15.1588
G01 X-2.4972 Y15.0943
G01 X-2.4763 Y15.0764
G01 X-2.4426 Y15.0505
G01 X-2.3515 Y14.9860
G01 X-2.4426 Y14.9215
G01 X-2.4763 Y14.8956
G01 X-2.4972 Y14.8777
G01 X-2.5694 Y14.8132
G01 X-2.6024 Y14.7815
G01 X-2.6212 Y14.7614
G01 X-2.6857 Y14.6892
G01 X-2.7036 Y14.6683
G01 X-2.7295 Y14.6346
G01 X-2.7940 Y14.5435
G01 X-2.8585 Y14.6346
G01 X-2.8844 Y14.6683
G01 X-2.9023 Y14.6892
G01 X-2.9668 Y14.7614
G01 X-2.9856 Y14.7815
G01 X-3.0186 Y14.8132
G01 X-3.0908 Y14.8777
G01 X-3.1117 Y14.8956
G01 X-3.1454 Y14.9215
G01 X-3.2365 Y14.9860
G01 X-3.8539 Y14.9860
G01 X-3.7917 Y14.9967
G01 X-3.7684 Y15.0019
G01 X-3.6524 Y15.0351
G01 X-3.6161 Y15.0482
G01 X-3.5267 Y15.0853
G01 X-3.4967 Y15.0991
G01 X-3.3862 Y15.1602
G01 X-3.3586 Y15.1782
G01 X-3.2796 Y15.2342
G01 X-3.2678 Y15.2429
G01 X-3.2424 Y15.2639
G01 X-3.1701 Y15.3284
G01 X-3.1465 Y15.3514
G01 X-3.0659 Y15.4412
G01 X-3.0422 Y15.4716
G01 X-2.9862 Y15.5506
G01 X-2.9682 Y15.5782
G01 X-2.9071 Y15.6887
G01 X-2.8933 Y15.7187
G01 X-2.8562 Y15.8081
G01 X-2.8431 Y15.8444
G01 X-2.8099 Y15.9604
G01 X-2.8047 Y15.9837
G01 X-2.7940 Y16.0459
G01 X-2.7833 Y15.9837
G01 X-2.7781 Y15.9604
G01 X-2.7449 Y15.8444
G01 X-2.7318 Y15.8081
G01 X-2.6947 Y15.7187
G01 X-2.6809 Y15.6887
G01 X-2.6198 Y15.5782
G01 X-2.6018 Y15.5506
G01 X-2.5458 Y15.4716
G01 X-2.5221 Y15.4412
G01 X-2.4415 Y15.3514
G01 X-2.4179 Y15.3284
G01 X-2.3456 Y15.2639
G01 X-2.3202 Y15.2429
G01 X-2.3084 Y15.2342
G01 X-2.2294 Y15.1782
G01 X-2.2018 Y15.1602
G01 X-2.0913 Y15.0991
G01 X-2.0613 Y15.0853
G01 X-1.9719 Y15.0482
G01 X-1.9356 Y15.0351
G01 X-1.8196 Y15.0019
G01 X-1.7963 Y14.9967
G01 X-1.7341 Y14.9860
G01 X-1.7963 Y14.9753
G01 X-1.8196 Y14.9701
G01 X-1.9356 Y14.9369
G01 X-1.9719 Y14.9238
G01 X-2.0613 Y14.8867
G01 X-2.0913 Y14.8729
G01 X-2.2018 Y14.8118
G01 X-2.2294 Y14.7938
G01 X-2.3084 Y14.7378
G01 X-2.3202 Y14.7291
G01 X-2.3456 Y14.7081
G01 X-2.4179 Y14.6436
G01 X-2.4415 Y14.6206
G01 X-2.5221 Y14.5308
G01 X-2.5458 Y14.5004
G01 X-2.6018 Y14.4214
G01 X-2.6198 Y14.3938
G01 X-2.6809 Y14.2833
G01 X-2.6947 Y14.2533
G01 X-2.7318 Y14.1639
G01 X-2.7449 Y14.1276
G01 X-2.7781 Y14.0116
G01 X-2.7833 Y13.9883
G01 X-2.7940 Y13.9261
G01 X-2.8047 Y13.9883
G01 X-2.8099 Y14.0116
G01 X-2.8431 Y14.1276
G01 X-2.8562 Y14.1639
G01 X-2.8933 Y14.2533
G01 X-2.9071 Y14.2833
G01 X-2.9682 Y14.3938
G01 X-2.9862 Y14.4214
G01 X-3.0422 Y14.5004
G01 X-3.0659 Y14.5308
G01 X-3.1465 Y14.6206
G01 X-3.1701 Y14.6436
G01 X-3.2424 Y14.7081
G01 X-3.2678 Y14.7291
G01 X-3.2796 Y14.7378
G01 X-3.3586 Y14.7938
G01 X-3.3862 Y14.8118
G01 X-3.4967 Y14.8729
G01 X-3.5267 Y14.8867
G01 X-3.6161 Y14.9238
G01 X-3.6524 Y14.9369
G01 X-3.7684 Y14.9701
G01 X-3.7917 Y14.9753
G01 X-3.8539 Y14.9860
G00 Z1.0000
G00 X-4.3529 Y15.0003
G01 F20.00
G01 Z-1.0263
G01 F150.00
G01 X-4.3274 Y14.9951
G01 X-4.2741 Y14.9860
G01 X-4.3274 Y14.9769
G01 X-4.3527 Y14.9717
G01 X-4.3529 Y15.0003
G00 Z1.0000
G00 X-2.7940 Y16.4661
G01 F20.00
G01 Z-1.0263
G01 F150.00
G01 X-2.8047 Y16.5283
G01 X-2.8099 Y16.5516
G01 X-2.8431 Y16.6676
G01 X-2.8562 Y16.7039
G01 X-2.8933 Y16.7933
G01 X-2.9071 Y16.8233
G01 X-2.9682 Y16.9338
G01 X-2.9862 Y16.9614
G01 X-3.0422 Y17.0404
G01 X-3.0659 Y17.0708
G01 X-3.1465 Y17.1606
G01 X-3.1701 Y17.1836
G01 X-3.2424 Y17.2481
G01 X-3.2535 Y17.2577
G01 X-3.2796 Y17.2778
G01 X-3.3586 Y17.3338
G01 X-3.3862 Y17.3518
G01 X-3.4967 Y17.4129
G01 X-3.5267 Y17.4267
G01 X-3.6161 Y17.4638
G01 X-3.6524 Y17.4769
G01 X-3.7684 Y17.5101
G01 X-3.7917 Y17.5153
G01 X-3.8539 Y17.5260
G01 X-3.7917 Y17.5367
G01 X-3.7684 Y17.5419
G01 X-3.6524 Y17.5751
G01 X-3.6161 Y17.5882
G01 X-3.5267 Y17.6253
G01 X-3.4967 Y17.6391
G01 X-3.3862 Y17.7002
G01 X-3.3586 Y17.7182
G01 X-3.2796 Y17.7742
G01 X-3.2535 Y17.7943
G01 X-3.2424 Y17.8039
G01 X-3.1701 Y17.8684
G01 X-3.1465 Y17.8914
G01 X-3.0659 Y17.9812
G01 X-3.0422 Y18.0116
G01 X-2.9862 Y18.0906
G01 X-2.9682 Y18.1182
G01 X-2.9071 Y18.2287
G01 X-2.8933 Y18.2587
G01 X-2.8562 Y18.3481
G01 X-2.8431 Y18.3844
G01 X-2.8099 Y18.5004
G01 X-2.8047 Y18.5237
G01 X-2.7940 Y18.5859
G01 X-2.7833 Y18.5237
G01 X-2.7781 Y18.5004
G01 X-2.7449 Y18.3844
G01 X-2.7318 Y18.3481
G01 X-2.6947 Y18.2587
G01 X-2.6809 Y18.2287
G01 X-2.6198 Y18.1182
G01 X-2.6018 Y18.0906
G01 X-2.5458 Y18.0116
G01 X-2.5221 Y17.9812
G01 X-2.4415 Y17.8914
G01 X-2.4179 Y17.8684
G01 X-2.3456 Y17.8039
G01 X-2.3345 Y17.7943
G01 X-2.3084 Y17.7742
G01 X-2.2294 Y17.7182
G01 X-2.2018 Y17.7002
G01 X-2.0913 Y17.6391
G01 X-2.0613 Y17.6253
G01 X-1.9719 Y17.5882
G01 X-1.9356 Y17.5751
G01 X-1.8196 Y17.5419
G01 X-1.7963 Y17.5367
G01 X-1.7341 Y17.5260
G01 X-1.7963 Y17.5153
G01 X-1.8196 Y17.5101
G01 X-1.9356 Y17.4769
G01 X-1.9719 Y17.4638
G01 X-2.0613 Y17.4267
G01 X-2.0913 Y17.4129
G01 X-2.2018 Y17.3518
G01 X-2.2294 Y17.3338
G01 X-2.3084 Y17.2778
G01 X-2.3345 Y17.2577
G01 X-2.3456 Y17.2481
G01 X-2.4179 Y17.1836
G01 X-2.4415 Y17.1606
G01 X-2.5221 Y17.0708
G01 X-2.5458 Y17.0404
G01 X-2.6018 Y16.9614
G01 X-2.6198 Y16.9338
G01 X-2.6809 Y16.8233
G01 X-2.6947 Y16.7933
G01 X-2.7318 Y16.7039
G01 X-2.7449 Y16.6676
G01 X-2.7781 Y16.5516
G01 X-2.7833 Y16.5283
G01 X-2.7940 Y16.4661
G01 X-2.8705 Y17.5260
G01 X-2.8468 Y17.5478
G01 X-2.8247 Y17.5696
G01 X-2.7940 Y17.6025
G01 X-2.7633 Y17.5696
G01 X-2.7412 Y17.5478
G01 X-2.7175 Y17.5260
G01 X-2.7412 Y17.5042
G01 X-2.7633 Y17.4824
G01 X-2.7940 Y17.4495
G01 X-2.8247 Y17.4824
G01 X-2.8468 Y17.5042
G01 X-2.8705 Y17.5260
G01 X-3.2365 Y17.5260
G01 X-3.1454 Y17.5905
G01 X-3.1117 Y17.6164
G01 X-3.0908 Y17.6343
G01 X-3.0186 Y17.6988
G01 X-2.9856 Y17.7305
G01 X-2.9668 Y17.7506
G01 X-2.9023 Y17.8228
G01 X-2.8844 Y17.8437
G01 X-2.8585 Y17.8774
G01 X-2.7940 Y17.9685
G01 X-2.7295 Y17.8774
G01 X-2.7036 Y17.8437
G01 X-2.6857 Y17.8228
G01 X-2.6212 Y17.7506
G01 X-2.6024 Y17.7305
G01 X-2.5694 Y17.6988
G01 X-2.4972 Y17.6343
G01 X-2.4763 Y17.6164
G01 X-2.4426 Y17.5905
G01 X-2.3515 Y17.5260
G01 X-2.4426 Y17.4615
G01 X-2.4763 Y17.4356
G01 X-2.4972 Y17.4177
G01 X-2.5694 Y17.3532
G01 X-2.6024 Y17.3215
G01 X-2.6212 Y17.3014
G01 X-2.6857 Y17.2292
G01 X-2.7036 Y17.2083
G01 X-2.7295 Y17.1746
G01 X-2.7940 Y17.0835
G01 X-2.8006 Y17.0930
G01 X-2.8567 Y17.1720
G01 X-2.8585 Y17.1746
G01 X-2.8844 Y17.2083
G01 X-2.9023 Y17.2292
G01 X-2.9668 Y17.3014
G01 X-2.9856 Y17.3215
G01 X-3.0186 Y17.3532
G01 X-3.0908 Y17.4177
G01 X-3.1117 Y17.4356
G01 X-3.1454 Y17.4615
G01 X-3.2365 Y17.5260
G00 Z1.0000
G00 X-4.2741 Y17.5260
G01 F20.00
G01 Z-1.0263
G01 F150.00
G01 X-4.3363 Y17.5153
G01 X-4.3596 Y17.5101
G01 X-4.4756 Y17.4769
G01 X-4.5119 Y17.4638
G01 X-4.6097 Y17.4231
G01 X-4.6443 Y17.4060
G01 X-4.7418 Y17.3518
G01 X-4.7694 Y17.3338
G01 X-4.8484 Y17.2778
G01 X-4.8788 Y17.2541
G01 X-4.9686 Y17.1735
G01 X-4.9916 Y17.1499
G01 X-5.0657 Y17.0665
G01 X-5.0858 Y17.0404
G01 X-5.1501 Y16.9492
G01 X-5.1672 Y16.9210
G01 X-5.2031 Y16.8561
G01 X-7.3074 Y16.8561
G01 X-7.9473 Y17.4960
G01 X-6.7251 Y17.4962
G01 X-6.6915 Y17.4986
G01 X-6.6503 Y17.5052
G01 X-6.6100 Y17.5158
G01 X-6.5709 Y17.5303
G01 X-6.5334 Y17.5486
G01 X-6.4979 Y17.5705
G01 X-6.4647 Y17.5957
G01 X-6.4341 Y17.6240
G01 X-6.4064 Y17.6553
G01 X-6.3820 Y17.6890
G01 X-6.3610 Y17.7250
G01 X-6.3436 Y17.7629
G01 X-6.3328 Y17.7930
G01 X-6.3222 Y17.8333
G01 X-6.3147 Y17.8842
G01 X-6.3130 Y17.9210
G01 X-6.3130 Y18.1959
G01 X-5.2031 Y18.1959
G01 X-5.1672 Y18.1310
G01 X-5.1501 Y18.1028
G01 X-5.0858 Y18.0116
G01 X-5.0657 Y17.9855
G01 X-4.9916 Y17.9021
G01 X-4.9686 Y17.8785
G01 X-4.8788 Y17.7979
G01 X-4.8484 Y17.7742
G01 X-4.7694 Y17.7182
G01 X-4.7418 Y17.7002
G01 X-4.6443 Y17.6460
G01 X-4.6097 Y17.6289
G01 X-4.5119 Y17.5882
G01 X-4.4756 Y17.5751
G01 X-4.3596 Y17.5419
G01 X-4.3363 Y17.5367
G01 X-4.2741 Y17.5260
G00 Z1.0000
G00 X-5.3339 Y17.9684
G01 F20.00
G01 Z-1.0263
G01 F150.00
G01 X-5.2695 Y17.8774
G01 X-5.2436 Y17.8437
G01 X-5.2257 Y17.8228
G01 X-5.1612 Y17.7506
G01 X-5.1295 Y17.7176
G01 X-5.1094 Y17.6988
G01 X-5.0372 Y17.6343
G01 X-5.0163 Y17.6164
G01 X-4.9826 Y17.5905
G01 X-4.8915 Y17.5260
G01 X-4.9826 Y17.4615
G01 X-5.0163 Y17.4356
G01 X-5.0372 Y17.4177
G01 X-5.1094 Y17.3532
G01 X-5.1295 Y17.3344
G01 X-5.1612 Y17.3014
G01 X-5.2257 Y17.2292
G01 X-5.2436 Y17.2083
G01 X-5.2695 Y17.1746
G01 X-5.3339 Y17.0836
G01 X-7.2132 Y17.0836
G01 X-7.3981 Y17.2685
G01 X-6.7195 Y17.2688
G01 X-6.6692 Y17.2722
G01 X-6.6155 Y17.2802
G01 X-6.5641 Y17.2923
G01 X-6.5333 Y17.3016
G01 X-6.4838 Y17.3202
G01 X-6.4448 Y17.3383
G01 X-6.4261 Y17.3480
G01 X-6.3796 Y17.3758
G01 X-6.3367 Y17.4067
G01 X-6.3119 Y17.4271
G01 X-6.2802 Y17.4562
G01 X-6.2655 Y17.4713
G01 X-6.2306 Y17.5109
G01 X-6.1983 Y17.5545
G01 X-6.1869 Y17.5721
G01 X-6.1650 Y17.6091
G01 X-6.1417 Y17.6566
G01 X-6.1294 Y17.6863
G01 X-6.1151 Y17.7269
G01 X-6.1093 Y17.7471
G01 X-6.0972 Y17.7985
G01 X-6.0892 Y17.8522
G01 X-6.0858 Y17.9025
G01 X-6.0855 Y17.9684
G01 X-5.3339 Y17.9684
G01 X-6.1039 Y17.3111
G01 X-6.0610 Y17.3590
G01 X-6.0444 Y17.3798
G01 X-6.0220 Y17.4098
G01 X-5.9947 Y17.4504
G01 X-5.9725 Y17.4873
G01 X-5.9597 Y17.5106
G01 X-5.9337 Y17.5644
G01 X-5.9152 Y17.6097
G01 X-5.9026 Y17.6450
G01 X-5.8946 Y17.6703
G01 X-5.8886 Y17.6918
G01 X-5.8768 Y17.7409
G01 X-5.4515 Y17.7409
G01 X-5.4328 Y17.7161
G01 X-5.4087 Y17.6865
G01 X-5.3298 Y17.5978
G01 X-5.2904 Y17.5567
G01 X-5.2575 Y17.5260
G01 X-5.2904 Y17.4953
G01 X-5.3298 Y17.4542
G01 X-5.4087 Y17.3655
G01 X-5.4328 Y17.3359
G01 X-5.4515 Y17.3111
G01 X-6.1039 Y17.3111
G00 Z1.0000
G00 X-9.4510 Y17.5051
G01 F20.00
G01 Z-1.0263
G01 F150.00
G01 X-9.4460 Y17.4622
G01 X-9.4410 Y17.4339
G01 X-9.4359 Y17.4106
G01 X-9.4223 Y17.3634
G01 X-9.4109 Y17.3325
G01 X-9.3998 Y17.3060
G01 X-9.3896 Y17.2845
G01 X-9.3658 Y17.2415
G01 X-9.3530 Y17.2214
G01 X-9.3365 Y17.1979
G01 X-9.3128 Y17.1675
G01 X-9.2773 Y17.1287
G01 X-8.2509 Y16.1023
G01 X-8.2831 Y16.0892
G01 X-8.3048 Y16.0791
G01 X-8.3433 Y16.0583
G01 X-8.3683 Y16.0429
G01 X-8.3772 Y16.0669
G01 X-8.4116 Y16.1497
G01 X-8.4254 Y16.1797
G01 X-8.4757 Y16.2712
G01 X-8.4927 Y16.2994
G01 X-8.5529 Y16.3847
G01 X-8.5730 Y16.4108
G01 X-8.6424 Y16.4889
G01 X-8.6653 Y16.5126
G01 X-8.7430 Y16.5824
G01 X-8.7684 Y16.6033
G01 X-8.8534 Y16.6640
G01 X-8.8810 Y16.6820
G01 X-8.9723 Y16.7327
G01 X-9.0018 Y16.7475
G01 X-9.0981 Y16.7878
G01 X-9.1344 Y16.8009
G01 X-9.2293 Y16.8283
G01 X-9.2613 Y16.8362
G01 X-9.3642 Y16.8540
G01 X-9.3969 Y16.8582
G01 X-9.5012 Y16.8643
G01 X-9.5341 Y16.8649
G01 X-9.6531 Y16.8582
G01 X-9.6858 Y16.8540
G01 X-9.7887 Y16.8362
G01 X-9.8207 Y16.8283
G01 X-9.9209 Y16.7991
G01 X-9.9519 Y16.7878
G01 X-10.0482 Y16.7475
G01 X-10.0777 Y16.7327
G01 X-10.1641 Y16.6848
G01 X-10.1966 Y16.6640
G01 X-10.2697 Y16.6121
G01 X-10.2958 Y16.5920
G01 X-10.3070 Y16.5824
G01 X-10.3739 Y16.5226
G01 X-10.3976 Y16.4997
G01 X-10.4674 Y16.4220
G01 X-10.4917 Y16.3921
G01 X-10.5490 Y16.3116
G01 X-10.5670 Y16.2840
G01 X-10.6246 Y16.1797
G01 X-10.6384 Y16.1497
G01 X-10.6781 Y16.0532
G01 X-10.6885 Y16.0219
G01 X-10.7133 Y15.9357
G01 X-10.7223 Y15.8982
G01 X-10.7412 Y15.7862
G01 X-10.7443 Y15.7534
G01 X-10.7499 Y15.6474
G01 X-10.7500 Y14.8354
G01 X-10.7437 Y14.7175
G01 X-10.7412 Y14.6938
G01 X-10.7375 Y14.6704
G01 X-10.7653 Y14.6726
G01 X-10.8028 Y14.6736
G01 X-10.8264 Y14.6730
G01 X-10.8524 Y14.6711
G01 X-10.8488 Y14.6938
G01 X-10.8463 Y14.7175
G01 X-10.8400 Y14.8354
G01 X-10.8401 Y15.6474
G01 X-10.8457 Y15.7534
G01 X-10.8488 Y15.7862
G01 X-10.8661 Y15.8892
G01 X-10.8729 Y15.9214
G01 X-10.9041 Y16.0306
G01 X-10.9172 Y16.0669
G01 X-10.9516 Y16.1497
G01 X-10.9654 Y16.1797
G01 X-11.0157 Y16.2712
G01 X-11.0358 Y16.3041
G01 X-11.1017 Y16.3966
G01 X-11.1226 Y16.4220
G01 X-11.1924 Y16.4997
G01 X-11.2161 Y16.5226
G01 X-11.2830 Y16.5824
G01 X-11.2942 Y16.5920
G01 X-11.3203 Y16.6121
G01 X-11.3934 Y16.6640
G01 X-11.4210 Y16.6820
G01 X-11.5253 Y16.7396
G01 X-11.5553 Y16.7534
G01 X-11.6381 Y16.7878
G01 X-11.6691 Y16.7991
G01 X-11.6831 Y16.8035
G01 X-11.7693 Y16.8283
G01 X-11.8013 Y16.8362
G01 X-11.9188 Y16.8562
G01 X-11.9516 Y16.8593
G01 X-12.0412 Y16.8643
G01 X-12.0741 Y16.8649
G01 X-12.0888 Y16.8643
G01 X-12.1784 Y16.8593
G01 X-12.2112 Y16.8562
G01 X-12.3287 Y16.8362
G01 X-12.3607 Y16.8283
G01 X-12.4469 Y16.8035
G01 X-12.4609 Y16.7991
G01 X-12.4919 Y16.7878
G01 X-12.5747 Y16.7534
G01 X-12.6047 Y16.7396
G01 X-12.6962 Y16.6893
G01 X-12.7235 Y16.6728
G01 X-11.2130 Y18.1833
G01 X-11.2130 Y17.9210
G01 X-11.2113 Y17.8842
G01 X-11.2038 Y17.8333
G01 X-11.1932 Y17.7930
G01 X-11.1824 Y17.7629
G01 X-11.1650 Y17.7250
G01 X-11.1440 Y17.6890
G01 X-11.1196 Y17.6553
G01 X-11.0919 Y17.6240
G01 X-11.0613 Y17.5957
G01 X-11.0200 Y17.5650
G01 X-10.9840 Y17.5440
G01 X-10.9461 Y17.5266
G01 X-10.9066 Y17.5130
G01 X-10.8757 Y17.5052
G01 X-10.8345 Y17.4986
G01 X-10.7960 Y17.4961
G01 X-9.5380 Y17.4960
G01 X-9.5171 Y17.4965
G01 X-9.4915 Y17.4986
G01 X-9.4510 Y17.5051
G00 Z1.0000
G00 X-11.5229 Y17.2300
G01 F20.00
G01 Z-1.0263
G01 F150.00
G01 X-11.4316 Y17.3213
G01 X-11.4136 Y17.3023
G01 X-11.3946 Y17.2838
G01 X-11.3500 Y17.2440
G01 X-11.3292 Y17.2274
G01 X-11.2947 Y17.2017
G01 X-11.2539 Y17.1747
G01 X-11.2217 Y17.1555
G01 X-11.1985 Y17.1427
G01 X-11.1446 Y17.1167
G01 X-11.0994 Y17.0982
G01 X-11.0640 Y17.0856
G01 X-11.0334 Y17.0760
G01 X-10.9808 Y17.0626
G01 X-10.9384 Y17.0541
G01 X-10.8791 Y17.0458
G01 X-10.8288 Y17.0421
G01 X-10.7880 Y17.0410
G01 X-10.4513 Y17.0410
G01 X-10.5507 Y16.9703
G01 X-10.5820 Y16.9457
G01 X-10.6066 Y16.9248
G01 X-10.6806 Y16.8586
G01 X-10.7064 Y16.8343
G01 X-10.7364 Y16.8035
G01 X-10.7950 Y16.7382
G01 X-10.8536 Y16.8035
G01 X-10.8836 Y16.8343
G01 X-10.9094 Y16.8586
G01 X-10.9834 Y16.9248
G01 X-11.0080 Y16.9457
G01 X-11.0406 Y16.9712
G01 X-11.1468 Y17.0466
G01 X-11.1817 Y17.0689
G01 X-11.2081 Y17.0845
G01 X-11.2964 Y17.1333
G01 X-11.3279 Y17.1496
G01 X-11.3753 Y17.1713
G01 X-11.4640 Y17.2081
G01 X-11.4926 Y17.2193
G01 X-11.5229 Y17.2300
G01 X-11.9855 Y17.0891
G01 X-11.3943 Y17.6803
G01 X-11.3843 Y17.6566
G01 X-11.3657 Y17.6178
G01 X-11.3555 Y17.5994
G01 X-11.3277 Y17.5545
G01 X-11.3023 Y17.5197
G01 X-11.2892 Y17.5033
G01 X-11.2605 Y17.4713
G01 X-11.2377 Y17.4485
G01 X-11.2057 Y17.4198
G01 X-11.1637 Y17.3877
G01 X-11.1464 Y17.3758
G01 X-11.1096 Y17.3535
G01 X-11.0812 Y17.3383
G01 X-11.0422 Y17.3202
G01 X-11.0227 Y17.3124
G01 X-10.9821 Y17.2981
G01 X-10.9310 Y17.2846
G01 X-10.8995 Y17.2783
G01 X-10.8471 Y17.2713
G01 X-10.8016 Y17.2687
G01 X-9.6301 Y17.2685
G01 X-9.6087 Y17.2160
G01 X-9.5917 Y17.1801
G01 X-9.5646 Y17.1308
G01 X-9.5403 Y17.0923
G01 X-9.6543 Y17.0862
G01 X-9.7030 Y17.0814
G01 X-9.8244 Y17.0610
G01 X-9.8571 Y17.0539
G01 X-9.8837 Y17.0469
G01 X-9.9961 Y17.0139
G01 X-10.0360 Y16.9991
G01 X-10.1218 Y16.9636
G01 X-10.1470 Y16.9525
G01 X-10.1769 Y16.9377
G01 X-10.2845 Y16.8779
G01 X-10.3282 Y16.8495
G01 X-10.4040 Y16.7958
G01 X-10.4377 Y16.7698
G01 X-10.4586 Y16.7520
G01 X-10.5278 Y16.6901
G01 X-10.5629 Y16.6560
G01 X-10.6451 Y16.5643
G01 X-10.6754 Y16.5263
G01 X-10.7464 Y16.4258
G01 X-10.7658 Y16.3947
G01 X-10.7950 Y16.3423
G01 X-10.8242 Y16.3947
G01 X-10.8436 Y16.4258
G01 X-10.9146 Y16.5263
G01 X-10.9449 Y16.5643
G01 X-11.0271 Y16.6560
G01 X-11.0622 Y16.6901
G01 X-11.1314 Y16.7520
G01 X-11.1523 Y16.7698
G01 X-11.1860 Y16.7958
G01 X-11.2618 Y16.8495
G01 X-11.3000 Y16.8746
G01 X-11.4023 Y16.9319
G01 X-11.4430 Y16.9525
G01 X-11.4682 Y16.9636
G01 X-11.5540 Y16.9991
G01 X-11.5767 Y17.0079
G01 X-11.6053 Y17.0176
G01 X-11.7182 Y17.0502
G01 X-11.7656 Y17.0610
G01 X-11.8870 Y17.0814
G01 X-11.9234 Y17.0854
G01 X-11.9855 Y17.0891
G00 Z1.0000
G00 X-13.3800 Y14.3898
G01 F20.00
G01 Z-1.0263
G01 F150.00
G01 X-13.3800 Y16.0163
G01 X-13.0978 Y16.2985
G01 X-13.1143 Y16.2712
G01 X-13.1577 Y16.1927
G01 X-13.1725 Y16.1632
G01 X-13.2128 Y16.0669
G01 X-13.2241 Y16.0359
G01 X-13.2533 Y15.9357
G01 X-13.2612 Y15.9037
G01 X-13.2804 Y15.7918
G01 X-13.2843 Y15.7534
G01 X-13.2893 Y15.6638
G01 X-13.2900 Y15.6400
G01 X-13.2896 Y14.8207
G01 X-13.2832 Y14.7119
G01 X-13.2790 Y14.6792
G01 X-13.2639 Y14.5908
G01 X-13.2571 Y14.5586
G01 X-13.2533 Y14.5443
G01 X-13.2285 Y14.4581
G01 X-13.2196 Y14.4311
G01 X-13.2594 Y14.4254
G01 X-13.3068 Y14.4147
G01 X-13.3380 Y14.4053
G01 X-13.3800 Y14.3898
G00 Z1.0000
G00 X-18.4660 Y12.2824
G01 F20.00
G01 Z-1.0263
G01 F150.00
G01 X-18.4660 Y25.9344
G01 X-18.4672 Y25.9864
G01 X-18.4753 Y26.1267
G01 X-18.4806 Y26.1806
G01 X-18.4864 Y26.2221
G01 X-18.5078 Y26.3484
G01 X-18.5169 Y26.3941
G01 X-18.5318 Y26.4540
G01 X-18.5657 Y26.5718
G01 X-18.5793 Y26.6155
G01 X-18.5963 Y26.6627
G01 X-18.6580 Y26.8120
G01 X-18.6795 Y26.8582
G01 X-18.6987 Y26.8954
G01 X-18.7607 Y27.0076
G01 X-18.7844 Y27.0477
G01 X-18.8181 Y27.0993
G01 X-18.8904 Y27.2013
G01 X-18.9164 Y27.2361
G01 X-18.9474 Y27.2744
G01 X-19.0439 Y27.3830
G01 X-19.0826 Y27.4237
G01 X-21.8038 Y30.1450
G01 X-21.7320 Y30.1963
G01 X-21.6857 Y30.2328
G01 X-21.6575 Y30.2569
G01 X-21.5755 Y30.3302
G01 X-21.5460 Y30.3576
G01 X-21.5008 Y30.4036
G01 X-21.4107 Y30.5042
G01 X-21.3708 Y30.5523
G01 X-21.3400 Y30.5935
G01 X-18.4276 Y30.5942
G01 X-18.4276 Y13.0956
G01 X-18.4259 Y13.0395
G01 X-18.4209 Y12.9702
G01 X-18.4139 Y12.9141
G01 X-18.4013 Y12.8422
G01 X-18.3874 Y12.7817
G01 X-18.3689 Y12.7169
G01 X-18.3503 Y12.6618
G01 X-18.3305 Y12.6112
G01 X-18.3545 Y12.5682
G01 X-18.3734 Y12.5317
G01 X-18.3938 Y12.4885
G01 X-18.4125 Y12.4444
G01 X-18.4266 Y12.4084
G01 X-18.4416 Y12.3657
G01 X-18.4528 Y12.3295
G01 X-18.4660 Y12.2824
G00 Z1.0000
G00 X-23.5643 Y9.3804
G01 F20.00
G01 Z-1.0263
G01 F150.00
G01 X-29.0350 Y9.3804
G01 X-29.0610 Y9.3809
G01 X-29.1035 Y9.3834
G01 X-29.1367 Y9.3868
G01 X-29.1639 Y9.3907
G01 X-29.2040 Y9.3979
G01 X-29.2396 Y9.4062
G01 X-29.2765 Y9.4166
G01 X-29.2997 Y9.4240
G01 X-29.3396 Y9.4387
G01 X-29.3749 Y9.4536
G01 X-29.4022 Y9.4664
G01 X-29.4438 Y9.4887
G01 X-29.4675 Y9.5025
G01 X-29.4956 Y9.5206
G01 X-29.5343 Y9.5481
G01 X-29.5630 Y9.5708
G01 X-29.5890 Y9.5936
G01 X-29.5890 Y8.5117
G01 X-27.4295 Y6.3522
G01 X-27.4295 Y8.3620
G01 X-27.4289 Y8.3888
G01 X-27.4267 Y8.4211
G01 X-27.4244 Y8.4419
G01 X-27.4178 Y8.4845
G01 X-27.4134 Y8.5050
G01 X-27.4027 Y8.5467
G01 X-27.3856 Y8.5967
G01 X-27.3778 Y8.6162
G01 X-27.3597 Y8.6552
G01 X-27.3500 Y8.6739
G01 X-27.3281 Y8.7109
G01 X-27.3167 Y8.7285
G01 X-27.2913 Y8.7633
G01 X-27.2782 Y8.7797
G01 X-27.2495 Y8.8117
G01 X-27.2348 Y8.8268
G01 X-27.2031 Y8.8559
G01 X-27.1871 Y8.8694
G01 X-27.1435 Y8.9017
G01 X-27.0986 Y8.9295
G01 X-27.0802 Y8.9397
G01 X-27.0414 Y8.9583
G01 X-27.0117 Y8.9706
G01 X-26.9617 Y8.9877
G01 X-26.9091 Y9.0009
G01 X-26.8885 Y9.0047
G01 X-26.8458 Y9.0108
G01 X-26.7955 Y9.0142
G01 X-24.2634 Y9.0143
G01 X-24.2082 Y9.0108
G01 X-24.1655 Y9.0047
G01 X-24.1340 Y8.9984
G01 X-24.0923 Y8.9877
G01 X-24.0723 Y8.9814
G01 X-24.0319 Y8.9666
G01 X-23.9948 Y8.9499
G01 X-23.5643 Y9.3804
G01 X-29.3615 Y9.2048
G01 X-29.3615 Y8.6059
G01 X-27.6570 Y6.9014
G01 X-27.6570 Y8.3676
G01 X-27.6559 Y8.4028
G01 X-27.6522 Y8.4531
G01 X-27.6447 Y8.5068
G01 X-27.6379 Y8.5439
G01 X-27.6249 Y8.5966
G01 X-27.6106 Y8.6433
G01 X-27.5979 Y8.6786
G01 X-27.5880 Y8.7033
G01 X-27.5653 Y8.7525
G01 X-27.5425 Y8.7957
G01 X-27.5144 Y8.8421
G01 X-27.4930 Y8.8732
G01 X-27.4638 Y8.9120
G01 X-27.4395 Y8.9409
G01 X-27.4142 Y8.9686
G01 X-27.3957 Y8.9876
G01 X-27.3559 Y9.0245
G01 X-27.3270 Y9.0488
G01 X-27.2836 Y9.0813
G01 X-27.2476 Y9.1053
G01 X-27.2010 Y9.1330
G01 X-27.1621 Y9.1529
G01 X-29.0535 Y9.1531
G01 X-29.0843 Y9.1543
G01 X-29.1314 Y9.1574
G01 X-29.1717 Y9.1619
G01 X-29.2020 Y9.1664
G01 X-29.2429 Y9.1737
G01 X-29.2817 Y9.1823
G01 X-29.3160 Y9.1913
G01 X-29.3615 Y9.2048
G01 X-29.1340 Y8.9294
G01 X-29.1340 Y8.7002
G01 X-27.8845 Y7.4507
G01 X-27.8845 Y8.3648
G01 X-27.8831 Y8.4147
G01 X-27.8783 Y8.4782
G01 X-27.8694 Y8.5430
G01 X-27.8604 Y8.5911
G01 X-27.8442 Y8.6573
G01 X-27.8284 Y8.7094
G01 X-27.8061 Y8.7709
G01 X-27.7881 Y8.8133
G01 X-27.7598 Y8.8723
G01 X-27.7459 Y8.8981
G01 X-27.7300 Y8.9254
G01 X-29.0366 Y8.9254
G01 X-29.0802 Y8.9263
G01 X-29.1340 Y8.9294
G01 X-28.8100 Y8.6979
G01 X-28.1120 Y7.9999
G01 X-28.1120 Y8.3693
G01 X-28.1111 Y8.4087
G01 X-28.1086 Y8.4546
G01 X-28.1033 Y8.5130
G01 X-28.0931 Y8.5846
G01 X-28.0827 Y8.6395
G01 X-28.0687 Y8.6979
G01 X-28.8100 Y8.6979
G00 Z1.0000
G00 X-26.8413 Y5.4423
G01 F20.00
G01 Z-1.0263
G01 F150.00
G01 X-26.8138 Y5.4387
G01 X-26.7770 Y5.4370
G01 X-25.8680 Y5.4370
G01 X-22.9550 Y2.5240
G01 X-22.9550 Y1.1430
G01 X-22.9543 Y1.1192
G01 X-22.9480 Y1.0071
G01 X-22.9449 Y0.9744
G01 X-22.9239 Y0.8492
G01 X-22.9171 Y0.8169
G01 X-22.8822 Y0.6949
G01 X-22.8719 Y0.6636
G01 X-22.8236 Y0.5463
G01 X-22.8098 Y0.5163
G01 X-22.7441 Y0.3972
G01 X-22.7315 Y0.3769
G01 X-22.7181 Y0.3575
G01 X-22.7169 Y-0.2884
G01 X-22.7153 Y-0.3274
G01 X-22.7129 Y-0.3561
G01 X-22.7063 Y-0.4010
G01 X-22.6995 Y-0.4340
G01 X-22.6915 Y-0.4655
G01 X-22.6855 Y-0.4855
G01 X-22.6703 Y-0.5283
G01 X-22.6572 Y-0.5594
G01 X-22.6432 Y-0.5887
G01 X-22.6335 Y-0.6072
G01 X-22.6076 Y-0.6503
G01 X-22.5959 Y-0.6676
G01 X-22.5766 Y-0.6938
G01 X-22.5502 Y-0.7260
G01 X-22.5282 Y-0.7500
G01 X-22.5136 Y-0.7649
G01 X-22.4763 Y-0.7986
G01 X-22.4601 Y-0.8118
G01 X-22.4276 Y-0.8359
G01 X-22.4062 Y-0.8502
G01 X-22.3783 Y-0.8670
G01 X-22.3416 Y-0.8867
G01 X-22.3121 Y-0.9005
G01 X-22.2929 Y-0.9086
G01 X-22.2578 Y-0.9214
G01 X-22.2303 Y-0.9302
G01 X-22.1815 Y-0.9424
G01 X-22.1610 Y-0.9463
G01 X-22.1210 Y-0.9523
G01 X-22.0874 Y-0.9553
G01 X-22.0420 Y-0.9570
G01 X-21.0170 Y-0.9570
G01 X-20.9716 Y-0.9553
G01 X-20.9429 Y-0.9529
G01 X-20.9059 Y-0.9476
G01 X-20.8775 Y-0.9424
G01 X-20.8412 Y-0.9335
G01 X-20.8135 Y-0.9255
G01 X-20.7782 Y-0.9131
G01 X-20.7514 Y-0.9025
G01 X-20.7174 Y-0.8867
G01 X-20.6918 Y-0.8735
G01 X-20.6596 Y-0.8544
G01 X-20.6354 Y-0.8387
G01 X-20.6052 Y-0.8166
G01 X-20.5827 Y-0.7986
G01 X-20.5548 Y-0.7737
G01 X-20.5341 Y-0.7536
G01 X-20.5004 Y-0.7163
G01 X-20.4872 Y-0.7001
G01 X-20.4678 Y-0.6741
G01 X-20.4488 Y-0.6462
G01 X-20.4255 Y-0.6072
G01 X-20.4158 Y-0.5887
G01 X-20.4018 Y-0.5594
G01 X-20.3887 Y-0.5283
G01 X-20.3735 Y-0.4855
G01 X-20.3675 Y-0.4655
G01 X-20.3595 Y-0.4340
G01 X-20.3527 Y-0.4010
G01 X-20.3461 Y-0.3561
G01 X-20.3437 Y-0.3274
G01 X-20.3421 Y-0.2884
G01 X-20.3420 Y0.3559
G01 X-20.3275 Y0.3769
G01 X-20.3149 Y0.3972
G01 X-20.2492 Y0.5163
G01 X-20.2354 Y0.5463
G01 X-20.1871 Y0.6636
G01 X-20.1768 Y0.6949
G01 X-20.1419 Y0.8169
G01 X-20.1351 Y0.8492
G01 X-20.1163 Y0.9598
G01 X-20.1121 Y0.9925
G01 X-20.1047 Y1.1192
G01 X-20.1040 Y1.1430
G01 X-20.1040 Y3.1191
G01 X-20.1110 Y3.2504
G01 X-20.1141 Y3.2831
G01 X-20.1351 Y3.4083
G01 X-20.1419 Y3.4406
G01 X-20.1457 Y3.4548
G01 X-20.1768 Y3.5626
G01 X-20.1871 Y3.5939
G01 X-20.2354 Y3.7112
G01 X-20.2492 Y3.7412
G01 X-20.3104 Y3.8524
G01 X-20.3275 Y3.8806
G01 X-20.4007 Y3.9842
G01 X-20.4208 Y4.0103
G01 X-20.4304 Y4.0215
G01 X-20.5051 Y4.1052
G01 X-20.5215 Y4.1225
G01 X-22.4952 Y6.0961
G01 X-19.5660 Y9.0250
G01 X-19.5496 Y9.0423
G01 X-19.4749 Y9.1260
G01 X-19.4653 Y9.1372
G01 X-19.4452 Y9.1633
G01 X-19.3720 Y9.2669
G01 X-19.3549 Y9.2951
G01 X-19.3006 Y9.3933
G01 X-19.2835 Y9.4279
G01 X-19.2336 Y9.5484
G01 X-19.2213 Y9.5849
G01 X-19.1864 Y9.7069
G01 X-19.1796 Y9.7392
G01 X-19.1608 Y9.8498
G01 X-19.1586 Y9.8644
G01 X-19.1555 Y9.8971
G01 X-19.1492 Y10.0092
G01 X-19.1485 Y10.0330
G01 X-19.1485 Y25.9340
G01 X-19.1492 Y25.9578
G01 X-19.1561 Y26.0789
G01 X-19.1608 Y26.1172
G01 X-19.1796 Y26.2278
G01 X-19.1864 Y26.2600
G01 X-19.1902 Y26.2743
G01 X-19.2213 Y26.3821
G01 X-19.2316 Y26.4134
G01 X-19.2858 Y26.5442
G01 X-19.3006 Y26.5737
G01 X-19.3549 Y26.6719
G01 X-19.3623 Y26.6846
G01 X-19.3802 Y26.7122
G01 X-19.4539 Y26.8156
G01 X-19.4749 Y26.8410
G01 X-19.5496 Y26.9246
G01 X-19.5660 Y26.9420
G01 X-23.0806 Y30.4566
G01 X-23.0108 Y30.4527
G01 X-22.9779 Y30.4521
G01 X-22.8474 Y30.4593
G01 X-22.8092 Y30.4640
G01 X-22.7039 Y30.4819
G01 X-22.6716 Y30.4887
G01 X-22.5460 Y30.5247
G01 X-22.5098 Y30.5378
G01 X-22.4111 Y30.5787
G01 X-22.3812 Y30.5925
G01 X-22.2619 Y30.6584
G01 X-22.2343 Y30.6764
G01 X-22.1472 Y30.7382
G01 X-22.1353 Y30.7469
G01 X-22.1099 Y30.7679
G01 X-22.0303 Y30.8391
G01 X-22.0066 Y30.8620
G01 X-21.9194 Y30.9593
G01 X-21.8957 Y30.9897
G01 X-21.8339 Y31.0768
G01 X-21.8159 Y31.1044
G01 X-21.7526 Y31.2187
G01 X-21.7421 Y31.2401
G01 X-21.7270 Y31.2759
G01 X-17.7451 Y31.2768
G01 X-17.7450 Y13.0926
G01 X-17.7427 Y13.0475
G01 X-17.7402 Y13.0238
G01 X-17.7319 Y12.9754
G01 X-17.7241 Y12.9434
G01 X-17.7143 Y12.9104
G01 X-17.7063 Y12.8880
G01 X-17.6954 Y12.8614
G01 X-17.6816 Y12.8315
G01 X-17.6607 Y12.7934
G01 X-17.6450 Y12.7684
G01 X-17.6231 Y12.7375
G01 X-17.6084 Y12.7188
G01 X-17.5857 Y12.6930
G01 X-17.5693 Y12.6757
G01 X-17.4226 Y12.5289
G01 X-17.4710 Y12.5096
G01 X-17.5055 Y12.4925
G01 X-17.5306 Y12.4785
G01 X-17.5509 Y12.4659
G01 X-17.5865 Y12.4409
G01 X-17.6164 Y12.4166
G01 X-17.6377 Y12.3973
G01 X-17.6547 Y12.3806
G01 X-17.6874 Y12.3440
G01 X-17.7075 Y12.3179
G01 X-17.7240 Y12.2944
G01 X-17.7369 Y12.2743
G01 X-17.7580 Y12.2363
G01 X-17.7744 Y12.2014
G01 X-17.7853 Y12.1748
G01 X-17.7933 Y12.1523
G01 X-17.8069 Y12.1052
G01 X-17.8120 Y12.0819
G01 X-17.8170 Y12.0536
G01 X-17.8217 Y12.0153
G01 X-17.8240 Y11.9701
G01 X-17.8241 Y-2.0400
G01 X-17.8223 Y-2.0834
G01 X-17.8184 Y-2.1218
G01 X-17.8109 Y-2.1646
G01 X-17.8055 Y-2.1878
G01 X-17.7977 Y-2.2155
G01 X-17.7873 Y-2.2468
G01 X-17.7685 Y-2.2921
G01 X-17.7580 Y-2.3135
G01 X-17.7442 Y-2.3387
G01 X-17.7240 Y-2.3716
G01 X-17.7021 Y-2.4025
G01 X-17.6838 Y-2.4255
G01 X-17.6547 Y-2.4578
G01 X-17.6310 Y-2.4807
G01 X-17.6052 Y-2.5034
G01 X-17.5791 Y-2.5235
G01 X-17.5556 Y-2.5400
G01 X-17.5355 Y-2.5528
G01 X-17.5055 Y-2.5697
G01 X-17.4761 Y-2.5845
G01 X-17.4360 Y-2.6013
G01 X-17.4082 Y-2.6110
G01 X-17.3664 Y-2.6229
G01 X-17.3431 Y-2.6280
G01 X-17.3002 Y-2.6352
G01 X-17.2765 Y-2.6377
G01 X-17.2314 Y-2.6400
G01 X-1.8844 Y-2.6401
G01 X-1.8606 Y-2.6394
G01 X-1.8263 Y-2.6372
G01 X-1.8027 Y-2.6344
G01 X-1.7653 Y-2.6280
G01 X-1.7421 Y-2.6229
G01 X-1.7090 Y-2.6137
G01 X-1.6777 Y-2.6033
G01 X-1.6640 Y-2.5979
G01 X-1.6375 Y-2.5868
G01 X-1.6159 Y-2.5766
G01 X-1.5778 Y-2.5557
G01 X-1.5575 Y-2.5432
G01 X-1.5175 Y-2.5148
G01 X-1.4990 Y-2.4998
G01 X-1.4667 Y-2.4707
G01 X-1.4499 Y-2.4537
G01 X-1.4307 Y-2.4324
G01 X-1.4211 Y-2.4212
G01 X-1.4009 Y-2.3951
G01 X-1.3844 Y-2.3716
G01 X-1.3716 Y-2.3515
G01 X-1.3504 Y-2.3135
G01 X-1.3399 Y-2.2921
G01 X-1.3212 Y-2.2468
G01 X-1.3134 Y-2.2242
G01 X-1.3016 Y-2.1824
G01 X-1.2964 Y-2.1591
G01 X-1.2893 Y-2.1162
G01 X-1.2868 Y-2.0925
G01 X-1.2850 Y-2.0638
G01 X-1.2845 Y-2.0309
G01 X-1.2850 Y-2.0162
G01 X-1.2872 Y-1.9819
G01 X-1.2901 Y-1.9582
G01 X-1.2964 Y-1.9209
G01 X-1.3016 Y-1.8976
G01 X-1.3134 Y-1.8558
G01 X-1.3212 Y-1.8332
G01 X-1.3377 Y-1.7930
G01 X-1.3479 Y-1.7715
G01 X-1.3687 Y-1.7334
G01 X-1.3844 Y-1.7084
G01 X-1.4063 Y-1.6775
G01 X-1.4211 Y-1.6588
G01 X-1.4550 Y-1.6209
G01 X-1.6894 Y-1.3864
G01 X-1.9274 Y-1.0302
G01 X-2.0913 Y-0.6344
G01 X-2.1749 Y-0.2142
G01 X-2.1749 Y0.2142
G01 X-2.0913 Y0.6344
G01 X-1.9274 Y1.0302
G01 X-1.6894 Y1.3864
G01 X-1.3864 Y1.6894
G01 X-1.0302 Y1.9274
G01 X-0.6344 Y2.0913
G01 X-0.2142 Y2.1749
G01 X0.2142 Y2.1749
G01 X0.6344 Y2.0913
G01 X1.0302 Y1.9274
G01 X1.3864 Y1.6894
G01 X1.6209 Y1.4550
G01 X1.6545 Y1.4247
G01 X1.6849 Y1.4009
G01 X1.7084 Y1.3844
G01 X1.7285 Y1.3716
G01 X1.7665 Y1.3504
G01 X1.7879 Y1.3399
G01 X1.8332 Y1.3212
G01 X1.8558 Y1.3134
G01 X1.8976 Y1.3016
G01 X1.9209 Y1.2964
G01 X1.9492 Y1.2915
G01 X1.9875 Y1.2868
G01 X2.0253 Y1.2846
G01 X2.0491 Y1.2845
G01 X2.0981 Y1.2872
G01 X2.1218 Y1.2901
G01 X2.1502 Y1.2947
G01 X2.1878 Y1.3030
G01 X2.2296 Y1.3151
G01 X2.2520 Y1.3232
G01 X2.2786 Y1.3340
G01 X2.3085 Y1.3479
G01 X2.3515 Y1.3716
G01 X2.3716 Y1.3844
G01 X2.3951 Y1.4009
G01 X2.4212 Y1.4211
G01 X2.4324 Y1.4307
G01 X2.4537 Y1.4499
G01 X2.4707 Y1.4667
G01 X2.4998 Y1.4990
G01 X2.5235 Y1.5293
G01 X2.5400 Y1.5529
G01 X2.5529 Y1.5730
G01 X2.5766 Y1.6159
G01 X2.5904 Y1.6458
G01 X2.6033 Y1.6777
G01 X2.6110 Y1.7002
G01 X2.6191 Y1.7278
G01 X2.6269 Y1.7598
G01 X2.6352 Y1.8082
G01 X2.6383 Y1.8410
G01 X2.6401 Y1.8844
G01 X2.6401 Y43.8356
G01 X2.6394 Y43.8594
G01 X2.6372 Y43.8937
G01 X2.6344 Y43.9173
G01 X2.6269 Y43.9602
G01 X2.6215 Y43.9834
G01 X2.6137 Y44.0110
G01 X2.6093 Y44.0251
G01 X2.5979 Y44.0560
G01 X2.5845 Y44.0877
G01 X2.5740 Y44.1091
G01 X2.5557 Y44.1422
G01 X2.5432 Y44.1625
G01 X2.5181 Y44.1980
G01 X2.5034 Y44.2168
G01 X2.4745 Y44.2493
G01 X2.4578 Y44.2662
G01 X2.4212 Y44.2989
G01 X2.4025 Y44.3137
G01 X2.3669 Y44.3387
G01 X2.3466 Y44.3513
G01 X2.3085 Y44.3721
G01 X2.2870 Y44.3823
G01 X2.2468 Y44.3988
G01 X2.2242 Y44.4066
G01 X2.1966 Y44.4146
G01 X2.1824 Y44.4184
G01 X2.1502 Y44.4253
G01 X2.1162 Y44.4307
G01 X2.0834 Y44.4339
G01 X2.0547 Y44.4354
G01 X2.0309 Y44.4355
G01 X1.9875 Y44.4332
G01 X1.9638 Y44.4307
G01 X1.9209 Y44.4236
G01 X1.8976 Y44.4184
G01 X1.8558 Y44.4066
G01 X1.8332 Y44.3988
G01 X1.7930 Y44.3823
G01 X1.7715 Y44.3721
G01 X1.7334 Y44.3513
G01 X1.7084 Y44.3356
G01 X1.6775 Y44.3137
G01 X1.6588 Y44.2989
G01 X1.6209 Y44.2650
G01 X1.3864 Y44.0306
G01 X1.0302 Y43.7926
G01 X0.6344 Y43.6287
G01 X0.2142 Y43.5451
G01 X-0.2142 Y43.5451
G01 X-0.6344 Y43.6287
G01 X-1.0302 Y43.7926
G01 X-1.3864 Y44.0306
G01 X-1.6894 Y44.3336
G01 X-1.9274 Y44.6898
G01 X-2.0913 Y45.0856
G01 X-2.1749 Y45.5058
G01 X-2.1749 Y45.9342
G01 X-2.0913 Y46.3544
G01 X-1.9274 Y46.7502
G01 X-1.6894 Y47.1064
G01 X-1.4550 Y47.3409
G01 X-1.4247 Y47.3745
G01 X-1.4009 Y47.4049
G01 X-1.3844 Y47.4284
G01 X-1.3716 Y47.4485
G01 X-1.3504 Y47.4865
G01 X-1.3399 Y47.5079
G01 X-1.3212 Y47.5532
G01 X-1.3134 Y47.5758
G01 X-1.3016 Y47.6176
G01 X-1.2964 Y47.6409
G01 X-1.2915 Y47.6692
G01 X-1.2868 Y47.7075
G01 X-1.2846 Y47.7453
G01 X-1.2845 Y47.7691
G01 X-1.2872 Y47.8181
G01 X-1.2901 Y47.8418
G01 X-1.2947 Y47.8702
G01 X-1.3030 Y47.9078
G01 X-1.3151 Y47.9496
G01 X-1.3232 Y47.9720
G01 X-1.3340 Y47.9986
G01 X-1.3479 Y48.0285
G01 X-1.3716 Y48.0715
G01 X-1.3844 Y48.0916
G01 X-1.4009 Y48.1151
G01 X-1.4097 Y48.1269
G01 X-1.4307 Y48.1524
G01 X-1.4499 Y48.1737
G01 X-1.4667 Y48.1907
G01 X-1.4990 Y48.2198
G01 X-1.5293 Y48.2435
G01 X-1.5529 Y48.2600
G01 X-1.5730 Y48.2729
G01 X-1.6159 Y48.2966
G01 X-1.6458 Y48.3104
G01 X-1.6724 Y48.3213
G01 X-1.6949 Y48.3293
G01 X-1.7278 Y48.3391
G01 X-1.7598 Y48.3469
G01 X-1.8082 Y48.3552
G01 X-1.8410 Y48.3583
G01 X-1.8844 Y48.3601
G01 X-17.2240 Y48.3601
G01 X-17.2478 Y48.3594
G01 X-17.2821 Y48.3572
G01 X-17.3058 Y48.3544
G01 X-17.3431 Y48.3480
G01 X-17.3664 Y48.3429
G01 X-17.3995 Y48.3337
G01 X-17.4308 Y48.3233
G01 X-17.4445 Y48.3179
G01 X-17.4710 Y48.3068
G01 X-17.4925 Y48.2966
G01 X-17.5306 Y48.2757
G01 X-17.5509 Y48.2632
G01 X-17.5909 Y48.2348
G01 X-17.6095 Y48.2198
G01 X-17.6418 Y48.1907
G01 X-17.6585 Y48.1737
G01 X-17.6874 Y48.1412
G01 X-17.7021 Y48.1225
G01 X-17.7189 Y48.0991
G01 X-17.7272 Y48.0869
G01 X-17.7442 Y48.0587
G01 X-17.7606 Y48.0285
G01 X-17.7708 Y48.0070
G01 X-17.7853 Y47.9720
G01 X-17.7933 Y47.9496
G01 X-17.8069 Y47.9024
G01 X-17.8120 Y47.8791
G01 X-17.8192 Y47.8362
G01 X-17.8217 Y47.8125
G01 X-17.8238 Y47.7765
G01 X-17.8241 Y42.7421
G01 X-17.8230 Y42.7077
G01 X-17.8212 Y42.6840
G01 X-17.8154 Y42.6409
G01 X-17.8069 Y42.5997
G01 X-17.7988 Y42.5699
G01 X-17.7873 Y42.5353
G01 X-17.7759 Y42.5067
G01 X-17.7606 Y42.4736
G01 X-17.7460 Y42.4464
G01 X-17.7272 Y42.4152
G01 X-17.7021 Y42.3796
G01 X-17.6828 Y42.3554
G01 X-17.6585 Y42.3284
G01 X-17.6366 Y42.3065
G01 X-17.6095 Y42.2823
G01 X-17.5853 Y42.2630
G01 X-17.5556 Y42.2421
G01 X-17.5293 Y42.2256
G01 X-17.4975 Y42.2081
G01 X-17.4696 Y42.1946
G01 X-17.4360 Y42.1808
G01 X-17.4067 Y42.1706
G01 X-17.3718 Y42.1606
G01 X-17.3416 Y42.1537
G01 X-17.3002 Y42.1469
G01 X-17.2569 Y42.1430
G01 X-17.2149 Y42.1421
G01 X-17.1897 Y42.1430
G01 X-17.1478 Y42.1469
G01 X-17.1228 Y42.1507
G01 X-17.0816 Y42.1592
G01 X-17.0572 Y42.1657
G01 X-17.0172 Y42.1788
G01 X-16.9861 Y42.1913
G01 X-16.9861 Y41.0510
G01 X-17.0239 Y41.0508
G01 X-17.0575 Y41.0484
G01 X-17.0987 Y41.0418
G01 X-17.1390 Y41.0312
G01 X-17.1781 Y41.0167
G01 X-17.2156 Y40.9984
G01 X-17.2511 Y40.9765
G01 X-17.2768 Y40.9575
G01 X-17.3080 Y40.9299
G01 X-17.3363 Y40.8993
G01 X-17.3670 Y40.8580
G01 X-17.3880 Y40.8220
G01 X-17.4054 Y40.7841
G01 X-17.4162 Y40.7540
G01 X-17.4268 Y40.7137
G01 X-17.4334 Y40.6725
G01 X-17.4358 Y40.6389
G01 X-17.4360 Y40.6260
G01 X-17.4360 Y38.8760
G01 X-17.4358 Y38.8631
G01 X-17.4334 Y38.8295
G01 X-17.4270 Y38.7894
G01 X-17.4509 Y38.7802
G01 X-17.4897 Y38.7628
G01 X-17.5104 Y38.7520
G01 X-17.5470 Y38.7305
G01 X-17.5664 Y38.7175
G01 X-17.6004 Y38.6921
G01 X-17.6183 Y38.6771
G01 X-17.6493 Y38.6480
G01 X-17.6654 Y38.6312
G01 X-17.6931 Y38.5989
G01 X-17.7073 Y38.5804
G01 X-17.7313 Y38.5453
G01 X-17.7476 Y38.5175
G01 X-17.7608 Y38.4927
G01 X-17.7709 Y38.4717
G01 X-17.7870 Y38.4323
G01 X-17.7946 Y38.4103
G01 X-17.8076 Y38.3641
G01 X-17.8141 Y38.3325
G01 X-17.8186 Y38.3048
G01 X-17.8213 Y38.2816
G01 X-17.8238 Y38.2409
G01 X-17.8241 Y37.6604
G01 X-17.8223 Y37.6167
G01 X-17.8191 Y37.5837
G01 X-17.8169 Y37.5690
G01 X-17.8119 Y37.5405
G01 X-17.8067 Y37.5171
G01 X-17.7929 Y37.4697
G01 X-17.7848 Y37.4471
G01 X-17.7678 Y37.4068
G01 X-17.7572 Y37.3853
G01 X-17.7358 Y37.3471
G01 X-17.7228 Y37.3270
G01 X-17.7061 Y37.3034
G01 X-17.6972 Y37.2915
G01 X-17.6760 Y37.2660
G01 X-17.6566 Y37.2446
G01 X-17.6396 Y37.2276
G01 X-17.6026 Y37.1949
G01 X-17.5837 Y37.1802
G01 X-17.5525 Y37.1583
G01 X-17.5193 Y37.1382
G01 X-17.4888 Y37.1219
G01 X-17.4671 Y37.1118
G01 X-17.4317 Y37.0975
G01 X-17.4091 Y37.0896
G01 X-17.3615 Y37.0763
G01 X-17.3381 Y37.0713
G01 X-17.3005 Y37.0653
G01 X-17.2766 Y37.0627
G01 X-17.2456 Y37.0609
G01 X-17.2483 Y37.0304
G01 X-17.2500 Y36.9850
G01 X-17.2500 Y34.1350
G01 X-17.2478 Y34.0817
G01 X-17.2442 Y34.0481
G01 X-17.2393 Y34.0160
G01 X-17.2354 Y33.9955
G01 X-17.2245 Y33.9515
G01 X-17.2144 Y33.9192
G01 X-17.2033 Y33.8887
G01 X-17.1935 Y33.8649
G01 X-17.1762 Y33.8283
G01 X-17.1665 Y33.8098
G01 X-17.1406 Y33.7667
G01 X-17.1289 Y33.7494
G01 X-17.1096 Y33.7232
G01 X-17.0832 Y33.6910
G01 X-17.0613 Y33.6670
G01 X-17.0466 Y33.6521
G01 X-17.0093 Y33.6184
G01 X-16.9931 Y33.6052
G01 X-16.9671 Y33.5858
G01 X-16.9324 Y33.5626
G01 X-16.9044 Y33.5460
G01 X-16.8861 Y33.5360
G01 X-16.8406 Y33.5145
G01 X-16.8138 Y33.5039
G01 X-16.7785 Y33.4915
G01 X-16.7291 Y33.4781
G01 X-16.7291 Y33.1416
G01 X-17.3936 Y32.4771
G01 X-21.7265 Y32.4771
G01 X-21.7398 Y32.5088
G01 X-21.7526 Y32.5353
G01 X-21.8159 Y32.6496
G01 X-21.8339 Y32.6772
G01 X-21.8957 Y32.7643
G01 X-21.9194 Y32.7947
G01 X-22.0066 Y32.8920
G01 X-22.0303 Y32.9149
G01 X-22.1099 Y32.9861
G01 X-22.1398 Y33.0104
G01 X-22.2465 Y33.0859
G01 X-22.2747 Y33.1030
G01 X-22.3681 Y33.1546
G01 X-22.3976 Y33.1694
G01 X-22.5182 Y33.2196
G01 X-22.5548 Y33.2319
G01 X-22.6574 Y33.2615
G01 X-22.6894 Y33.2694
G01 X-22.8092 Y33.2900
G01 X-22.8474 Y33.2947
G01 X-22.9779 Y33.3019
G01 X-23.0108 Y33.3013
G01 X-23.1175 Y33.2953
G01 X-23.1503 Y33.2922
G01 X-23.2791 Y33.2705
G01 X-23.3166 Y33.2615
G01 X-23.4192 Y33.2319
G01 X-23.4505 Y33.2216
G01 X-23.5629 Y33.1753
G01 X-23.5928 Y33.1615
G01 X-23.6059 Y33.1546
G01 X-23.6993 Y33.1030
G01 X-23.7275 Y33.0859
G01 X-23.8342 Y33.0104
G01 X-23.8641 Y32.9861
G01 X-23.9437 Y32.9149
G01 X-23.9674 Y32.8920
G01 X-24.0546 Y32.7947
G01 X-24.0783 Y32.7643
G01 X-24.1401 Y32.6772
G01 X-24.1581 Y32.6496
G01 X-24.2214 Y32.5353
G01 X-24.2319 Y32.5139
G01 X-24.2412 Y32.4922
G01 X-24.2536 Y32.5167
G01 X-24.3079 Y32.6149
G01 X-24.3250 Y32.6431
G01 X-24.3332 Y32.6552
G01 X-24.3982 Y32.7467
G01 X-24.4183 Y32.7728
G01 X-24.5026 Y32.8677
G01 X-24.5256 Y32.8913
G01 X-24.5363 Y32.9014
G01 X-24.6312 Y32.9857
G01 X-24.6573 Y33.0058
G01 X-24.7488 Y33.0708
G01 X-24.7812 Y33.0916
G01 X-24.9003 Y33.1573
G01 X-24.9303 Y33.1711
G01 X-25.0339 Y33.2140
G01 X-25.0476 Y33.2194
G01 X-25.0789 Y33.2297
G01 X-25.2009 Y33.2646
G01 X-25.2332 Y33.2714
G01 X-25.3438 Y33.2902
G01 X-25.3821 Y33.2949
G01 X-25.5179 Y33.3024
G01 X-25.5508 Y33.3018
G01 X-25.6410 Y33.2968
G01 X-24.6762 Y34.2615
G01 X-23.2250 Y34.2615
G01 X-23.2249 Y34.1286
G01 X-23.2224 Y34.0768
G01 X-23.2192 Y34.0481
G01 X-23.2135 Y34.0112
G01 X-23.2093 Y33.9907
G01 X-23.2015 Y33.9592
G01 X-23.1935 Y33.9315
G01 X-23.1783 Y33.8887
G01 X-23.1685 Y33.8649
G01 X-23.1512 Y33.8283
G01 X-23.1390 Y33.8056
G01 X-23.1156 Y33.7667
G01 X-23.1039 Y33.7494
G01 X-23.0846 Y33.7232
G01 X-23.0666 Y33.7007
G01 X-23.0363 Y33.6670
G01 X-23.0180 Y33.6488
G01 X-22.9880 Y33.6216
G01 X-22.9681 Y33.6052
G01 X-22.9316 Y33.5783
G01 X-22.9142 Y33.5668
G01 X-22.8794 Y33.5460
G01 X-22.8567 Y33.5338
G01 X-22.8156 Y33.5145
G01 X-22.7888 Y33.5039
G01 X-22.7535 Y33.4915
G01 X-22.7258 Y33.4835
G01 X-22.6895 Y33.4746
G01 X-22.6690 Y33.4707
G01 X-22.6290 Y33.4647
G01 X-22.5954 Y33.4617
G01 X-22.5500 Y33.4600
G01 X-21.5250 Y33.4600
G01 X-21.4668 Y33.4626
G01 X-21.4381 Y33.4658
G01 X-21.4012 Y33.4715
G01 X-21.3730 Y33.4775
G01 X-21.3367 Y33.4868
G01 X-21.3092 Y33.4956
G01 X-21.2741 Y33.5084
G01 X-21.2476 Y33.5198
G01 X-21.2183 Y33.5338
G01 X-21.1998 Y33.5435
G01 X-21.1676 Y33.5626
G01 X-21.1434 Y33.5783
G01 X-21.1132 Y33.6004
G01 X-21.0907 Y33.6184
G01 X-21.0628 Y33.6433
G01 X-21.0421 Y33.6634
G01 X-21.0168 Y33.6910
G01 X-20.9982 Y33.7130
G01 X-20.9758 Y33.7429
G01 X-20.9594 Y33.7667
G01 X-20.9360 Y33.8056
G01 X-20.9203 Y33.8354
G01 X-20.9065 Y33.8649
G01 X-20.8984 Y33.8841
G01 X-20.8856 Y33.9192
G01 X-20.8755 Y33.9515
G01 X-20.8646 Y33.9955
G01 X-20.8594 Y34.0239
G01 X-20.8541 Y34.0609
G01 X-20.8517 Y34.0896
G01 X-20.8500 Y34.1350
G01 X-20.8500 Y34.7729
G01 X-20.8355 Y34.7939
G01 X-20.8229 Y34.8142
G01 X-20.7572 Y34.9333
G01 X-20.7434 Y34.9633
G01 X-20.7005 Y35.0669
G01 X-20.6874 Y35.1032
G01 X-20.6513 Y35.2285
G01 X-20.6431 Y35.2662
G01 X-20.6243 Y35.3768
G01 X-20.6201 Y35.4095
G01 X-20.6124 Y35.5407
G01 X-20.6120 Y40.9605
G01 X-20.6127 Y40.9843
G01 X-20.6190 Y41.0964
G01 X-20.6221 Y41.1291
G01 X-20.6431 Y41.2543
G01 X-20.6499 Y41.2866
G01 X-20.6537 Y41.3008
G01 X-20.6848 Y41.4086
G01 X-20.6951 Y41.4399
G01 X-20.7434 Y41.5572
G01 X-20.7572 Y41.5872
G01 X-20.7641 Y41.6002
G01 X-20.8184 Y41.6984
G01 X-20.8355 Y41.7266
G01 X-20.9087 Y41.8302
G01 X-20.9288 Y41.8563
G01 X-20.9384 Y41.8675
G01 X-21.0131 Y41.9512
G01 X-21.0295 Y41.9685
G01 X-23.8520 Y44.7910
G01 X-23.8520 Y45.7000
G01 X-23.8522 Y45.7129
G01 X-23.8546 Y45.7465
G01 X-23.8612 Y45.7877
G01 X-23.8718 Y45.8280
G01 X-23.8863 Y45.8671
G01 X-23.9046 Y45.9046
G01 X-23.9264 Y45.9401
G01 X-23.9454 Y45.9657
G01 X-23.9731 Y45.9970
G01 X-24.0037 Y46.0253
G01 X-24.0369 Y46.0505
G01 X-24.0810 Y46.0770
G01 X-24.1189 Y46.0944
G01 X-24.1490 Y46.1052
G01 X-24.1989 Y46.1177
G01 X-24.2305 Y46.1224
G01 X-24.2641 Y46.1248
G01 X-26.7899 Y46.1248
G01 X-26.8235 Y46.1224
G01 X-26.8551 Y46.1177
G01 X-26.9050 Y46.1052
G01 X-26.9441 Y46.0907
G01 X-26.9816 Y46.0724
G01 X-27.0090 Y46.0560
G01 X-27.0428 Y46.0315
G01 X-27.0809 Y45.9970
G01 X-27.1086 Y45.9657
G01 X-27.1276 Y45.9401
G01 X-27.1494 Y45.9046
G01 X-27.1714 Y45.8581
G01 X-27.1850 Y45.8186
G01 X-27.1947 Y45.7781
G01 X-27.1994 Y45.7465
G01 X-27.2019 Y45.7080
G01 X-27.2020 Y43.2000
G01 X-27.2018 Y43.1871
G01 X-27.1994 Y43.1535
G01 X-27.1947 Y43.1219
G01 X-27.1850 Y43.0814
G01 X-27.1677 Y43.0329
G01 X-27.1540 Y43.0040
G01 X-27.1330 Y42.9680
G01 X-27.1086 Y42.9343
G01 X-27.0809 Y42.9030
G01 X-27.0503 Y42.8747
G01 X-27.0171 Y42.8495
G01 X-26.9816 Y42.8276
G01 X-26.9351 Y42.8056
G01 X-26.8956 Y42.7920
G01 X-26.8551 Y42.7823
G01 X-26.8138 Y42.7767
G01 X-26.7770 Y42.7750
G01 X-25.8680 Y42.7750
G01 X-23.4630 Y40.3700
G01 X-23.4630 Y37.1125
G01 X-25.2667 Y37.1125
G01 X-25.2905 Y37.1118
G01 X-25.4025 Y37.1055
G01 X-25.4353 Y37.1024
G01 X-25.5605 Y37.0814
G01 X-25.5750 Y37.0787
G01 X-25.6070 Y37.0708
G01 X-25.7148 Y37.0397
G01 X-25.7461 Y37.0294
G01 X-25.8718 Y36.9775
G01 X-25.9064 Y36.9604
G01 X-26.0046 Y36.9061
G01 X-26.0328 Y36.8890
G01 X-26.1438 Y36.8105
G01 X-26.1625 Y36.7957
G01 X-26.1852 Y36.7758
G01 X-25.1407 Y37.8204
G01 X-24.9824 Y37.8661
G01 X-24.9515 Y37.8775
G01 X-24.8220 Y37.9311
G01 X-24.7921 Y37.9449
G01 X-24.7791 Y37.9518
G01 X-24.6436 Y38.0270
G01 X-24.6160 Y38.0450
G01 X-24.5017 Y38.1261
G01 X-24.4756 Y38.1462
G01 X-24.4644 Y38.1558
G01 X-24.3599 Y38.2492
G01 X-24.3362 Y38.2721
G01 X-24.2328 Y38.3874
G01 X-24.2232 Y38.3986
G01 X-24.2031 Y38.4247
G01 X-24.1168 Y38.5465
G01 X-24.0966 Y38.5794
G01 X-24.0288 Y38.7021
G01 X-24.0140 Y38.7315
G01 X-23.9491 Y38.8882
G01 X-23.9388 Y38.9195
G01 X-23.9000 Y39.0542
G01 X-23.8961 Y39.0684
G01 X-23.8893 Y39.1007
G01 X-23.8659 Y39.2389
G01 X-23.8616 Y39.2715
G01 X-23.8521 Y39.4409
G01 X-23.8527 Y39.4738
G01 X-23.8616 Y39.6285
G01 X-23.8659 Y39.6611
G01 X-23.8893 Y39.7993
G01 X-23.8961 Y39.8316
G01 X-23.9388 Y39.9805
G01 X-23.9491 Y40.0118
G01 X-24.0081 Y40.1550
G01 X-24.0219 Y40.1849
G01 X-24.0966 Y40.3206
G01 X-24.1137 Y40.3488
G01 X-24.2031 Y40.4753
G01 X-24.2232 Y40.5014
G01 X-24.3262 Y40.6171
G01 X-24.3491 Y40.6408
G01 X-24.4644 Y40.7442
G01 X-24.4756 Y40.7538
G01 X-24.5017 Y40.7739
G01 X-24.6235 Y40.8602
G01 X-24.6564 Y40.8804
G01 X-24.7921 Y40.9551
G01 X-24.8220 Y40.9689
G01 X-24.9515 Y41.0225
G01 X-24.9652 Y41.0279
G01 X-24.9965 Y41.0382
G01 X-25.1454 Y41.0809
G01 X-25.1777 Y41.0877
G01 X-25.3159 Y41.1111
G01 X-25.3485 Y41.1154
G01 X-25.3632 Y41.1165
G01 X-25.5179 Y41.1249
G01 X-25.5508 Y41.1243
G01 X-25.7055 Y41.1154
G01 X-25.7381 Y41.1111
G01 X-25.8908 Y41.0849
G01 X-25.9228 Y41.0770
G01 X-26.0716 Y41.0339
G01 X-26.1025 Y41.0225
G01 X-26.2455 Y40.9630
G01 X-26.2749 Y40.9482
G01 X-26.3976 Y40.8804
G01 X-26.4258 Y40.8633
G01 X-26.5523 Y40.7739
G01 X-26.5784 Y40.7538
G01 X-26.6941 Y40.6508
G01 X-26.7178 Y40.6279
G01 X-26.8212 Y40.5126
G01 X-26.8422 Y40.4871
G01 X-26.9320 Y40.3610
G01 X-26.9403 Y40.3488
G01 X-26.9574 Y40.3206
G01 X-27.0321 Y40.1849
G01 X-27.0459 Y40.1550
G01 X-27.0995 Y40.0255
G01 X-27.1049 Y40.0118
G01 X-27.1152 Y39.9805
G01 X-27.1566 Y39.8363
G01 X-32.2551 Y34.7377
G01 X-32.3411 Y34.6420
G01 X-32.3621 Y34.6166
G01 X-32.4358 Y34.5132
G01 X-32.4537 Y34.4856
G01 X-32.5154 Y34.3747
G01 X-32.5302 Y34.3452
G01 X-32.5790 Y34.2281
G01 X-32.5921 Y34.1918
G01 X-32.6296 Y34.0611
G01 X-32.6364 Y34.0288
G01 X-32.6552 Y33.9182
G01 X-32.6594 Y33.8855
G01 X-32.6605 Y33.8709
G01 X-32.6668 Y33.7588
G01 X-32.6675 Y33.7350
G01 X-32.6675 Y7.8224
G01 X-32.6594 Y7.6765
G01 X-32.6552 Y7.6438
G01 X-32.6364 Y7.5332
G01 X-32.6296 Y7.5009
G01 X-32.6258 Y7.4867
G01 X-32.5947 Y7.3789
G01 X-32.5844 Y7.3476
G01 X-32.5302 Y7.2168
G01 X-32.5154 Y7.1873
G01 X-32.4611 Y7.0891
G01 X-32.4440 Y7.0609
G01 X-32.4358 Y7.0488
G01 X-32.3708 Y6.9573
G01 X-32.3471 Y6.9269
G01 X-32.2664 Y6.8363
G01 X-32.2500 Y6.8190
G01 X-27.1566 Y1.7257
G01 X-27.1152 Y1.5815
G01 X-27.1049 Y1.5502
G01 X-27.0995 Y1.5365
G01 X-27.0400 Y1.3935
G01 X-27.0252 Y1.3641
G01 X-26.9574 Y1.2414
G01 X-26.9403 Y1.2132
G01 X-26.9320 Y1.2010
G01 X-26.8422 Y1.0749
G01 X-26.8212 Y1.0494
G01 X-26.7278 Y0.9449
G01 X-26.7008 Y0.9174
G01 X-26.5896 Y0.8178
G01 X-26.5641 Y0.7968
G01 X-26.5523 Y0.7881
G01 X-26.4258 Y0.6987
G01 X-26.3976 Y0.6816
G01 X-26.2749 Y0.6138
G01 X-26.2619 Y0.6069
G01 X-26.2320 Y0.5931
G01 X-26.0888 Y0.5341
G01 X-26.0575 Y0.5238
G01 X-25.9228 Y0.4850
G01 X-25.8908 Y0.4771
G01 X-25.7381 Y0.4509
G01 X-25.7236 Y0.4487
G01 X-25.6908 Y0.4455
G01 X-25.5508 Y0.4377
G01 X-25.5179 Y0.4371
G01 X-25.3632 Y0.4455
G01 X-25.3304 Y0.4487
G01 X-25.3159 Y0.4509
G01 X-25.1632 Y0.4771
G01 X-25.1312 Y0.4850
G01 X-24.9965 Y0.5238
G01 X-24.9600 Y0.5361
G01 X-24.8220 Y0.5931
G01 X-24.7921 Y0.6069
G01 X-24.6436 Y0.6890
G01 X-24.6160 Y0.7070
G01 X-24.4899 Y0.7968
G01 X-24.4644 Y0.8178
G01 X-24.3599 Y0.9112
G01 X-24.3491 Y0.9212
G01 X-24.3262 Y0.9449
G01 X-24.2268 Y1.0563
G01 X-24.2031 Y1.0867
G01 X-24.1220 Y1.2010
G01 X-24.1040 Y1.2286
G01 X-24.0288 Y1.3641
G01 X-24.0140 Y1.3935
G01 X-23.9491 Y1.5502
G01 X-23.9388 Y1.5815
G01 X-23.8961 Y1.7304
G01 X-23.8893 Y1.7627
G01 X-23.8637 Y1.9154
G01 X-23.8605 Y1.9482
G01 X-23.8527 Y2.0882
G01 X-23.8523 Y2.1267
G01 X-23.8605 Y2.2758
G01 X-23.8616 Y2.2905
G01 X-23.8659 Y2.3231
G01 X-23.8893 Y2.4613
G01 X-23.8961 Y2.4936
G01 X-23.9388 Y2.6425
G01 X-23.9511 Y2.6790
G01 X-24.0081 Y2.8170
G01 X-24.0219 Y2.8469
G01 X-24.0966 Y2.9826
G01 X-24.1137 Y3.0108
G01 X-24.2031 Y3.1373
G01 X-24.2232 Y3.1634
G01 X-24.3262 Y3.2791
G01 X-24.3491 Y3.3028
G01 X-24.4644 Y3.4062
G01 X-24.4899 Y3.4272
G01 X-24.6160 Y3.5170
G01 X-24.6436 Y3.5350
G01 X-24.6564 Y3.5424
G01 X-24.7791 Y3.6102
G01 X-24.8085 Y3.6250
G01 X-24.9515 Y3.6845
G01 X-24.9824 Y3.6959
G01 X-24.9965 Y3.7002
G01 X-25.1407 Y3.7416
G01 X-26.8413 Y5.4423
G00 Z1.0000
G00 X-24.3841 Y3.6314
G01 F20.00
G01 Z-1.0263
G01 F150.00
G01 X-24.4870 Y3.7044
G01 X-24.5226 Y3.7276
G01 X-24.5463 Y3.7415
G01 X-24.6690 Y3.8093
G01 X-24.6934 Y3.8220
G01 X-24.7349 Y3.8410
G01 X-24.8841 Y3.9024
G01 X-24.9217 Y3.9153
G01 X-25.0209 Y3.9440
G01 X-26.2868 Y5.2095
G01 X-25.9622 Y5.2095
G01 X-24.3841 Y3.6314
G00 Z1.0000
G00 X-19.6446 Y5.8194
G01 F20.00
G01 Z-1.0263
G01 F150.00
G01 X-19.6446 Y6.3726
G01 X-19.9212 Y6.0960
G01 X-19.6446 Y5.8194
G01 X-19.4170 Y5.2701
G01 X-19.4171 Y6.9218
G01 X-20.2429 Y6.0960
G01 X-19.4170 Y5.2701
G01 X-19.1895 Y4.6344
G01 X-19.1896 Y7.4710
G01 X-20.5646 Y6.0960
G01 X-19.5558 Y5.0872
G01 X-19.5165 Y5.0466
G01 X-19.4017 Y4.9188
G01 X-19.3712 Y4.8830
G01 X-19.3411 Y4.8457
G01 X-19.2914 Y4.7796
G01 X-19.2183 Y4.6767
G01 X-19.1895 Y4.6344
G00 Z1.0000
G00 X-13.2762 Y4.5028
G01 F20.00
G01 Z-1.0263
G01 F150.00
G01 X-13.3101 Y4.5053
G01 X-13.3449 Y4.5056
G01 X-13.3783 Y4.5043
G01 X-13.3938 Y4.5028
G01 X-13.3888 Y4.5338
G01 X-13.3863 Y4.5575
G01 X-13.3801 Y4.6726
G01 X-13.3800 Y5.4800
G01 X-13.3807 Y5.5038
G01 X-13.3863 Y5.6025
G01 X-13.3888 Y5.6262
G01 X-13.3938 Y5.6572
G01 X-13.3599 Y5.6547
G01 X-13.3251 Y5.6544
G01 X-13.2917 Y5.6557
G01 X-13.2762 Y5.6572
G01 X-13.2812 Y5.6262
G01 X-13.2837 Y5.6025
G01 X-13.2893 Y5.5038
G01 X-13.2900 Y5.4800
G01 X-13.2899 Y4.6726
G01 X-13.2837 Y4.5575
G01 X-13.2812 Y4.5338
G01 X-13.2762 Y4.5028
G00 Z1.0000
G00 X-11.0322 Y6.1385
G01 F20.00
G01 Z-1.0263
G01 F150.00
G01 X-10.7035 Y5.8098
G01 X-10.7157 Y5.7669
G01 X-10.7212 Y5.7437
G01 X-10.7404 Y5.6318
G01 X-10.7443 Y5.5934
G01 X-10.7499 Y5.4874
G01 X-10.7500 Y4.6754
G01 X-10.7437 Y4.5575
G01 X-10.7412 Y4.5338
G01 X-10.7362 Y4.5028
G01 X-10.7701 Y4.5053
G01 X-10.8049 Y4.5056
G01 X-10.8383 Y4.5043
G01 X-10.8538 Y4.5028
G01 X-10.8488 Y4.5338
G01 X-10.8463 Y4.5575
G01 X-10.8407 Y4.6562
G01 X-10.8400 Y4.6800
G01 X-10.8400 Y5.4846
G01 X-10.8468 Y5.6081
G01 X-10.8510 Y5.6408
G01 X-10.8688 Y5.7437
G01 X-10.8767 Y5.7757
G01 X-10.9059 Y5.8759
G01 X-10.9172 Y5.9069
G01 X-10.9575 Y6.0032
G01 X-10.9723 Y6.0327
G01 X-11.0157 Y6.1112
G01 X-11.0322 Y6.1385
G00 Z1.0000
G00 X-11.6522 Y6.7585
G01 F20.00
G01 Z-1.0263
G01 F150.00
G01 X-11.4065 Y6.5128
G01 X-11.4338 Y6.5293
G01 X-11.5123 Y6.5727
G01 X-11.5418 Y6.5875
G01 X-11.6466 Y6.6311
G01 X-11.6691 Y6.6391
G01 X-11.7033 Y6.6493
G01 X-11.6865 Y6.6794
G01 X-11.6757 Y6.7008
G01 X-11.6620 Y6.7326
G01 X-11.6522 Y6.7585
G00 Z1.0000
G00 X-19.2382 Y-1.2805
G01 F20.00
G01 Z-1.0263
G01 F150.00
G01 X-19.2117 Y-1.2318
G01 X-19.1891 Y-1.1874
G01 X-19.1891 Y-1.2805
G01 X-19.2382 Y-1.2805
G01 X-19.6825 Y-1.5081
G01 X-19.6436 Y-1.4646
G01 X-19.6101 Y-1.4245
G01 X-19.5829 Y-1.3901
G01 X-19.5471 Y-1.3421
G01 X-19.5201 Y-1.3039
G01 X-19.4924 Y-1.2621
G01 X-19.4697 Y-1.2255
G01 X-19.4383 Y-1.1723
G01 X-19.4135 Y-1.1269
G01 X-19.3952 Y-1.0909
G01 X-19.3692 Y-1.0364
G01 X-19.3487 Y-0.9904
G01 X-19.3307 Y-0.9462
G01 X-19.3151 Y-0.9047
G01 X-19.2954 Y-0.8485
G01 X-19.2792 Y-0.7968
G01 X-19.2678 Y-0.7561
G01 X-19.2538 Y-0.7009
G01 X-19.2450 Y-0.6625
G01 X-19.2363 Y-0.6195
G01 X-19.2283 Y-0.5738
G01 X-19.2209 Y-0.5240
G01 X-19.2160 Y-0.4853
G01 X-19.2115 Y-0.4406
G01 X-19.2076 Y-0.3834
G01 X-19.2046 Y-0.3031
G01 X-19.2045 Y0.0649
G01 X-19.1864 Y0.1065
G01 X-19.1401 Y0.2183
G01 X-19.1161 Y0.2804
G01 X-19.0914 Y0.3543
G01 X-19.0520 Y0.4899
G01 X-19.0355 Y0.5530
G01 X-19.0202 Y0.6228
G01 X-18.9941 Y0.7738
G01 X-18.9853 Y0.8343
G01 X-18.9796 Y0.8857
G01 X-18.9758 Y0.9336
G01 X-18.9682 Y1.0699
G01 X-18.9666 Y1.1300
G01 X-18.9667 Y3.1384
G01 X-18.9683 Y3.1894
G01 X-18.9756 Y3.3203
G01 X-18.9790 Y3.3654
G01 X-18.9839 Y3.4117
G01 X-18.9948 Y3.4881
G01 X-19.0157 Y3.6104
G01 X-19.0281 Y3.6724
G01 X-19.0393 Y3.7200
G01 X-19.0513 Y3.7651
G01 X-19.0870 Y3.8888
G01 X-19.1060 Y3.9482
G01 X-19.1227 Y3.9950
G01 X-19.1394 Y4.0375
G01 X-19.1885 Y4.1559
G01 X-19.2129 Y4.2107
G01 X-19.2348 Y4.2558
G01 X-19.2575 Y4.2988
G01 X-19.3198 Y4.4115
G01 X-19.3498 Y4.4625
G01 X-19.3764 Y4.5045
G01 X-19.4015 Y4.5417
G01 X-19.4762 Y4.6470
G01 X-19.5061 Y4.6874
G01 X-19.5395 Y4.7295
G01 X-19.5747 Y4.7710
G01 X-19.6659 Y4.8730
G01 X-19.7061 Y4.9156
G01 X-20.8864 Y6.0960
G01 X-18.9622 Y8.0202
G01 X-18.9616 Y-1.5079
G01 X-19.6825 Y-1.5081
G01 X-20.3859 Y-1.7359
G01 X-20.3509 Y-1.7199
G01 X-20.2961 Y-1.6935
G01 X-20.2561 Y-1.6723
G01 X-20.2216 Y-1.6527
G01 X-20.1752 Y-1.6248
G01 X-20.1437 Y-1.6046
G01 X-20.1049 Y-1.5781
G01 X-20.0601 Y-1.5452
G01 X-20.0286 Y-1.5210
G01 X-19.9904 Y-1.4895
G01 X-19.9621 Y-1.4646
G01 X-19.9179 Y-1.4239
G01 X-19.8887 Y-1.3951
G01 X-19.8640 Y-1.3694
G01 X-19.8278 Y-1.3296
G01 X-19.7987 Y-1.2958
G01 X-19.7690 Y-1.2589
G01 X-19.7366 Y-1.2159
G01 X-19.7131 Y-1.1830
G01 X-19.6905 Y-1.1495
G01 X-19.6678 Y-1.1135
G01 X-19.6383 Y-1.0636
G01 X-19.6155 Y-1.0221
G01 X-19.5994 Y-0.9907
G01 X-19.5757 Y-0.9409
G01 X-19.5580 Y-0.9010
G01 X-19.5395 Y-0.8555
G01 X-19.5208 Y-0.8043
G01 X-19.5075 Y-0.7650
G01 X-19.4939 Y-0.7204
G01 X-19.4838 Y-0.6830
G01 X-19.4714 Y-0.6325
G01 X-19.4579 Y-0.5669
G01 X-19.4467 Y-0.4955
G01 X-19.4389 Y-0.4294
G01 X-19.4350 Y-0.3748
G01 X-19.4328 Y-0.3271
G01 X-19.4320 Y-0.2876
G01 X-19.4320 Y0.1161
G01 X-19.4137 Y0.1545
G01 X-19.3979 Y0.1903
G01 X-19.3501 Y0.3057
G01 X-19.3336 Y0.3481
G01 X-19.3198 Y0.3871
G01 X-19.3089 Y0.4209
G01 X-19.2681 Y0.5619
G01 X-19.2567 Y0.6059
G01 X-19.2453 Y0.6572
G01 X-19.2192 Y0.8074
G01 X-19.2099 Y0.8717
G01 X-19.2059 Y0.9096
G01 X-19.2030 Y0.9466
G01 X-19.1955 Y1.0807
G01 X-19.1940 Y1.1388
G01 X-19.1940 Y3.1161
G01 X-19.1960 Y3.1876
G01 X-19.2029 Y3.3097
G01 X-19.2071 Y3.3606
G01 X-19.2156 Y3.4281
G01 X-19.2379 Y3.5608
G01 X-19.2460 Y3.6034
G01 X-19.2562 Y3.6493
G01 X-19.2701 Y3.7025
G01 X-19.3089 Y3.8366
G01 X-19.3282 Y3.8944
G01 X-19.3436 Y3.9355
G01 X-19.3952 Y4.0606
G01 X-19.4107 Y4.0964
G01 X-19.4364 Y4.1503
G01 X-19.4597 Y4.1944
G01 X-19.5247 Y4.3116
G01 X-19.5582 Y4.3667
G01 X-19.5908 Y4.4154
G01 X-19.6713 Y4.5285
G01 X-19.6979 Y4.5635
G01 X-19.7372 Y4.6111
G01 X-19.8307 Y4.7161
G01 X-19.8687 Y4.7565
G01 X-21.2081 Y6.0960
G01 X-18.9193 Y8.3848
G01 X-18.8800 Y8.4261
G01 X-18.7934 Y8.5229
G01 X-18.7654 Y8.5556
G01 X-18.7347 Y8.5939
G01 X-18.7341 Y-1.7353
G01 X-20.3859 Y-1.7359
G01 X-24.7024 Y-1.0487
G01 X-24.5400 Y-1.0019
G01 X-24.4595 Y-0.9761
G01 X-24.4134 Y-0.9597
G01 X-24.3741 Y-0.9447
G01 X-24.2279 Y-0.8845
G01 X-24.2026 Y-0.9698
G01 X-24.1759 Y-1.0480
G01 X-24.7024 Y-1.0487
G01 X-29.9475 Y0.0835
G01 X-29.9475 Y0.6557
G01 X-29.4985 Y0.2068
G01 X-29.4688 Y0.1463
G01 X-29.4375 Y0.0860
G01 X-29.9475 Y0.0835
G01 X-30.1750 Y-0.1451
G01 X-30.1750 Y1.2050
G01 X-29.3097 Y0.3397
G01 X-29.2641 Y0.2455
G01 X-29.2159 Y0.1544
G01 X-29.1185 Y-0.0205
G01 X-29.0829 Y-0.0803
G01 X-29.0724 Y-0.0973
G01 X-29.0694 Y-0.1021
G01 X-29.0592 Y-0.1182
G01 X-29.0437 Y-0.1426
G01 X-30.1750 Y-0.1451
G01 X-30.4025 Y-0.3731
G01 X-30.4025 Y1.7542
G01 X-29.1197 Y0.4714
G01 X-29.0773 Y0.3808
G01 X-29.0362 Y0.3004
G01 X-28.9383 Y0.1227
G01 X-28.9127 Y0.0783
G01 X-28.8851 Y0.0324
G01 X-28.8373 Y-0.0426
G01 X-28.7879 Y-0.1148
G01 X-28.7063 Y-0.2298
G01 X-28.7035 Y-0.2337
G01 X-28.6768 Y-0.2705
G01 X-28.6386 Y-0.3210
G01 X-28.6003 Y-0.3692
G01 X-30.4025 Y-0.3731
G01 X-30.6300 Y-0.6010
G01 X-30.6300 Y2.3034
G01 X-28.9284 Y0.6018
G01 X-28.8940 Y0.5247
G01 X-28.8545 Y0.4438
G01 X-28.8228 Y0.3838
G01 X-28.7460 Y0.2448
G01 X-28.7098 Y0.1820
G01 X-28.6734 Y0.1230
G01 X-28.6390 Y0.0700
G01 X-28.6026 Y0.0172
G01 X-28.5159 Y-0.1049
G01 X-28.4822 Y-0.1509
G01 X-28.4309 Y-0.2168
G01 X-28.4088 Y-0.2440
G01 X-28.4047 Y-0.2489
G01 X-28.4023 Y-0.2518
G01 X-28.4017 Y-0.2526
G01 X-28.3983 Y-0.2567
G01 X-28.3861 Y-0.2710
G01 X-28.3517 Y-0.3107
G01 X-28.2537 Y-0.4203
G01 X-28.2112 Y-0.4665
G01 X-28.1452 Y-0.5340
G01 X-28.0804 Y-0.5955
G01 X-30.6300 Y-0.6010
G01 X-30.8575 Y-0.8290
G01 X-30.8575 Y2.8527
G01 X-28.7358 Y0.7310
G01 X-28.7108 Y0.6718
G01 X-28.6883 Y0.6219
G01 X-28.6623 Y0.5680
G01 X-28.6356 Y0.5160
G01 X-28.5287 Y0.3230
G01 X-28.4961 Y0.2685
G01 X-28.4576 Y0.2081
G01 X-28.4212 Y0.1548
G01 X-28.3300 Y0.0261
G01 X-28.3000 Y-0.0147
G01 X-28.2676 Y-0.0567
G01 X-28.2306 Y-0.1026
G01 X-28.1926 Y-0.1470
G01 X-28.0511 Y-0.3047
G01 X-28.0358 Y-0.3209
G01 X-28.0276 Y-0.3294
G01 X-28.0260 Y-0.3311
G01 X-28.0253 Y-0.3318
G01 X-28.0250 Y-0.3321
G01 X-28.0197 Y-0.3376
G01 X-27.9895 Y-0.3680
G01 X-27.9360 Y-0.4193
G01 X-27.7968 Y-0.5442
G01 X-27.7385 Y-0.5941
G01 X-27.6816 Y-0.6397
G01 X-27.6240 Y-0.6829
G01 X-27.4838 Y-0.7826
G01 X-27.4240 Y-0.8231
G01 X-30.8575 Y-0.8290
G01 X-31.0850 Y-1.0569
G01 X-31.0850 Y3.4019
G01 X-28.5429 Y0.8598
G01 X-28.5113 Y0.7837
G01 X-28.4905 Y0.7362
G01 X-28.4620 Y0.6761
G01 X-28.4369 Y0.6269
G01 X-28.3507 Y0.4703
G01 X-28.3282 Y0.4306
G01 X-28.2877 Y0.3643
G01 X-28.2529 Y0.3113
G01 X-28.1293 Y0.1370
G01 X-28.0956 Y0.0926
G01 X-28.0550 Y0.0421
G01 X-28.0126 Y-0.0072
G01 X-27.8918 Y-0.1419
G01 X-27.8475 Y-0.1882
G01 X-27.7923 Y-0.2422
G01 X-27.7565 Y-0.2751
G01 X-27.6244 Y-0.3927
G01 X-27.6007 Y-0.4129
G01 X-27.5913 Y-0.4206
G01 X-27.5840 Y-0.4266
G01 X-27.5825 Y-0.4278
G01 X-27.5809 Y-0.4291
G01 X-27.5769 Y-0.4323
G01 X-27.5227 Y-0.4748
G01 X-27.4744 Y-0.5103
G01 X-27.3550 Y-0.5950
G01 X-27.3166 Y-0.6214
G01 X-27.2434 Y-0.6682
G01 X-27.1734 Y-0.7091
G01 X-27.0292 Y-0.7887
G01 X-26.9531 Y-0.8278
G01 X-26.9108 Y-0.8478
G01 X-26.8707 Y-0.8657
G01 X-26.7098 Y-0.9327
G01 X-26.6399 Y-0.9599
G01 X-26.5601 Y-0.9876
G01 X-26.5044 Y-1.0048
G01 X-26.3440 Y-1.0508
G01 X-31.0850 Y-1.0569
G01 X-31.3125 Y-1.2847
G01 X-31.3125 Y3.9511
G01 X-28.3501 Y0.9887
G01 X-28.2940 Y0.8543
G01 X-28.2764 Y0.8151
G01 X-28.2570 Y0.7748
G01 X-28.2228 Y0.7090
G01 X-28.1322 Y0.5462
G01 X-28.0910 Y0.4789
G01 X-28.0524 Y0.4213
G01 X-27.9531 Y0.2814
G01 X-27.9257 Y0.2447
G01 X-27.8945 Y0.2052
G01 X-27.8443 Y0.1458
G01 X-27.7233 Y0.0110
G01 X-27.6668 Y-0.0472
G01 X-27.6158 Y-0.0956
G01 X-27.4893 Y-0.2087
G01 X-27.4296 Y-0.2589
G01 X-27.3932 Y-0.2875
G01 X-27.3571 Y-0.3144
G01 X-27.2187 Y-0.4127
G01 X-27.1574 Y-0.4537
G01 X-27.0888 Y-0.4956
G01 X-27.0600 Y-0.5119
G01 X-27.0581 Y-0.5130
G01 X-26.9352 Y-0.5809
G01 X-26.9286 Y-0.5845
G01 X-26.8629 Y-0.6186
G01 X-26.8175 Y-0.6403
G01 X-26.7808 Y-0.6567
G01 X-26.6186 Y-0.7242
G01 X-26.5541 Y-0.7491
G01 X-26.4863 Y-0.7724
G01 X-26.4358 Y-0.7878
G01 X-26.2573 Y-0.8386
G01 X-26.1813 Y-0.8566
G01 X-26.1109 Y-0.8703
G01 X-25.9481 Y-0.8979
G01 X-25.9033 Y-0.9044
G01 X-25.8577 Y-0.9098
G01 X-25.7809 Y-0.9165
G01 X-25.6095 Y-0.9261
G01 X-25.5403 Y-0.9279
G01 X-25.4609 Y-0.9267
G01 X-25.4278 Y-0.9253
G01 X-25.4268 Y-0.9252
G01 X-25.2867 Y-0.9173
G01 X-25.2799 Y-0.9169
G01 X-25.2076 Y-0.9111
G01 X-25.1619 Y-0.9059
G01 X-25.1175 Y-0.8997
G01 X-24.9483 Y-0.8712
G01 X-24.8875 Y-0.8598
G01 X-24.8263 Y-0.8460
G01 X-24.7602 Y-0.8287
G01 X-24.5915 Y-0.7798
G01 X-24.5356 Y-0.7617
G01 X-24.4680 Y-0.7371
G01 X-24.2971 Y-0.6669
G01 X-24.2381 Y-0.6410
G01 X-24.1588 Y-0.6023
G01 X-24.0640 Y-0.5506
G01 X-24.0495 Y-0.6440
G01 X-24.0321 Y-0.7301
G01 X-24.0071 Y-0.8292
G01 X-23.9918 Y-0.8818
G01 X-23.9793 Y-0.9207
G01 X-23.9449 Y-1.0170
G01 X-23.9305 Y-1.0533
G01 X-23.9110 Y-1.0994
G01 X-23.8923 Y-1.1405
G01 X-23.8764 Y-1.1740
G01 X-23.8738 Y-1.1793
G01 X-23.8735 Y-1.1799
G01 X-23.8699 Y-1.1874
G01 X-23.8696 Y-1.1880
G01 X-23.8648 Y-1.1977
G01 X-23.8458 Y-1.2347
G01 X-23.8206 Y-1.2808
G01 X-31.3125 Y-1.2847
G01 X-31.5400 Y-1.5123
G01 X-31.5400 Y4.5004
G01 X-28.1569 Y1.1173
G01 X-28.0928 Y0.9623
G01 X-28.0653 Y0.9010
G01 X-28.0468 Y0.8632
G01 X-28.0281 Y0.8273
G01 X-27.9519 Y0.6892
G01 X-27.9192 Y0.6333
G01 X-27.8821 Y0.5752
G01 X-27.8598 Y0.5429
G01 X-27.7573 Y0.3992
G01 X-27.7149 Y0.3449
G01 X-27.6762 Y0.2992
G01 X-27.5658 Y0.1757
G01 X-27.5386 Y0.1466
G01 X-27.5089 Y0.1166
G01 X-27.4597 Y0.0700
G01 X-27.3357 Y-0.0408
G01 X-27.2901 Y-0.0791
G01 X-27.2328 Y-0.1235
G01 X-27.0884 Y-0.2262
G01 X-27.0313 Y-0.2642
G01 X-26.9955 Y-0.2865
G01 X-26.9604 Y-0.3069
G01 X-26.8113 Y-0.3893
G01 X-26.7758 Y-0.4078
G01 X-26.7390 Y-0.4258
G01 X-26.6800 Y-0.4524
G01 X-26.5232 Y-0.5173
G01 X-26.4840 Y-0.5325
G01 X-26.4397 Y-0.5482
G01 X-26.3726 Y-0.5692
G01 X-26.2285 Y-0.6107
G01 X-26.1726 Y-0.6253
G01 X-26.1319 Y-0.6346
G01 X-26.0923 Y-0.6425
G01 X-25.9287 Y-0.6706
G01 X-25.8620 Y-0.6803
G01 X-25.7893 Y-0.6878
G01 X-25.6100 Y-0.6983
G01 X-25.5441 Y-0.7003
G01 X-25.4971 Y-0.7002
G01 X-25.4553 Y-0.6988
G01 X-25.2843 Y-0.6892
G01 X-25.2446 Y-0.6861
G01 X-25.2027 Y-0.6816
G01 X-25.1355 Y-0.6723
G01 X-24.9716 Y-0.6443
G01 X-24.9319 Y-0.6366
G01 X-24.8876 Y-0.6268
G01 X-24.8186 Y-0.6088
G01 X-24.6772 Y-0.5680
G01 X-24.6294 Y-0.5532
G01 X-24.5816 Y-0.5367
G01 X-24.5434 Y-0.5223
G01 X-24.3830 Y-0.4562
G01 X-24.3236 Y-0.4299
G01 X-24.2601 Y-0.3985
G01 X-24.1013 Y-0.3112
G01 X-24.0425 Y-0.2767
G01 X-23.9785 Y-0.2351
G01 X-23.8554 Y-0.1481
G01 X-23.8544 Y-0.3024
G01 X-23.8528 Y-0.3559
G01 X-23.8474 Y-0.4416
G01 X-23.8430 Y-0.4856
G01 X-23.8379 Y-0.5254
G01 X-23.8243 Y-0.6110
G01 X-23.8146 Y-0.6598
G01 X-23.8059 Y-0.6982
G01 X-23.7936 Y-0.7471
G01 X-23.7818 Y-0.7901
G01 X-23.7681 Y-0.8347
G01 X-23.7538 Y-0.8770
G01 X-23.7236 Y-0.9582
G01 X-23.7063 Y-0.9997
G01 X-23.6897 Y-1.0367
G01 X-23.6690 Y-1.0803
G01 X-23.6487 Y-1.1207
G01 X-23.6266 Y-1.1617
G01 X-23.6028 Y-1.2030
G01 X-23.5901 Y-1.2241
G01 X-23.5891 Y-1.2258
G01 X-23.5883 Y-1.2271
G01 X-23.5876 Y-1.2283
G01 X-23.5761 Y-1.2470
G01 X-23.5534 Y-1.2823
G01 X-23.5248 Y-1.3241
G01 X-23.4903 Y-1.3714
G01 X-23.4629 Y-1.4071
G01 X-23.4333 Y-1.4436
G01 X-23.4086 Y-1.4724
G01 X-23.3753 Y-1.5094
G01 X-31.5400 Y-1.5123
G01 X-31.7675 Y-1.7399
G01 X-31.7675 Y5.0496
G01 X-27.9617 Y1.2438
G01 X-27.9416 Y1.1916
G01 X-27.8767 Y1.0357
G01 X-27.8505 Y0.9794
G01 X-27.8256 Y0.9312
G01 X-27.7482 Y0.7911
G01 X-27.7305 Y0.7608
G01 X-27.7108 Y0.7290
G01 X-27.6788 Y0.6810
G01 X-27.5863 Y0.5507
G01 X-27.5551 Y0.5094
G01 X-27.5149 Y0.4604
G01 X-27.4034 Y0.3353
G01 X-27.3629 Y0.2924
G01 X-27.3352 Y0.2649
G01 X-27.3096 Y0.2410
G01 X-27.1924 Y0.1361
G01 X-27.1514 Y0.1013
G01 X-27.1043 Y0.0645
G01 X-26.9610 Y-0.0377
G01 X-26.9100 Y-0.0718
G01 X-26.8782 Y-0.0915
G01 X-26.8458 Y-0.1103
G01 X-26.6878 Y-0.1973
G01 X-26.6396 Y-0.2212
G01 X-26.6044 Y-0.2373
G01 X-26.4463 Y-0.3030
G01 X-26.4103 Y-0.3172
G01 X-26.3721 Y-0.3308
G01 X-26.3125 Y-0.3498
G01 X-26.1533 Y-0.3954
G01 X-26.1181 Y-0.4044
G01 X-26.0777 Y-0.4135
G01 X-26.0323 Y-0.4222
G01 X-25.8859 Y-0.4471
G01 X-25.8476 Y-0.4528
G01 X-25.8074 Y-0.4576
G01 X-25.7422 Y-0.4630
G01 X-25.5971 Y-0.4712
G01 X-25.5433 Y-0.4728
G01 X-25.5011 Y-0.4727
G01 X-25.4645 Y-0.4715
G01 X-25.3038 Y-0.4625
G01 X-25.2657 Y-0.4596
G01 X-25.2277 Y-0.4555
G01 X-25.1666 Y-0.4468
G01 X-24.9955 Y-0.4174
G01 X-24.9421 Y-0.4059
G01 X-24.9019 Y-0.3957
G01 X-24.7339 Y-0.3475
G01 X-24.6993 Y-0.3367
G01 X-24.6617 Y-0.3237
G01 X-24.6036 Y-0.3014
G01 X-24.4693 Y-0.2457
G01 X-24.4223 Y-0.2249
G01 X-24.3822 Y-0.2055
G01 X-24.3501 Y-0.1887
G01 X-24.2054 Y-0.1088
G01 X-24.1751 Y-0.0911
G01 X-24.1434 Y-0.0714
G01 X-24.0920 Y-0.0370
G01 X-23.9648 Y0.0534
G01 X-23.9357 Y0.0751
G01 X-23.9014 Y0.1023
G01 X-23.8616 Y0.1361
G01 X-23.7524 Y0.2337
G01 X-23.7234 Y0.2605
G01 X-23.6998 Y0.2837
G01 X-23.6553 Y0.1768
G01 X-23.6290 Y0.1202
G01 X-23.6270 Y-0.2888
G01 X-23.6258 Y-0.3378
G01 X-23.6224 Y-0.4019
G01 X-23.6170 Y-0.4592
G01 X-23.6075 Y-0.5280
G01 X-23.5991 Y-0.5779
G01 X-23.5885 Y-0.6287
G01 X-23.5737 Y-0.6887
G01 X-23.5616 Y-0.7324
G01 X-23.5446 Y-0.7859
G01 X-23.5220 Y-0.8490
G01 X-23.5021 Y-0.8985
G01 X-23.4816 Y-0.9447
G01 X-23.4529 Y-1.0041
G01 X-23.4213 Y-1.0627
G01 X-23.3805 Y-1.1306
G01 X-23.3443 Y-1.1853
G01 X-23.3052 Y-1.2389
G01 X-23.2892 Y-1.2600
G01 X-23.2814 Y-1.2699
G01 X-23.2775 Y-1.2748
G01 X-23.2770 Y-1.2753
G01 X-23.2762 Y-1.2764
G01 X-23.2722 Y-1.2813
G01 X-23.2291 Y-1.3320
G01 X-23.1801 Y-1.3851
G01 X-23.1317 Y-1.4328
G01 X-23.0765 Y-1.4827
G01 X-23.0288 Y-1.5223
G01 X-22.9674 Y-1.5685
G01 X-22.9136 Y-1.6058
G01 X-22.8461 Y-1.6476
G01 X-22.7980 Y-1.6750
G01 X-22.7404 Y-1.7046
G01 X-22.6712 Y-1.7367
G01 X-31.7675 Y-1.7399
G01 X-31.9950 Y-1.9675
G01 X-31.9950 Y5.5988
G01 X-27.7634 Y1.3673
G01 X-27.7491 Y1.3248
G01 X-27.7379 Y1.2949
G01 X-27.6755 Y1.1436
G01 X-27.6549 Y1.0974
G01 X-27.6267 Y1.0416
G01 X-27.5504 Y0.9036
G01 X-27.5346 Y0.8764
G01 X-27.5156 Y0.8460
G01 X-27.4905 Y0.8087
G01 X-27.4075 Y0.6918
G01 X-27.3787 Y0.6531
G01 X-27.3563 Y0.6252
G01 X-27.3359 Y0.6012
G01 X-27.2308 Y0.4836
G01 X-27.1875 Y0.4386
G01 X-27.1506 Y0.4039
G01 X-27.0378 Y0.3031
G01 X-27.0138 Y0.2827
G01 X-26.9859 Y0.2603
G01 X-26.9498 Y0.2333
G01 X-26.8329 Y0.1504
G01 X-26.7889 Y0.1208
G01 X-26.7585 Y0.1020
G01 X-26.7298 Y0.0854
G01 X-26.6023 Y0.0149
G01 X-26.5638 Y-0.0052
G01 X-26.5301 Y-0.0213
G01 X-26.5013 Y-0.0340
G01 X-26.3555 Y-0.0944
G01 X-26.3187 Y-0.1085
G01 X-26.2712 Y-0.1246
G01 X-26.1117 Y-0.1709
G01 X-26.0605 Y-0.1842
G01 X-25.9969 Y-0.1974
G01 X-25.8438 Y-0.2234
G01 X-25.8127 Y-0.2280
G01 X-25.7755 Y-0.2322
G01 X-25.7322 Y-0.2357
G01 X-25.5859 Y-0.2439
G01 X-25.5505 Y-0.2452
G01 X-25.5163 Y-0.2454
G01 X-25.4681 Y-0.2439
G01 X-25.3249 Y-0.2359
G01 X-25.2721 Y-0.2316
G01 X-25.2078 Y-0.2230
G01 X-25.0300 Y-0.1923
G01 X-24.9920 Y-0.1839
G01 X-24.9603 Y-0.1759
G01 X-24.8007 Y-0.1300
G01 X-24.7398 Y-0.1101
G01 X-24.6903 Y-0.0911
G01 X-24.5436 Y-0.0301
G01 X-24.4831 Y-0.0016
G01 X-24.4510 Y0.0153
G01 X-24.3186 Y0.0886
G01 X-24.2859 Y0.1077
G01 X-24.2490 Y0.1312
G01 X-24.1016 Y0.2352
G01 X-24.0501 Y0.2746
G01 X-24.0103 Y0.3084
G01 X-23.9034 Y0.4039
G01 X-23.8768 Y0.4286
G01 X-23.8492 Y0.4561
G01 X-23.8232 Y0.4836
G01 X-23.7018 Y0.6203
G01 X-23.6612 Y0.6715
G01 X-23.6005 Y0.7566
G01 X-23.5896 Y0.6969
G01 X-23.5766 Y0.6410
G01 X-23.5374 Y0.5037
G01 X-23.5226 Y0.4569
G01 X-23.5004 Y0.3969
G01 X-23.4468 Y0.2679
G01 X-23.4226 Y0.2159
G01 X-23.4008 Y0.1743
G01 X-23.3994 Y-0.2935
G01 X-23.3982 Y-0.3350
G01 X-23.3948 Y-0.3946
G01 X-23.3909 Y-0.4341
G01 X-23.3866 Y-0.4669
G01 X-23.3791 Y-0.5156
G01 X-23.3715 Y-0.5560
G01 X-23.3630 Y-0.5938
G01 X-23.3507 Y-0.6422
G01 X-23.3386 Y-0.6837
G01 X-23.3300 Y-0.7102
G01 X-23.3093 Y-0.7681
G01 X-23.2930 Y-0.8088
G01 X-23.2768 Y-0.8455
G01 X-23.2531 Y-0.8950
G01 X-23.2327 Y-0.9338
G01 X-23.2128 Y-0.9686
G01 X-23.1842 Y-1.0154
G01 X-23.1567 Y-1.0566
G01 X-23.1231 Y-1.1026
G01 X-23.0972 Y-1.1359
G01 X-23.0681 Y-1.1706
G01 X-23.0264 Y-1.2166
G01 X-22.9932 Y-1.2504
G01 X-22.9646 Y-1.2775
G01 X-22.9221 Y-1.3154
G01 X-22.9093 Y-1.3262
G01 X-22.8970 Y-1.3363
G01 X-22.8959 Y-1.3372
G01 X-22.8850 Y-1.3459
G01 X-22.8389 Y-1.3807
G01 X-22.8062 Y-1.4039
G01 X-22.7695 Y-1.4280
G01 X-22.7220 Y-1.4567
G01 X-22.6901 Y-1.4747
G01 X-22.6487 Y-1.4962
G01 X-22.5944 Y-1.5219
G01 X-22.5528 Y-1.5397
G01 X-22.5160 Y-1.5538
G01 X-22.4643 Y-1.5720
G01 X-22.4230 Y-1.5849
G01 X-22.3837 Y-1.5955
G01 X-22.3310 Y-1.6083
G01 X-22.2880 Y-1.6170
G01 X-22.2283 Y-1.6264
G01 X-22.1872 Y-1.6317
G01 X-22.1264 Y-1.6367
G01 X-22.0808 Y-1.6388
G01 X-22.0462 Y-1.6395
G01 X-21.0170 Y-1.6395
G01 X-21.0001 Y-1.6394
G01 X-20.9938 Y-1.6392
G01 X-20.9858 Y-1.6390
G01 X-20.9851 Y-1.6390
G01 X-20.9802 Y-1.6389
G01 X-20.9305 Y-1.6365
G01 X-20.8933 Y-1.6338
G01 X-20.8517 Y-1.6293
G01 X-20.7981 Y-1.6215
G01 X-20.7641 Y-1.6157
G01 X-20.7212 Y-1.6068
G01 X-20.6693 Y-1.5940
G01 X-20.6319 Y-1.5837
G01 X-20.5921 Y-1.5712
G01 X-20.5423 Y-1.5536
G01 X-20.5088 Y-1.5407
G01 X-20.4684 Y-1.5236
G01 X-20.4200 Y-1.5009
G01 X-20.3854 Y-1.4835
G01 X-20.3487 Y-1.4635
G01 X-20.3034 Y-1.4366
G01 X-20.2730 Y-1.4174
G01 X-20.2384 Y-1.3939
G01 X-20.1964 Y-1.3631
G01 X-20.1653 Y-1.3390
G01 X-20.1316 Y-1.3109
G01 X-20.0923 Y-1.2756
G01 X-20.0658 Y-1.2504
G01 X-20.0350 Y-1.2191
G01 X-19.9990 Y-1.1797
G01 X-19.9737 Y-1.1504
G01 X-19.9475 Y-1.1178
G01 X-19.9159 Y-1.0756
G01 X-19.8951 Y-1.0462
G01 X-19.8718 Y-1.0107
G01 X-19.8437 Y-0.9644
G01 X-19.8243 Y-0.9301
G01 X-19.8049 Y-0.8931
G01 X-19.7822 Y-0.8455
G01 X-19.7676 Y-0.8127
G01 X-19.7511 Y-0.7720
G01 X-19.7329 Y-0.7218
G01 X-19.7208 Y-0.6850
G01 X-19.7090 Y-0.6449
G01 X-19.6960 Y-0.5938
G01 X-19.6820 Y-0.5280
G01 X-19.6715 Y-0.4607
G01 X-19.6644 Y-0.3960
G01 X-19.6608 Y-0.3360
G01 X-19.6595 Y-0.2834
G01 X-19.6595 Y0.1719
G01 X-19.6343 Y0.2202
G01 X-19.6190 Y0.2525
G01 X-19.6049 Y0.2851
G01 X-19.5495 Y0.4202
G01 X-19.5328 Y0.4675
G01 X-19.5212 Y0.5052
G01 X-19.4843 Y0.6341
G01 X-19.4684 Y0.7016
G01 X-19.4622 Y0.7349
G01 X-19.4396 Y0.8702
G01 X-19.4334 Y0.9208
G01 X-19.4300 Y0.9617
G01 X-19.4227 Y1.0906
G01 X-19.4215 Y1.1398
G01 X-19.4215 Y3.1157
G01 X-19.4227 Y3.1661
G01 X-19.4296 Y3.2894
G01 X-19.4321 Y3.3240
G01 X-19.4361 Y3.3611
G01 X-19.4424 Y3.4057
G01 X-19.4633 Y3.5289
G01 X-19.4697 Y3.5622
G01 X-19.4799 Y3.6064
G01 X-19.4896 Y3.6430
G01 X-19.5282 Y3.7755
G01 X-19.5451 Y3.8253
G01 X-19.5616 Y3.8680
G01 X-19.6086 Y3.9812
G01 X-19.6343 Y4.0373
G01 X-19.6557 Y4.0787
G01 X-19.7162 Y4.1881
G01 X-19.7390 Y4.2269
G01 X-19.7667 Y4.2697
G01 X-19.8445 Y4.3798
G01 X-19.8670 Y4.4103
G01 X-19.8952 Y4.4458
G01 X-19.9173 Y4.4715
G01 X-20.0028 Y4.5672
G01 X-20.0355 Y4.6017
G01 X-21.5298 Y6.0960
G01 X-19.0826 Y8.5433
G01 X-19.0470 Y8.5806
G01 X-18.9516 Y8.6877
G01 X-18.9193 Y8.7271
G01 X-18.8941 Y8.7606
G01 X-18.8218 Y8.8624
G01 X-18.7966 Y8.8998
G01 X-18.7769 Y8.9315
G01 X-18.7575 Y8.9650
G01 X-18.6987 Y9.0716
G01 X-18.6702 Y9.1281
G01 X-18.6519 Y9.1692
G01 X-18.6040 Y9.2846
G01 X-18.5918 Y9.3162
G01 X-18.5768 Y9.3590
G01 X-18.5657 Y9.3952
G01 X-18.5275 Y9.5287
G01 X-18.5156 Y9.5791
G01 X-18.5066 Y9.6257
G01 X-18.5066 Y-1.9627
G01 X-31.9950 Y-1.9675
G01 X-32.2225 Y-2.1935
G01 X-32.2225 Y6.1481
G01 X-27.5616 Y1.4871
G01 X-27.5461 Y1.4346
G01 X-27.5300 Y1.3880
G01 X-27.4553 Y1.2077
G01 X-27.4406 Y1.1768
G01 X-27.4257 Y1.1482
G01 X-27.3419 Y0.9975
G01 X-27.3238 Y0.9684
G01 X-27.3058 Y0.9416
G01 X-27.2211 Y0.8221
G01 X-27.1999 Y0.7937
G01 X-27.1636 Y0.7498
G01 X-27.0462 Y0.6192
G01 X-27.0243 Y0.5973
G01 X-27.0020 Y0.5762
G01 X-26.8916 Y0.4775
G01 X-26.8646 Y0.4545
G01 X-26.8281 Y0.4261
G01 X-26.7000 Y0.3350
G01 X-26.6679 Y0.3134
G01 X-26.6219 Y0.2857
G01 X-26.4950 Y0.2156
G01 X-26.4622 Y0.1984
G01 X-26.4218 Y0.1795
G01 X-26.2766 Y0.1191
G01 X-26.2481 Y0.1079
G01 X-26.2128 Y0.0956
G01 X-26.1881 Y0.0879
G01 X-26.0191 Y0.0398
G01 X-25.9827 Y0.0315
G01 X-25.9541 Y0.0260
G01 X-25.8128 Y0.0020
G01 X-25.7745 Y-0.0035
G01 X-25.7179 Y-0.0087
G01 X-25.5747 Y-0.0167
G01 X-25.5361 Y-0.0179
G01 X-25.4777 Y-0.0166
G01 X-25.3329 Y-0.0085
G01 X-25.2795 Y-0.0035
G01 X-25.2412 Y0.0020
G01 X-25.0999 Y0.0260
G01 X-25.0713 Y0.0315
G01 X-25.0411 Y0.0383
G01 X-25.0068 Y0.0473
G01 X-24.8690 Y0.0870
G01 X-24.8412 Y0.0956
G01 X-24.8119 Y0.1057
G01 X-24.7774 Y0.1191
G01 X-24.6336 Y0.1789
G01 X-24.5947 Y0.1970
G01 X-24.5646 Y0.2125
G01 X-24.4307 Y0.2865
G01 X-24.4043 Y0.3021
G01 X-24.3754 Y0.3204
G01 X-24.2246 Y0.4271
G01 X-24.1894 Y0.4545
G01 X-24.1613 Y0.4785
G01 X-24.0555 Y0.5730
G01 X-24.0274 Y0.5995
G01 X-23.9902 Y0.6382
G01 X-23.8935 Y0.7463
G01 X-23.8695 Y0.7744
G01 X-23.8440 Y0.8070
G01 X-23.7472 Y0.9430
G01 X-23.7284 Y0.9711
G01 X-23.7060 Y1.0078
G01 X-23.6306 Y1.1440
G01 X-23.6134 Y1.1768
G01 X-23.6000 Y1.2048
G01 X-23.5884 Y1.2314
G01 X-23.5335 Y1.3639
G01 X-23.5207 Y1.3969
G01 X-23.5106 Y1.4262
G01 X-23.5020 Y1.4540
G01 X-23.4623 Y1.5918
G01 X-23.4526 Y1.6292
G01 X-23.4408 Y1.6864
G01 X-23.4165 Y1.8294
G01 X-23.4100 Y1.8781
G01 X-23.4099 Y1.1329
G01 X-23.4088 Y1.0968
G01 X-23.4023 Y0.9816
G01 X-23.3991 Y0.9415
G01 X-23.3915 Y0.8851
G01 X-23.3722 Y0.7714
G01 X-23.3654 Y0.7366
G01 X-23.3518 Y0.6814
G01 X-23.3131 Y0.5480
G01 X-23.2926 Y0.4902
G01 X-23.2353 Y0.3520
G01 X-23.2114 Y0.3025
G01 X-23.1735 Y0.2333
G01 X-23.1720 Y-0.2839
G01 X-23.1714 Y-0.3156
G01 X-23.1682 Y-0.3737
G01 X-23.1638 Y-0.4167
G01 X-23.1546 Y-0.4788
G01 X-23.1443 Y-0.5300
G01 X-23.1304 Y-0.5856
G01 X-23.1184 Y-0.6256
G01 X-23.0996 Y-0.6794
G01 X-23.0818 Y-0.7243
G01 X-23.0562 Y-0.7799
G01 X-23.0347 Y-0.8217
G01 X-23.0047 Y-0.8733
G01 X-22.9859 Y-0.9031
G01 X-22.9592 Y-0.9417
G01 X-22.9222 Y-0.9905
G01 X-22.8910 Y-1.0274
G01 X-22.8525 Y-1.0693
G01 X-22.8207 Y-1.1007
G01 X-22.7735 Y-1.1432
G01 X-22.7389 Y-1.1713
G01 X-22.6941 Y-1.2047
G01 X-22.6631 Y-1.2259
G01 X-22.6381 Y-1.2418
G01 X-22.5969 Y-1.2662
G01 X-22.5676 Y-1.2822
G01 X-22.5399 Y-1.2962
G01 X-22.4978 Y-1.3159
G01 X-22.4644 Y-1.3300
G01 X-22.4394 Y-1.3396
G01 X-22.3943 Y-1.3556
G01 X-22.3624 Y-1.3656
G01 X-22.3324 Y-1.3738
G01 X-22.2873 Y-1.3849
G01 X-22.2519 Y-1.3923
G01 X-22.2240 Y-1.3970
G01 X-22.1781 Y-1.4037
G01 X-22.1448 Y-1.4072
G01 X-22.0845 Y-1.4110
G01 X-22.0441 Y-1.4120
G01 X-21.0050 Y-1.4119
G01 X-20.9437 Y-1.4094
G01 X-20.8955 Y-1.4054
G01 X-20.8336 Y-1.3968
G01 X-20.7860 Y-1.3881
G01 X-20.7121 Y-1.3700
G01 X-20.6787 Y-1.3601
G01 X-20.6493 Y-1.3503
G01 X-20.6082 Y-1.3354
G01 X-20.5747 Y-1.3218
G01 X-20.5057 Y-1.2896
G01 X-20.4749 Y-1.2734
G01 X-20.4480 Y-1.2580
G01 X-20.4106 Y-1.2354
G01 X-20.3803 Y-1.2155
G01 X-20.3189 Y-1.1705
G01 X-20.2919 Y-1.1486
G01 X-20.2685 Y-1.1282
G01 X-20.2362 Y-1.0987
G01 X-20.2104 Y-1.0733
G01 X-20.1590 Y-1.0172
G01 X-20.1368 Y-0.9905
G01 X-20.1178 Y-0.9659
G01 X-20.0919 Y-0.9307
G01 X-20.0715 Y-0.9008
G01 X-20.0321 Y-0.8357
G01 X-20.0155 Y-0.8051
G01 X-20.0016 Y-0.7774
G01 X-19.9831 Y-0.7378
G01 X-19.9690 Y-0.7044
G01 X-19.9579 Y-0.6754
G01 X-19.9414 Y-0.6283
G01 X-19.9245 Y-0.5697
G01 X-19.9141 Y-0.5273
G01 X-19.9073 Y-0.4946
G01 X-19.8957 Y-0.4208
G01 X-19.8901 Y-0.3632
G01 X-19.8877 Y-0.3163
G01 X-19.8870 Y-0.2848
G01 X-19.8870 Y0.2305
G01 X-19.8498 Y0.2983
G01 X-19.8300 Y0.3382
G01 X-19.8157 Y0.3707
G01 X-19.7697 Y0.4817
G01 X-19.7587 Y0.5103
G01 X-19.7454 Y0.5495
G01 X-19.7068 Y0.6829
G01 X-19.6983 Y0.7157
G01 X-19.6896 Y0.7561
G01 X-19.6636 Y0.9107
G01 X-19.6577 Y0.9662
G01 X-19.6504 Y1.0937
G01 X-19.6490 Y1.1430
G01 X-19.6492 Y3.1330
G01 X-19.6570 Y3.2806
G01 X-19.6590 Y3.3065
G01 X-19.6632 Y3.3436
G01 X-19.6677 Y3.3739
G01 X-19.6896 Y3.5014
G01 X-19.6990 Y3.5449
G01 X-19.7080 Y3.5792
G01 X-19.7440 Y3.7034
G01 X-19.7609 Y3.7531
G01 X-19.8169 Y3.8898
G01 X-19.8273 Y3.9135
G01 X-19.8436 Y3.9472
G01 X-19.9145 Y4.0766
G01 X-19.9439 Y4.1253
G01 X-19.9637 Y4.1547
G01 X-20.0333 Y4.2527
G01 X-20.0517 Y4.2773
G01 X-20.0778 Y4.3094
G01 X-20.1680 Y4.4107
G01 X-20.1981 Y4.4425
G01 X-21.8516 Y6.0960
G01 X-19.2437 Y8.7039
G01 X-19.2125 Y8.7368
G01 X-19.1223 Y8.8381
G01 X-19.0962 Y8.8702
G01 X-19.0750 Y8.8987
G01 X-19.0055 Y8.9967
G01 X-18.9770 Y9.0403
G01 X-18.9574 Y9.0736
G01 X-18.8993 Y9.1788
G01 X-18.8838 Y9.2089
G01 X-18.8663 Y9.2464
G01 X-18.8091 Y9.3846
G01 X-18.7951 Y9.4236
G01 X-18.7840 Y9.4589
G01 X-18.7513 Y9.5729
G01 X-18.7387 Y9.6235
G01 X-18.7313 Y9.6614
G01 X-18.7112 Y9.7799
G01 X-18.7065 Y9.8134
G01 X-18.7016 Y9.8653
G01 X-18.6945 Y9.9914
G01 X-18.6935 Y10.0330
G01 X-18.6935 Y25.9340
G01 X-18.6945 Y25.9756
G01 X-18.7016 Y26.1017
G01 X-18.7065 Y26.1536
G01 X-18.7120 Y26.1918
G01 X-18.7338 Y26.3193
G01 X-18.7435 Y26.3644
G01 X-18.7525 Y26.3987
G01 X-18.7885 Y26.5229
G01 X-18.8054 Y26.5726
G01 X-18.8596 Y26.7048
G01 X-18.8759 Y26.7416
G01 X-18.8993 Y26.7882
G01 X-18.9590 Y26.8961
G01 X-18.9770 Y26.9267
G01 X-19.0064 Y26.9716
G01 X-19.0832 Y27.0796
G01 X-19.1156 Y27.1209
G01 X-19.2120 Y27.2296
G01 X-19.2437 Y27.2631
G01 X-22.1700 Y30.1894
G01 X-22.0490 Y30.2559
G01 X-22.0225 Y30.2715
G01 X-21.9964 Y30.2880
G01 X-21.9710 Y30.3053
G01 X-21.8701 Y30.3772
G01 X-21.8349 Y30.4046
G01 X-21.8079 Y30.4276
G01 X-21.7259 Y30.5009
G01 X-21.6978 Y30.5274
G01 X-21.6616 Y30.5649
G01 X-21.5861 Y30.6492
G01 X-21.5621 Y30.6774
G01 X-21.5375 Y30.7087
G01 X-21.4576 Y30.8209
G01 X-18.2001 Y30.8217
G01 X-18.2000 Y13.0923
G01 X-18.1972 Y13.0247
G01 X-18.1947 Y12.9941
G01 X-18.1911 Y12.9633
G01 X-18.1796 Y12.8937
G01 X-18.1671 Y12.8385
G01 X-18.1478 Y12.7723
G01 X-18.1290 Y12.7198
G01 X-18.1139 Y12.6829
G01 X-18.1008 Y12.6534
G01 X-18.0858 Y12.6226
G01 X-18.0700 Y12.5930
G01 X-18.0997 Y12.5511
G01 X-18.1221 Y12.5163
G01 X-18.1401 Y12.4858
G01 X-18.1615 Y12.4465
G01 X-18.1798 Y12.4094
G01 X-18.1929 Y12.3799
G01 X-18.2104 Y12.3370
G01 X-18.2238 Y12.2996
G01 X-18.2349 Y12.2642
G01 X-18.2482 Y12.2157
G01 X-18.2572 Y12.1762
G01 X-18.2656 Y12.1298
G01 X-18.2701 Y12.0994
G01 X-18.2746 Y12.0591
G01 X-18.2778 Y12.0097
G01 X-18.2790 Y11.9737
G01 X-18.2791 Y-2.0400
G01 X-18.2782 Y-2.0784
G01 X-18.2754 Y-2.1260
G01 X-18.2713 Y-2.1672
G01 X-18.2677 Y-2.1933
G01 X-32.2209 Y-2.1951
G01 X-32.2224 Y-2.1950
G01 X-32.2225 Y-2.1935
G01 X-32.4500 Y-2.1991
G01 X-32.4500 Y6.7004
G01 X-32.4108 Y6.6582
G01 X-27.3592 Y1.6065
G01 X-27.3303 Y1.5067
G01 X-27.3174 Y1.4691
G01 X-27.2548 Y1.3170
G01 X-27.2342 Y1.2727
G01 X-27.1565 Y1.1313
G01 X-27.1426 Y1.1076
G01 X-27.1194 Y1.0720
G01 X-27.0273 Y0.9425
G01 X-27.0087 Y0.9188
G01 X-26.9929 Y0.9002
G01 X-26.8974 Y0.7933
G01 X-26.8657 Y0.7604
G01 X-26.8457 Y0.7416
G01 X-26.7388 Y0.6461
G01 X-26.7060 Y0.6190
G01 X-26.6839 Y0.6026
G01 X-26.5696 Y0.5214
G01 X-26.5260 Y0.4930
G01 X-26.3850 Y0.4147
G01 X-26.3606 Y0.4020
G01 X-26.3220 Y0.3842
G01 X-26.1895 Y0.3293
G01 X-26.1639 Y0.3194
G01 X-26.1235 Y0.3061
G01 X-25.9827 Y0.2655
G01 X-25.9414 Y0.2553
G01 X-25.9144 Y0.2501
G01 X-25.7763 Y0.2266
G01 X-25.7491 Y0.2226
G01 X-25.7067 Y0.2186
G01 X-25.5636 Y0.2105
G01 X-25.5361 Y0.2096
G01 X-25.4936 Y0.2104
G01 X-25.3473 Y0.2186
G01 X-25.3049 Y0.2226
G01 X-25.2777 Y0.2266
G01 X-25.1396 Y0.2501
G01 X-25.1126 Y0.2553
G01 X-25.0713 Y0.2655
G01 X-24.9335 Y0.3051
G01 X-24.9073 Y0.3134
G01 X-24.8674 Y0.3281
G01 X-24.7320 Y0.3842
G01 X-24.6934 Y0.4020
G01 X-24.6690 Y0.4147
G01 X-24.5463 Y0.4825
G01 X-24.5226 Y0.4964
G01 X-24.4870 Y0.5196
G01 X-24.3675 Y0.6044
G01 X-24.3480 Y0.6190
G01 X-24.3221 Y0.6401
G01 X-24.2083 Y0.7416
G01 X-24.1883 Y0.7604
G01 X-24.1587 Y0.7910
G01 X-24.0611 Y0.9002
G01 X-24.0340 Y0.9330
G01 X-24.0176 Y0.9551
G01 X-23.9346 Y1.0720
G01 X-23.9114 Y1.1076
G01 X-23.8975 Y1.1313
G01 X-23.8282 Y1.2568
G01 X-23.8064 Y1.3006
G01 X-23.7443 Y1.4495
G01 X-23.7344 Y1.4751
G01 X-23.7211 Y1.5155
G01 X-23.6781 Y1.6651
G01 X-23.6673 Y1.7124
G01 X-23.6416 Y1.8627
G01 X-23.6356 Y1.9081
G01 X-23.6334 Y1.9355
G01 X-23.6254 Y2.0786
G01 X-23.6246 Y2.1211
G01 X-23.6255 Y2.1486
G01 X-23.6342 Y2.3008
G01 X-23.6397 Y2.3491
G01 X-23.6651 Y2.4994
G01 X-23.6744 Y2.5442
G01 X-23.6813 Y2.5708
G01 X-23.7211 Y2.7085
G01 X-23.7344 Y2.7489
G01 X-23.7443 Y2.7745
G01 X-23.7980 Y2.9041
G01 X-23.8091 Y2.9292
G01 X-23.8297 Y2.9700
G01 X-23.8975 Y3.0927
G01 X-23.9114 Y3.1164
G01 X-23.9346 Y3.1520
G01 X-24.0076 Y3.2549
G01 X-23.1825 Y2.4298
G01 X-23.1825 Y1.1368
G01 X-23.1816 Y1.1080
G01 X-23.1750 Y0.9912
G01 X-23.1730 Y0.9670
G01 X-23.1689 Y0.9338
G01 X-23.1476 Y0.8079
G01 X-23.1389 Y0.7663
G01 X-23.1319 Y0.7397
G01 X-23.1009 Y0.6319
G01 X-23.0926 Y0.6057
G01 X-23.0767 Y0.5629
G01 X-23.0338 Y0.4592
G01 X-23.0226 Y0.4341
G01 X-23.0035 Y0.3961
G01 X-22.9455 Y0.2911
G01 X-22.9439 Y-0.3086
G01 X-22.9408 Y-0.3625
G01 X-22.9381 Y-0.3888
G01 X-22.9326 Y-0.4265
G01 X-22.9244 Y-0.4713
G01 X-22.9115 Y-0.5235
G01 X-22.8965 Y-0.5718
G01 X-22.8826 Y-0.6102
G01 X-22.8727 Y-0.6347
G01 X-22.8464 Y-0.6910
G01 X-22.8236 Y-0.7329
G01 X-22.8024 Y-0.7679
G01 X-22.7879 Y-0.7900
G01 X-22.7511 Y-0.8401
G01 X-22.7187 Y-0.8788
G01 X-22.6930 Y-0.9069
G01 X-22.6745 Y-0.9257
G01 X-22.6206 Y-0.9745
G01 X-22.5979 Y-0.9928
G01 X-22.5586 Y-1.0219
G01 X-22.5320 Y-1.0398
G01 X-22.4929 Y-1.0636
G01 X-22.4744 Y-1.0741
G01 X-22.4413 Y-1.0911
G01 X-22.4043 Y-1.1085
G01 X-22.3800 Y-1.1188
G01 X-22.3116 Y-1.1432
G01 X-22.2758 Y-1.1535
G01 X-22.2313 Y-1.1644
G01 X-22.1999 Y-1.1705
G01 X-22.1595 Y-1.1766
G01 X-22.1121 Y-1.1817
G01 X-22.0474 Y-1.1845
G01 X-21.0170 Y-1.1845
G01 X-20.9904 Y-1.1839
G01 X-20.9469 Y-1.1817
G01 X-20.8967 Y-1.1762
G01 X-20.8591 Y-1.1705
G01 X-20.8331 Y-1.1655
G01 X-20.7680 Y-1.1494
G01 X-20.7246 Y-1.1356
G01 X-20.6888 Y-1.1226
G01 X-20.6592 Y-1.1105
G01 X-20.5986 Y-1.0816
G01 X-20.5754 Y-1.0690
G01 X-20.5403 Y-1.0481
G01 X-20.4981 Y-1.0203
G01 X-20.4611 Y-0.9928
G01 X-20.4384 Y-0.9745
G01 X-20.3845 Y-0.9257
G01 X-20.3660 Y-0.9069
G01 X-20.3403 Y-0.8788
G01 X-20.3079 Y-0.8401
G01 X-20.2711 Y-0.7900
G01 X-20.2551 Y-0.7655
G01 X-20.2314 Y-0.7260
G01 X-20.2079 Y-0.6813
G01 X-20.1905 Y-0.6443
G01 X-20.1802 Y-0.6200
G01 X-20.1575 Y-0.5569
G01 X-20.1448 Y-0.5131
G01 X-20.1357 Y-0.4761
G01 X-20.1304 Y-0.4502
G01 X-20.1209 Y-0.3888
G01 X-20.1165 Y-0.3385
G01 X-20.1145 Y-0.2834
G01 X-20.1145 Y0.2894
G01 X-20.0555 Y0.3961
G01 X-20.0337 Y0.4398
G01 X-19.9777 Y0.5743
G01 X-19.9664 Y0.6057
G01 X-19.9581 Y0.6319
G01 X-19.9271 Y0.7397
G01 X-19.9201 Y0.7663
G01 X-19.9114 Y0.8079
G01 X-19.8920 Y0.9217
G01 X-19.8880 Y0.9489
G01 X-19.8849 Y0.9789
G01 X-19.8772 Y1.1126
G01 X-19.8765 Y1.1430
G01 X-19.8769 Y3.1374
G01 X-19.8847 Y3.2754
G01 X-19.8880 Y3.3086
G01 X-19.8920 Y3.3358
G01 X-19.9114 Y3.4496
G01 X-19.9201 Y3.4912
G01 X-19.9271 Y3.5178
G01 X-19.9591 Y3.6286
G01 X-19.9664 Y3.6518
G01 X-19.9777 Y3.6832
G01 X-20.0337 Y3.8177
G01 X-20.0555 Y3.8614
G01 X-20.1218 Y3.9807
G01 X-20.1484 Y4.0218
G01 X-20.2276 Y4.1329
G01 X-20.2586 Y4.1707
G01 X-20.3355 Y4.2568
G01 X-20.3607 Y4.2833
G01 X-22.1733 Y6.0960
G01 X-19.4052 Y8.8642
G01 X-19.3811 Y8.8896
G01 X-19.3031 Y8.9768
G01 X-19.2874 Y8.9953
G01 X-19.2669 Y9.0217
G01 X-19.1947 Y9.1231
G01 X-19.1793 Y9.1459
G01 X-19.1573 Y9.1823
G01 X-19.1015 Y9.2833
G01 X-19.0888 Y9.3076
G01 X-19.0759 Y9.3350
G01 X-19.0222 Y9.4643
G01 X-19.0109 Y9.4957
G01 X-19.0026 Y9.5219
G01 X-18.9716 Y9.6297
G01 X-18.9646 Y9.6563
G01 X-18.9559 Y9.6979
G01 X-18.9365 Y9.8117
G01 X-18.9325 Y9.8389
G01 X-18.9285 Y9.8812
G01 X-18.9219 Y9.9980
G01 X-18.9210 Y10.0330
G01 X-18.9210 Y25.9340
G01 X-18.9216 Y25.9628
G01 X-18.9283 Y26.0826
G01 X-18.9305 Y26.1100
G01 X-18.9360 Y26.1522
G01 X-18.9559 Y26.2691
G01 X-18.9646 Y26.3107
G01 X-18.9707 Y26.3342
G01 X-19.0036 Y26.4481
G01 X-19.0191 Y26.4945
G01 X-19.0697 Y26.6178
G01 X-19.0809 Y26.6429
G01 X-19.1000 Y26.6809
G01 X-19.1573 Y26.7847
G01 X-19.1793 Y26.8211
G01 X-19.1947 Y26.8439
G01 X-19.2669 Y26.9453
G01 X-19.2951 Y26.9809
G01 X-19.3811 Y27.0774
G01 X-19.4052 Y27.1028
G01 X-22.5803 Y30.2780
G01 X-22.4800 Y30.3070
G01 X-22.4423 Y30.3199
G01 X-22.3211 Y30.3697
G01 X-22.2825 Y30.3875
G01 X-22.2581 Y30.4002
G01 X-22.1646 Y30.4519
G01 X-22.1409 Y30.4658
G01 X-22.1027 Y30.4908
G01 X-22.0155 Y30.5527
G01 X-21.9935 Y30.5691
G01 X-21.9583 Y30.5983
G01 X-21.8787 Y30.6694
G01 X-21.8586 Y30.6882
G01 X-21.8291 Y30.7188
G01 X-21.7456 Y30.8125
G01 X-21.7266 Y30.8360
G01 X-21.7120 Y30.8555
G01 X-21.6396 Y30.9579
G01 X-21.6171 Y30.9937
G01 X-21.5866 Y31.0484
G01 X-17.9726 Y31.0493
G01 X-17.9726 Y13.0938
G01 X-17.9716 Y13.0650
G01 X-17.9689 Y13.0228
G01 X-17.9646 Y12.9864
G01 X-17.9584 Y12.9486
G01 X-17.9537 Y12.9248
G01 X-17.9460 Y12.8923
G01 X-17.9337 Y12.8498
G01 X-17.9230 Y12.8181
G01 X-17.9056 Y12.7743
G01 X-17.8945 Y12.7492
G01 X-17.8797 Y12.7192
G01 X-17.8583 Y12.6805
G01 X-17.8408 Y12.6520
G01 X-17.8254 Y12.6293
G01 X-17.8015 Y12.5963
G01 X-17.7829 Y12.5729
G01 X-17.8155 Y12.5414
G01 X-17.8343 Y12.5214
G01 X-17.8612 Y12.4907
G01 X-17.8912 Y12.4521
G01 X-17.9163 Y12.4161
G01 X-17.9356 Y12.3850
G01 X-17.9601 Y12.3407
G01 X-17.9784 Y12.3027
G01 X-17.9978 Y12.2559
G01 X-18.0101 Y12.2214
G01 X-18.0250 Y12.1705
G01 X-18.0327 Y12.1380
G01 X-18.0418 Y12.0885
G01 X-18.0473 Y12.0464
G01 X-18.0506 Y11.9994
G01 X-18.0515 Y11.9705
G01 X-18.0516 Y-2.0416
G01 X-18.0493 Y-2.0994
G01 X-18.0452 Y-2.1417
G01 X-18.0358 Y-2.2004
G01 X-18.0272 Y-2.2392
G01 X-18.0127 Y-2.2902
G01 X-17.9998 Y-2.3279
G01 X-17.9784 Y-2.3799
G01 X-17.9577 Y-2.4226
G01 X-32.2265 Y-2.4226
G01 X-32.2628 Y-2.4208
G01 X-32.2828 Y-2.4178
G01 X-32.3025 Y-2.4129
G01 X-32.3216 Y-2.4061
G01 X-32.3399 Y-2.3974
G01 X-32.3573 Y-2.3870
G01 X-32.3736 Y-2.3749
G01 X-32.3887 Y-2.3613
G01 X-32.4023 Y-2.3462
G01 X-32.4144 Y-2.3299
G01 X-32.4248 Y-2.3125
G01 X-32.4335 Y-2.2942
G01 X-32.4403 Y-2.2751
G01 X-32.4452 Y-2.2554
G01 X-32.4482 Y-2.2353
G01 X-32.4500 Y-2.1991
G01 X-32.6775 Y-2.2047
G01 X-32.6775 Y47.9247
G01 X-32.6749 Y47.9777
G01 X-32.6686 Y48.0199
G01 X-32.6583 Y48.0612
G01 X-32.6439 Y48.1014
G01 X-32.6257 Y48.1399
G01 X-32.6038 Y48.1765
G01 X-32.5784 Y48.2107
G01 X-32.5497 Y48.2423
G01 X-32.5181 Y48.2710
G01 X-32.4839 Y48.2964
G01 X-32.4473 Y48.3183
G01 X-32.4088 Y48.3365
G01 X-32.3686 Y48.3509
G01 X-32.3273 Y48.3612
G01 X-32.2851 Y48.3675
G01 X-32.2321 Y48.3701
G01 X2.2047 Y48.3701
G01 X2.2577 Y48.3675
G01 X2.2999 Y48.3612
G01 X2.3412 Y48.3509
G01 X2.3814 Y48.3365
G01 X2.4199 Y48.3183
G01 X2.4565 Y48.2964
G01 X2.4907 Y48.2710
G01 X2.5223 Y48.2423
G01 X2.5510 Y48.2107
G01 X2.5764 Y48.1765
G01 X2.5983 Y48.1399
G01 X2.6165 Y48.1014
G01 X2.6309 Y48.0612
G01 X2.6412 Y48.0199
G01 X2.6475 Y47.9777
G01 X2.6501 Y47.9247
G01 X2.6501 Y-2.2047
G01 X2.6475 Y-2.2577
G01 X2.6412 Y-2.2999
G01 X2.6309 Y-2.3412
G01 X2.6165 Y-2.3814
G01 X2.5983 Y-2.4199
G01 X2.5764 Y-2.4565
G01 X2.5510 Y-2.4907
G01 X2.5223 Y-2.5223
G01 X2.4907 Y-2.5510
G01 X2.4565 Y-2.5764
G01 X2.4199 Y-2.5983
G01 X2.3814 Y-2.6165
G01 X2.3412 Y-2.6309
G01 X2.2999 Y-2.6412
G01 X2.2577 Y-2.6475
G01 X2.2047 Y-2.6501
G01 X-32.2321 Y-2.6501
G01 X-32.2851 Y-2.6475
G01 X-32.3273 Y-2.6412
G01 X-32.3686 Y-2.6309
G01 X-32.4088 Y-2.6165
G01 X-32.4473 Y-2.5983
G01 X-32.4839 Y-2.5764
G01 X-32.5181 Y-2.5510
G01 X-32.5497 Y-2.5223
G01 X-32.5784 Y-2.4907
G01 X-32.6038 Y-2.4565
G01 X-32.6257 Y-2.4199
G01 X-32.6439 Y-2.3814
G01 X-32.6583 Y-2.3412
G01 X-32.6686 Y-2.2999
G01 X-32.6749 Y-2.2577
G01 X-32.6775 Y-2.2047
G00 Z1.0000
G00 X-25.3663 Y15.2170
G01 F20.00
G01 Z-1.0263
G01 F150.00
G01 X-25.3694 Y15.2483
G01 X-25.3785 Y15.2785
G01 X-25.3934 Y15.3063
G01 X-25.4134 Y15.3306
G01 X-25.4377 Y15.3506
G01 X-25.4655 Y15.3655
G01 X-25.4957 Y15.3746
G01 X-25.5192 Y15.3769
G01 X-25.5348 Y15.3769
G01 X-25.5583 Y15.3746
G01 X-25.5885 Y15.3655
G01 X-25.6163 Y15.3506
G01 X-25.6406 Y15.3306
G01 X-25.6606 Y15.3063
G01 X-25.6755 Y15.2785
G01 X-25.6846 Y15.2483
G01 X-25.6877 Y15.2170
G01 X-25.6846 Y15.1857
G01 X-25.6755 Y15.1555
G01 X-25.6606 Y15.1277
G01 X-25.6406 Y15.1034
G01 X-25.6163 Y15.0834
G01 X-25.5885 Y15.0685
G01 X-25.5583 Y15.0594
G01 X-25.5348 Y15.0571
G01 X-25.5192 Y15.0571
G01 X-25.4957 Y15.0594
G01 X-25.4655 Y15.0685
G01 X-25.4377 Y15.0834
G01 X-25.4134 Y15.1034
G01 X-25.3934 Y15.1277
G01 X-25.3785 Y15.1555
G01 X-25.3694 Y15.1857
G01 X-25.3663 Y15.2170
G01 X-25.1377 Y15.2170
G01 X-25.1452 Y15.2929
G01 X-25.1673 Y15.3660
G01 X-25.2033 Y15.4333
G01 X-25.2517 Y15.4923
G01 X-25.3107 Y15.5407
G01 X-25.3780 Y15.5767
G01 X-25.4511 Y15.5988
G01 X-25.5080 Y15.6044
G01 X-25.5460 Y15.6044
G01 X-25.6029 Y15.5988
G01 X-25.6760 Y15.5767
G01 X-25.7433 Y15.5407
G01 X-25.8023 Y15.4923
G01 X-25.8507 Y15.4333
G01 X-25.8867 Y15.3660
G01 X-25.9088 Y15.2929
G01 X-25.9163 Y15.2170
G01 X-25.9088 Y15.1411
G01 X-25.8867 Y15.0680
G01 X-25.8507 Y15.0007
G01 X-25.8023 Y14.9417
G01 X-25.7433 Y14.8933
G01 X-25.6760 Y14.8573
G01 X-25.6029 Y14.8352
G01 X-25.5460 Y14.8296
G01 X-25.5080 Y14.8296
G01 X-25.4511 Y14.8352
G01 X-25.3780 Y14.8573
G01 X-25.3107 Y14.8933
G01 X-25.2517 Y14.9417
G01 X-25.2033 Y15.0007
G01 X-25.1673 Y15.0680
G01 X-25.1452 Y15.1411
G01 X-25.1377 Y15.2170
G01 X-24.9091 Y15.2170
G01 X-24.9210 Y15.3375
