(G-CODE GENERATED BY FLATCAM v8.901 - www.flatcam.org - Version Date: 2019/01/09)

(Name: Clever_Light.drl_mill_cnc)
(Type: G-code from Geometry)
(Units: MM)

(Created on Суббота, 17 августа 2019 at 16:02)

(TOOL DIAMETER: 0.65 mm)
(Feedrate: 200.0 mm/min)
(Feedrate_Z: 30.0 mm/min)
(Feedrate rapids 100.0 mm/min)

(Z_Cut: -1.6 mm)
(DepthPerCut: 0.15 mm <=>11 passes)
(Z_Move: 1.0 mm)
(Z Toolchange: 30.0 mm)
(X,Y Toolchange: 0.0000, 0.0000 mm)
(Z Start: None mm)
(Z End: 20.0 mm)
(Steps per circle: 64)
(Postprocessor Geometry: default)
(Spindle Speed: None RPM)

G21
G90
G94

G01 F200.00
G00 Z1.0000

M03
G4 P1
G00 X0.7750 Y0.0000
G01 F30.00
G01 Z-0.1500
G01 F200.00
G01 X0.7713 Y-0.0760
G01 X0.7601 Y-0.1512
G01 X0.7416 Y-0.2250
G01 X0.7160 Y-0.2966
G01 X0.6835 Y-0.3653
G01 X0.6444 Y-0.4306
G01 X0.5991 Y-0.4917
G01 X0.5480 Y-0.5480
G01 X0.4917 Y-0.5991
G01 X0.4306 Y-0.6444
G01 X0.3653 Y-0.6835
G01 X0.2966 Y-0.7160
G01 X0.2250 Y-0.7416
G01 X0.1512 Y-0.7601
G01 X0.0760 Y-0.7713
G01 X0.0000 Y-0.7750
G01 X-0.0760 Y-0.7713
G01 X-0.1512 Y-0.7601
G01 X-0.2250 Y-0.7416
G01 X-0.2966 Y-0.7160
G01 X-0.3653 Y-0.6835
G01 X-0.4306 Y-0.6444
G01 X-0.4917 Y-0.5991
G01 X-0.5480 Y-0.5480
G01 X-0.5991 Y-0.4917
G01 X-0.6444 Y-0.4306
G01 X-0.6835 Y-0.3653
G01 X-0.7160 Y-0.2966
G01 X-0.7416 Y-0.2250
G01 X-0.7601 Y-0.1512
G01 X-0.7713 Y-0.0760
G01 X-0.7750 Y-0.0000
G01 X-0.7713 Y0.0760
G01 X-0.7601 Y0.1512
G01 X-0.7416 Y0.2250
G01 X-0.7160 Y0.2966
G01 X-0.6835 Y0.3653
G01 X-0.6444 Y0.4306
G01 X-0.5991 Y0.4917
G01 X-0.5480 Y0.5480
G01 X-0.4917 Y0.5991
G01 X-0.4306 Y0.6444
G01 X-0.3653 Y0.6835
G01 X-0.2966 Y0.7160
G01 X-0.2250 Y0.7416
G01 X-0.1512 Y0.7601
G01 X-0.0760 Y0.7713
G01 X-0.0000 Y0.7750
G01 X0.0760 Y0.7713
G01 X0.1512 Y0.7601
G01 X0.2250 Y0.7416
G01 X0.2966 Y0.7160
G01 X0.3653 Y0.6835
G01 X0.4306 Y0.6444
G01 X0.4917 Y0.5991
G01 X0.5480 Y0.5480
G01 X0.5991 Y0.4917
G01 X0.6444 Y0.4306
G01 X0.6835 Y0.3653
G01 X0.7160 Y0.2966
G01 X0.7416 Y0.2250
G01 X0.7601 Y0.1512
G01 X0.7713 Y0.0760
G01 X0.7750 Y0.0000
G00 X0.7750 Y0.0000
G01 F30.00
G01 Z-0.3000
G01 F200.00
G01 X0.7713 Y-0.0760
G01 X0.7601 Y-0.1512
G01 X0.7416 Y-0.2250
G01 X0.7160 Y-0.2966
G01 X0.6835 Y-0.3653
G01 X0.6444 Y-0.4306
G01 X0.5991 Y-0.4917
G01 X0.5480 Y-0.5480
G01 X0.4917 Y-0.5991
G01 X0.4306 Y-0.6444
G01 X0.3653 Y-0.6835
G01 X0.2966 Y-0.7160
G01 X0.2250 Y-0.7416
G01 X0.1512 Y-0.7601
G01 X0.0760 Y-0.7713
G01 X0.0000 Y-0.7750
G01 X-0.0760 Y-0.7713
G01 X-0.1512 Y-0.7601
G01 X-0.2250 Y-0.7416
G01 X-0.2966 Y-0.7160
G01 X-0.3653 Y-0.6835
G01 X-0.4306 Y-0.6444
G01 X-0.4917 Y-0.5991
G01 X-0.5480 Y-0.5480
G01 X-0.5991 Y-0.4917
G01 X-0.6444 Y-0.4306
G01 X-0.6835 Y-0.3653
G01 X-0.7160 Y-0.2966
G01 X-0.7416 Y-0.2250
G01 X-0.7601 Y-0.1512
G01 X-0.7713 Y-0.0760
G01 X-0.7750 Y-0.0000
G01 X-0.7713 Y0.0760
G01 X-0.7601 Y0.1512
G01 X-0.7416 Y0.2250
G01 X-0.7160 Y0.2966
G01 X-0.6835 Y0.3653
G01 X-0.6444 Y0.4306
G01 X-0.5991 Y0.4917
G01 X-0.5480 Y0.5480
G01 X-0.4917 Y0.5991
G01 X-0.4306 Y0.6444
G01 X-0.3653 Y0.6835
G01 X-0.2966 Y0.7160
G01 X-0.2250 Y0.7416
G01 X-0.1512 Y0.7601
G01 X-0.0760 Y0.7713
G01 X-0.0000 Y0.7750
G01 X0.0760 Y0.7713
G01 X0.1512 Y0.7601
G01 X0.2250 Y0.7416
G01 X0.2966 Y0.7160
G01 X0.3653 Y0.6835
G01 X0.4306 Y0.6444
G01 X0.4917 Y0.5991
G01 X0.5480 Y0.5480
G01 X0.5991 Y0.4917
G01 X0.6444 Y0.4306
G01 X0.6835 Y0.3653
G01 X0.7160 Y0.2966
G01 X0.7416 Y0.2250
G01 X0.7601 Y0.1512
G01 X0.7713 Y0.0760
G01 X0.7750 Y0.0000
G00 X0.7750 Y0.0000
G01 F30.00
G01 Z-0.4500
G01 F200.00
G01 X0.7713 Y-0.0760
G01 X0.7601 Y-0.1512
G01 X0.7416 Y-0.2250
G01 X0.7160 Y-0.2966
G01 X0.6835 Y-0.3653
G01 X0.6444 Y-0.4306
G01 X0.5991 Y-0.4917
G01 X0.5480 Y-0.5480
G01 X0.4917 Y-0.5991
G01 X0.4306 Y-0.6444
G01 X0.3653 Y-0.6835
G01 X0.2966 Y-0.7160
G01 X0.2250 Y-0.7416
G01 X0.1512 Y-0.7601
G01 X0.0760 Y-0.7713
G01 X0.0000 Y-0.7750
G01 X-0.0760 Y-0.7713
G01 X-0.1512 Y-0.7601
G01 X-0.2250 Y-0.7416
G01 X-0.2966 Y-0.7160
G01 X-0.3653 Y-0.6835
G01 X-0.4306 Y-0.6444
G01 X-0.4917 Y-0.5991
G01 X-0.5480 Y-0.5480
G01 X-0.5991 Y-0.4917
G01 X-0.6444 Y-0.4306
G01 X-0.6835 Y-0.3653
G01 X-0.7160 Y-0.2966
G01 X-0.7416 Y-0.2250
G01 X-0.7601 Y-0.1512
G01 X-0.7713 Y-0.0760
G01 X-0.7750 Y-0.0000
G01 X-0.7713 Y0.0760
G01 X-0.7601 Y0.1512
G01 X-0.7416 Y0.2250
G01 X-0.7160 Y0.2966
G01 X-0.6835 Y0.3653
G01 X-0.6444 Y0.4306
G01 X-0.5991 Y0.4917
G01 X-0.5480 Y0.5480
G01 X-0.4917 Y0.5991
G01 X-0.4306 Y0.6444
G01 X-0.3653 Y0.6835
G01 X-0.2966 Y0.7160
G01 X-0.2250 Y0.7416
G01 X-0.1512 Y0.7601
G01 X-0.0760 Y0.7713
G01 X-0.0000 Y0.7750
G01 X0.0760 Y0.7713
G01 X0.1512 Y0.7601
G01 X0.2250 Y0.7416
G01 X0.2966 Y0.7160
G01 X0.3653 Y0.6835
G01 X0.4306 Y0.6444
G01 X0.4917 Y0.5991
G01 X0.5480 Y0.5480
G01 X0.5991 Y0.4917
G01 X0.6444 Y0.4306
G01 X0.6835 Y0.3653
G01 X0.7160 Y0.2966
G01 X0.7416 Y0.2250
G01 X0.7601 Y0.1512
G01 X0.7713 Y0.0760
G01 X0.7750 Y0.0000
G00 X0.7750 Y0.0000
G01 F30.00
G01 Z-0.6000
G01 F200.00
G01 X0.7713 Y-0.0760
G01 X0.7601 Y-0.1512
G01 X0.7416 Y-0.2250
G01 X0.7160 Y-0.2966
G01 X0.6835 Y-0.3653
G01 X0.6444 Y-0.4306
G01 X0.5991 Y-0.4917
G01 X0.5480 Y-0.5480
G01 X0.4917 Y-0.5991
G01 X0.4306 Y-0.6444
G01 X0.3653 Y-0.6835
G01 X0.2966 Y-0.7160
G01 X0.2250 Y-0.7416
G01 X0.1512 Y-0.7601
G01 X0.0760 Y-0.7713
G01 X0.0000 Y-0.7750
G01 X-0.0760 Y-0.7713
G01 X-0.1512 Y-0.7601
G01 X-0.2250 Y-0.7416
G01 X-0.2966 Y-0.7160
G01 X-0.3653 Y-0.6835
G01 X-0.4306 Y-0.6444
G01 X-0.4917 Y-0.5991
G01 X-0.5480 Y-0.5480
G01 X-0.5991 Y-0.4917
G01 X-0.6444 Y-0.4306
G01 X-0.6835 Y-0.3653
G01 X-0.7160 Y-0.2966
G01 X-0.7416 Y-0.2250
G01 X-0.7601 Y-0.1512
G01 X-0.7713 Y-0.0760
G01 X-0.7750 Y-0.0000
G01 X-0.7713 Y0.0760
G01 X-0.7601 Y0.1512
G01 X-0.7416 Y0.2250
G01 X-0.7160 Y0.2966
G01 X-0.6835 Y0.3653
G01 X-0.6444 Y0.4306
G01 X-0.5991 Y0.4917
G01 X-0.5480 Y0.5480
G01 X-0.4917 Y0.5991
G01 X-0.4306 Y0.6444
G01 X-0.3653 Y0.6835
G01 X-0.2966 Y0.7160
G01 X-0.2250 Y0.7416
G01 X-0.1512 Y0.7601
G01 X-0.0760 Y0.7713
G01 X-0.0000 Y0.7750
G01 X0.0760 Y0.7713
G01 X0.1512 Y0.7601
G01 X0.2250 Y0.7416
G01 X0.2966 Y0.7160
G01 X0.3653 Y0.6835
G01 X0.4306 Y0.6444
G01 X0.4917 Y0.5991
G01 X0.5480 Y0.5480
G01 X0.5991 Y0.4917
G01 X0.6444 Y0.4306
G01 X0.6835 Y0.3653
G01 X0.7160 Y0.2966
G01 X0.7416 Y0.2250
G01 X0.7601 Y0.1512
G01 X0.7713 Y0.0760
G01 X0.7750 Y0.0000
G00 X0.7750 Y0.0000
G01 F30.00
G01 Z-0.7500
G01 F200.00
G01 X0.7713 Y-0.0760
G01 X0.7601 Y-0.1512
G01 X0.7416 Y-0.2250
G01 X0.7160 Y-0.2966
G01 X0.6835 Y-0.3653
G01 X0.6444 Y-0.4306
G01 X0.5991 Y-0.4917
G01 X0.5480 Y-0.5480
G01 X0.4917 Y-0.5991
G01 X0.4306 Y-0.6444
G01 X0.3653 Y-0.6835
G01 X0.2966 Y-0.7160
G01 X0.2250 Y-0.7416
G01 X0.1512 Y-0.7601
G01 X0.0760 Y-0.7713
G01 X0.0000 Y-0.7750
G01 X-0.0760 Y-0.7713
G01 X-0.1512 Y-0.7601
G01 X-0.2250 Y-0.7416
G01 X-0.2966 Y-0.7160
G01 X-0.3653 Y-0.6835
G01 X-0.4306 Y-0.6444
G01 X-0.4917 Y-0.5991
G01 X-0.5480 Y-0.5480
G01 X-0.5991 Y-0.4917
G01 X-0.6444 Y-0.4306
G01 X-0.6835 Y-0.3653
G01 X-0.7160 Y-0.2966
G01 X-0.7416 Y-0.2250
G01 X-0.7601 Y-0.1512
G01 X-0.7713 Y-0.0760
G01 X-0.7750 Y-0.0000
G01 X-0.7713 Y0.0760
G01 X-0.7601 Y0.1512
G01 X-0.7416 Y0.2250
G01 X-0.7160 Y0.2966
G01 X-0.6835 Y0.3653
G01 X-0.6444 Y0.4306
G01 X-0.5991 Y0.4917
G01 X-0.5480 Y0.5480
G01 X-0.4917 Y0.5991
G01 X-0.4306 Y0.6444
G01 X-0.3653 Y0.6835
G01 X-0.2966 Y0.7160
G01 X-0.2250 Y0.7416
G01 X-0.1512 Y0.7601
G01 X-0.0760 Y0.7713
G01 X-0.0000 Y0.7750
G01 X0.0760 Y0.7713
G01 X0.1512 Y0.7601
G01 X0.2250 Y0.7416
G01 X0.2966 Y0.7160
G01 X0.3653 Y0.6835
G01 X0.4306 Y0.6444
G01 X0.4917 Y0.5991
G01 X0.5480 Y0.5480
G01 X0.5991 Y0.4917
G01 X0.6444 Y0.4306
G01 X0.6835 Y0.3653
G01 X0.7160 Y0.2966
G01 X0.7416 Y0.2250
G01 X0.7601 Y0.1512
G01 X0.7713 Y0.0760
G01 X0.7750 Y0.0000
G00 X0.7750 Y0.0000
G01 F30.00
G01 Z-0.9000
G01 F200.00
G01 X0.7713 Y-0.0760
G01 X0.7601 Y-0.1512
G01 X0.7416 Y-0.2250
G01 X0.7160 Y-0.2966
G01 X0.6835 Y-0.3653
G01 X0.6444 Y-0.4306
G01 X0.5991 Y-0.4917
G01 X0.5480 Y-0.5480
G01 X0.4917 Y-0.5991
G01 X0.4306 Y-0.6444
G01 X0.3653 Y-0.6835
G01 X0.2966 Y-0.7160
G01 X0.2250 Y-0.7416
G01 X0.1512 Y-0.7601
G01 X0.0760 Y-0.7713
G01 X0.0000 Y-0.7750
G01 X-0.0760 Y-0.7713
G01 X-0.1512 Y-0.7601
G01 X-0.2250 Y-0.7416
G01 X-0.2966 Y-0.7160
G01 X-0.3653 Y-0.6835
G01 X-0.4306 Y-0.6444
G01 X-0.4917 Y-0.5991
G01 X-0.5480 Y-0.5480
G01 X-0.5991 Y-0.4917
G01 X-0.6444 Y-0.4306
G01 X-0.6835 Y-0.3653
G01 X-0.7160 Y-0.2966
G01 X-0.7416 Y-0.2250
G01 X-0.7601 Y-0.1512
G01 X-0.7713 Y-0.0760
G01 X-0.7750 Y-0.0000
G01 X-0.7713 Y0.0760
G01 X-0.7601 Y0.1512
G01 X-0.7416 Y0.2250
G01 X-0.7160 Y0.2966
G01 X-0.6835 Y0.3653
G01 X-0.6444 Y0.4306
G01 X-0.5991 Y0.4917
G01 X-0.5480 Y0.5480
G01 X-0.4917 Y0.5991
G01 X-0.4306 Y0.6444
G01 X-0.3653 Y0.6835
G01 X-0.2966 Y0.7160
G01 X-0.2250 Y0.7416
G01 X-0.1512 Y0.7601
G01 X-0.0760 Y0.7713
G01 X-0.0000 Y0.7750
G01 X0.0760 Y0.7713
G01 X0.1512 Y0.7601
G01 X0.2250 Y0.7416
G01 X0.2966 Y0.7160
G01 X0.3653 Y0.6835
G01 X0.4306 Y0.6444
G01 X0.4917 Y0.5991
G01 X0.5480 Y0.5480
G01 X0.5991 Y0.4917
G01 X0.6444 Y0.4306
G01 X0.6835 Y0.3653
G01 X0.7160 Y0.2966
G01 X0.7416 Y0.2250
G01 X0.7601 Y0.1512
G01 X0.7713 Y0.0760
G01 X0.7750 Y0.0000
G00 X0.7750 Y0.0000
G01 F30.00
G01 Z-1.0500
G01 F200.00
G01 X0.7713 Y-0.0760
G01 X0.7601 Y-0.1512
G01 X0.7416 Y-0.2250
G01 X0.7160 Y-0.2966
G01 X0.6835 Y-0.3653
G01 X0.6444 Y-0.4306
G01 X0.5991 Y-0.4917
G01 X0.5480 Y-0.5480
G01 X0.4917 Y-0.5991
G01 X0.4306 Y-0.6444
G01 X0.3653 Y-0.6835
G01 X0.2966 Y-0.7160
G01 X0.2250 Y-0.7416
G01 X0.1512 Y-0.7601
G01 X0.0760 Y-0.7713
G01 X0.0000 Y-0.7750
G01 X-0.0760 Y-0.7713
G01 X-0.1512 Y-0.7601
G01 X-0.2250 Y-0.7416
G01 X-0.2966 Y-0.7160
G01 X-0.3653 Y-0.6835
G01 X-0.4306 Y-0.6444
G01 X-0.4917 Y-0.5991
G01 X-0.5480 Y-0.5480
G01 X-0.5991 Y-0.4917
G01 X-0.6444 Y-0.4306
G01 X-0.6835 Y-0.3653
G01 X-0.7160 Y-0.2966
G01 X-0.7416 Y-0.2250
G01 X-0.7601 Y-0.1512
G01 X-0.7713 Y-0.0760
G01 X-0.7750 Y-0.0000
G01 X-0.7713 Y0.0760
G01 X-0.7601 Y0.1512
G01 X-0.7416 Y0.2250
G01 X-0.7160 Y0.2966
G01 X-0.6835 Y0.3653
G01 X-0.6444 Y0.4306
G01 X-0.5991 Y0.4917
G01 X-0.5480 Y0.5480
G01 X-0.4917 Y0.5991
G01 X-0.4306 Y0.6444
G01 X-0.3653 Y0.6835
G01 X-0.2966 Y0.7160
G01 X-0.2250 Y0.7416
G01 X-0.1512 Y0.7601
G01 X-0.0760 Y0.7713
G01 X-0.0000 Y0.7750
G01 X0.0760 Y0.7713
G01 X0.1512 Y0.7601
G01 X0.2250 Y0.7416
G01 X0.2966 Y0.7160
G01 X0.3653 Y0.6835
G01 X0.4306 Y0.6444
G01 X0.4917 Y0.5991
G01 X0.5480 Y0.5480
G01 X0.5991 Y0.4917
G01 X0.6444 Y0.4306
G01 X0.6835 Y0.3653
G01 X0.7160 Y0.2966
G01 X0.7416 Y0.2250
G01 X0.7601 Y0.1512
G01 X0.7713 Y0.0760
G01 X0.7750 Y0.0000
G00 X0.7750 Y0.0000
G01 F30.00
G01 Z-1.2000
G01 F200.00
G01 X0.7713 Y-0.0760
G01 X0.7601 Y-0.1512
G01 X0.7416 Y-0.2250
G01 X0.7160 Y-0.2966
G01 X0.6835 Y-0.3653
G01 X0.6444 Y-0.4306
G01 X0.5991 Y-0.4917
G01 X0.5480 Y-0.5480
G01 X0.4917 Y-0.5991
G01 X0.4306 Y-0.6444
G01 X0.3653 Y-0.6835
G01 X0.2966 Y-0.7160
G01 X0.2250 Y-0.7416
G01 X0.1512 Y-0.7601
G01 X0.0760 Y-0.7713
G01 X0.0000 Y-0.7750
G01 X-0.0760 Y-0.7713
G01 X-0.1512 Y-0.7601
G01 X-0.2250 Y-0.7416
G01 X-0.2966 Y-0.7160
G01 X-0.3653 Y-0.6835
G01 X-0.4306 Y-0.6444
G01 X-0.4917 Y-0.5991
G01 X-0.5480 Y-0.5480
G01 X-0.5991 Y-0.4917
G01 X-0.6444 Y-0.4306
G01 X-0.6835 Y-0.3653
G01 X-0.7160 Y-0.2966
G01 X-0.7416 Y-0.2250
G01 X-0.7601 Y-0.1512
G01 X-0.7713 Y-0.0760
G01 X-0.7750 Y-0.0000
G01 X-0.7713 Y0.0760
G01 X-0.7601 Y0.1512
G01 X-0.7416 Y0.2250
G01 X-0.7160 Y0.2966
G01 X-0.6835 Y0.3653
G01 X-0.6444 Y0.4306
G01 X-0.5991 Y0.4917
G01 X-0.5480 Y0.5480
G01 X-0.4917 Y0.5991
G01 X-0.4306 Y0.6444
G01 X-0.3653 Y0.6835
G01 X-0.2966 Y0.7160
G01 X-0.2250 Y0.7416
G01 X-0.1512 Y0.7601
G01 X-0.0760 Y0.7713
G01 X-0.0000 Y0.7750
G01 X0.0760 Y0.7713
G01 X0.1512 Y0.7601
G01 X0.2250 Y0.7416
G01 X0.2966 Y0.7160
G01 X0.3653 Y0.6835
G01 X0.4306 Y0.6444
G01 X0.4917 Y0.5991
G01 X0.5480 Y0.5480
G01 X0.5991 Y0.4917
G01 X0.6444 Y0.4306
G01 X0.6835 Y0.3653
G01 X0.7160 Y0.2966
G01 X0.7416 Y0.2250
G01 X0.7601 Y0.1512
G01 X0.7713 Y0.0760
G01 X0.7750 Y0.0000
G00 X0.7750 Y0.0000
G01 F30.00
G01 Z-1.3500
G01 F200.00
G01 X0.7713 Y-0.0760
G01 X0.7601 Y-0.1512
G01 X0.7416 Y-0.2250
G01 X0.7160 Y-0.2966
G01 X0.6835 Y-0.3653
G01 X0.6444 Y-0.4306
G01 X0.5991 Y-0.4917
G01 X0.5480 Y-0.5480
G01 X0.4917 Y-0.5991
G01 X0.4306 Y-0.6444
G01 X0.3653 Y-0.6835
G01 X0.2966 Y-0.7160
G01 X0.2250 Y-0.7416
G01 X0.1512 Y-0.7601
G01 X0.0760 Y-0.7713
G01 X0.0000 Y-0.7750
G01 X-0.0760 Y-0.7713
G01 X-0.1512 Y-0.7601
G01 X-0.2250 Y-0.7416
G01 X-0.2966 Y-0.7160
G01 X-0.3653 Y-0.6835
G01 X-0.4306 Y-0.6444
G01 X-0.4917 Y-0.5991
G01 X-0.5480 Y-0.5480
G01 X-0.5991 Y-0.4917
G01 X-0.6444 Y-0.4306
G01 X-0.6835 Y-0.3653
G01 X-0.7160 Y-0.2966
G01 X-0.7416 Y-0.2250
G01 X-0.7601 Y-0.1512
G01 X-0.7713 Y-0.0760
G01 X-0.7750 Y-0.0000
G01 X-0.7713 Y0.0760
G01 X-0.7601 Y0.1512
G01 X-0.7416 Y0.2250
G01 X-0.7160 Y0.2966
G01 X-0.6835 Y0.3653
G01 X-0.6444 Y0.4306
G01 X-0.5991 Y0.4917
G01 X-0.5480 Y0.5480
G01 X-0.4917 Y0.5991
G01 X-0.4306 Y0.6444
G01 X-0.3653 Y0.6835
G01 X-0.2966 Y0.7160
G01 X-0.2250 Y0.7416
G01 X-0.1512 Y0.7601
G01 X-0.0760 Y0.7713
G01 X-0.0000 Y0.7750
G01 X0.0760 Y0.7713
G01 X0.1512 Y0.7601
G01 X0.2250 Y0.7416
G01 X0.2966 Y0.7160
G01 X0.3653 Y0.6835
G01 X0.4306 Y0.6444
G01 X0.4917 Y0.5991
G01 X0.5480 Y0.5480
G01 X0.5991 Y0.4917
G01 X0.6444 Y0.4306
G01 X0.6835 Y0.3653
G01 X0.7160 Y0.2966
G01 X0.7416 Y0.2250
G01 X0.7601 Y0.1512
G01 X0.7713 Y0.0760
G01 X0.7750 Y0.0000
G00 X0.7750 Y0.0000
G01 F30.00
G01 Z-1.5000
G01 F200.00
G01 X0.7713 Y-0.0760
G01 X0.7601 Y-0.1512
G01 X0.7416 Y-0.2250
G01 X0.7160 Y-0.2966
G01 X0.6835 Y-0.3653
G01 X0.6444 Y-0.4306
G01 X0.5991 Y-0.4917
G01 X0.5480 Y-0.5480
G01 X0.4917 Y-0.5991
G01 X0.4306 Y-0.6444
G01 X0.3653 Y-0.6835
G01 X0.2966 Y-0.7160
G01 X0.2250 Y-0.7416
G01 X0.1512 Y-0.7601
G01 X0.0760 Y-0.7713
G01 X0.0000 Y-0.7750
G01 X-0.0760 Y-0.7713
G01 X-0.1512 Y-0.7601
G01 X-0.2250 Y-0.7416
G01 X-0.2966 Y-0.7160
G01 X-0.3653 Y-0.6835
G01 X-0.4306 Y-0.6444
G01 X-0.4917 Y-0.5991
G01 X-0.5480 Y-0.5480
G01 X-0.5991 Y-0.4917
G01 X-0.6444 Y-0.4306
G01 X-0.6835 Y-0.3653
G01 X-0.7160 Y-0.2966
G01 X-0.7416 Y-0.2250
G01 X-0.7601 Y-0.1512
G01 X-0.7713 Y-0.0760
G01 X-0.7750 Y-0.0000
G01 X-0.7713 Y0.0760
G01 X-0.7601 Y0.1512
G01 X-0.7416 Y0.2250
G01 X-0.7160 Y0.2966
G01 X-0.6835 Y0.3653
G01 X-0.6444 Y0.4306
G01 X-0.5991 Y0.4917
G01 X-0.5480 Y0.5480
G01 X-0.4917 Y0.5991
G01 X-0.4306 Y0.6444
G01 X-0.3653 Y0.6835
G01 X-0.2966 Y0.7160
G01 X-0.2250 Y0.7416
G01 X-0.1512 Y0.7601
G01 X-0.0760 Y0.7713
G01 X-0.0000 Y0.7750
G01 X0.0760 Y0.7713
G01 X0.1512 Y0.7601
G01 X0.2250 Y0.7416
G01 X0.2966 Y0.7160
G01 X0.3653 Y0.6835
G01 X0.4306 Y0.6444
G01 X0.4917 Y0.5991
G01 X0.5480 Y0.5480
G01 X0.5991 Y0.4917
G01 X0.6444 Y0.4306
G01 X0.6835 Y0.3653
G01 X0.7160 Y0.2966
G01 X0.7416 Y0.2250
G01 X0.7601 Y0.1512
G01 X0.7713 Y0.0760
G01 X0.7750 Y0.0000
G00 X0.7750 Y0.0000
G01 F30.00
G01 Z-1.6000
G01 F200.00
G01 X0.7713 Y-0.0760
G01 X0.7601 Y-0.1512
G01 X0.7416 Y-0.2250
G01 X0.7160 Y-0.2966
G01 X0.6835 Y-0.3653
G01 X0.6444 Y-0.4306
G01 X0.5991 Y-0.4917
G01 X0.5480 Y-0.5480
G01 X0.4917 Y-0.5991
G01 X0.4306 Y-0.6444
G01 X0.3653 Y-0.6835
G01 X0.2966 Y-0.7160
G01 X0.2250 Y-0.7416
G01 X0.1512 Y-0.7601
G01 X0.0760 Y-0.7713
G01 X0.0000 Y-0.7750
G01 X-0.0760 Y-0.7713
G01 X-0.1512 Y-0.7601
G01 X-0.2250 Y-0.7416
G01 X-0.2966 Y-0.7160
G01 X-0.3653 Y-0.6835
G01 X-0.4306 Y-0.6444
G01 X-0.4917 Y-0.5991
G01 X-0.5480 Y-0.5480
G01 X-0.5991 Y-0.4917
G01 X-0.6444 Y-0.4306
G01 X-0.6835 Y-0.3653
G01 X-0.7160 Y-0.2966
G01 X-0.7416 Y-0.2250
G01 X-0.7601 Y-0.1512
G01 X-0.7713 Y-0.0760
G01 X-0.7750 Y-0.0000
G01 X-0.7713 Y0.0760
G01 X-0.7601 Y0.1512
G01 X-0.7416 Y0.2250
G01 X-0.7160 Y0.2966
G01 X-0.6835 Y0.3653
G01 X-0.6444 Y0.4306
G01 X-0.5991 Y0.4917
G01 X-0.5480 Y0.5480
G01 X-0.4917 Y0.5991
G01 X-0.4306 Y0.6444
G01 X-0.3653 Y0.6835
G01 X-0.2966 Y0.7160
G01 X-0.2250 Y0.7416
G01 X-0.1512 Y0.7601
G01 X-0.0760 Y0.7713
G01 X-0.0000 Y0.7750
G01 X0.0760 Y0.7713
G01 X0.1512 Y0.7601
G01 X0.2250 Y0.7416
G01 X0.2966 Y0.7160
G01 X0.3653 Y0.6835
G01 X0.4306 Y0.6444
G01 X0.4917 Y0.5991
G01 X0.5480 Y0.5480
G01 X0.5991 Y0.4917
G01 X0.6444 Y0.4306
G01 X0.6835 Y0.3653
G01 X0.7160 Y0.2966
G01 X0.7416 Y0.2250
G01 X0.7601 Y0.1512
G01 X0.7713 Y0.0760
G01 X0.7750 Y0.0000
G00 Z1.0000
G00 X-24.1020 Y15.2170
G01 F30.00
G01 Z-0.1500
G01 F200.00
G01 X-24.1089 Y15.0773
G01 X-24.1294 Y14.9390
G01 X-24.1634 Y14.8033
G01 X-24.2105 Y14.6717
G01 X-24.2703 Y14.5453
G01 X-24.3422 Y14.4253
G01 X-24.4255 Y14.3130
G01 X-24.5194 Y14.2094
G01 X-24.6230 Y14.1155
G01 X-24.7353 Y14.0322
G01 X-24.8553 Y13.9603
G01 X-24.9817 Y13.9005
G01 X-25.1133 Y13.8534
G01 X-25.2490 Y13.8194
G01 X-25.3873 Y13.7989
G01 X-25.5270 Y13.7920
G01 X-25.6667 Y13.7989
G01 X-25.8050 Y13.8194
G01 X-25.9407 Y13.8534
G01 X-26.0723 Y13.9005
G01 X-26.1987 Y13.9603
G01 X-26.3187 Y14.0322
G01 X-26.4310 Y14.1155
G01 X-26.5346 Y14.2094
G01 X-26.6285 Y14.3130
G01 X-26.7118 Y14.4253
G01 X-26.7837 Y14.5453
G01 X-26.8435 Y14.6717
G01 X-26.8906 Y14.8033
G01 X-26.9246 Y14.9390
G01 X-26.9451 Y15.0773
G01 X-26.9520 Y15.2170
G01 X-26.9451 Y15.3567
G01 X-26.9246 Y15.4950
G01 X-26.8906 Y15.6307
G01 X-26.8435 Y15.7623
G01 X-26.7837 Y15.8887
G01 X-26.7118 Y16.0087
G01 X-26.6285 Y16.1210
G01 X-26.5346 Y16.2246
G01 X-26.4310 Y16.3185
G01 X-26.3187 Y16.4018
G01 X-26.1987 Y16.4737
G01 X-26.0723 Y16.5335
G01 X-25.9407 Y16.5806
G01 X-25.8050 Y16.6146
G01 X-25.6667 Y16.6351
G01 X-25.5270 Y16.6420
G01 X-25.3873 Y16.6351
G01 X-25.2490 Y16.6146
G01 X-25.1133 Y16.5806
G01 X-24.9817 Y16.5335
G01 X-24.8553 Y16.4737
G01 X-24.7353 Y16.4018
G01 X-24.6230 Y16.3185
G01 X-24.5194 Y16.2246
G01 X-24.4255 Y16.1210
G01 X-24.3422 Y16.0087
G01 X-24.2703 Y15.8887
G01 X-24.2105 Y15.7623
G01 X-24.1634 Y15.6307
G01 X-24.1294 Y15.4950
G01 X-24.1089 Y15.3567
G01 X-24.1020 Y15.2170
G00 X-24.1020 Y15.2170
G01 F30.00
G01 Z-0.3000
G01 F200.00
G01 X-24.1089 Y15.0773
G01 X-24.1294 Y14.9390
G01 X-24.1634 Y14.8033
G01 X-24.2105 Y14.6717
G01 X-24.2703 Y14.5453
G01 X-24.3422 Y14.4253
G01 X-24.4255 Y14.3130
G01 X-24.5194 Y14.2094
G01 X-24.6230 Y14.1155
G01 X-24.7353 Y14.0322
G01 X-24.8553 Y13.9603
G01 X-24.9817 Y13.9005
G01 X-25.1133 Y13.8534
G01 X-25.2490 Y13.8194
G01 X-25.3873 Y13.7989
G01 X-25.5270 Y13.7920
G01 X-25.6667 Y13.7989
G01 X-25.8050 Y13.8194
G01 X-25.9407 Y13.8534
G01 X-26.0723 Y13.9005
G01 X-26.1987 Y13.9603
G01 X-26.3187 Y14.0322
G01 X-26.4310 Y14.1155
G01 X-26.5346 Y14.2094
G01 X-26.6285 Y14.3130
G01 X-26.7118 Y14.4253
G01 X-26.7837 Y14.5453
G01 X-26.8435 Y14.6717
G01 X-26.8906 Y14.8033
G01 X-26.9246 Y14.9390
G01 X-26.9451 Y15.0773
G01 X-26.9520 Y15.2170
G01 X-26.9451 Y15.3567
G01 X-26.9246 Y15.4950
G01 X-26.8906 Y15.6307
G01 X-26.8435 Y15.7623
G01 X-26.7837 Y15.8887
G01 X-26.7118 Y16.0087
G01 X-26.6285 Y16.1210
G01 X-26.5346 Y16.2246
G01 X-26.4310 Y16.3185
G01 X-26.3187 Y16.4018
G01 X-26.1987 Y16.4737
G01 X-26.0723 Y16.5335
G01 X-25.9407 Y16.5806
G01 X-25.8050 Y16.6146
G01 X-25.6667 Y16.6351
G01 X-25.5270 Y16.6420
G01 X-25.3873 Y16.6351
G01 X-25.2490 Y16.6146
G01 X-25.1133 Y16.5806
G01 X-24.9817 Y16.5335
G01 X-24.8553 Y16.4737
G01 X-24.7353 Y16.4018
G01 X-24.6230 Y16.3185
G01 X-24.5194 Y16.2246
G01 X-24.4255 Y16.1210
G01 X-24.3422 Y16.0087
G01 X-24.2703 Y15.8887
G01 X-24.2105 Y15.7623
G01 X-24.1634 Y15.6307
G01 X-24.1294 Y15.4950
G01 X-24.1089 Y15.3567
G01 X-24.1020 Y15.2170
G00 X-24.1020 Y15.2170
G01 F30.00
G01 Z-0.4500
G01 F200.00
G01 X-24.1089 Y15.0773
G01 X-24.1294 Y14.9390
G01 X-24.1634 Y14.8033
G01 X-24.2105 Y14.6717
G01 X-24.2703 Y14.5453
G01 X-24.3422 Y14.4253
G01 X-24.4255 Y14.3130
G01 X-24.5194 Y14.2094
G01 X-24.6230 Y14.1155
G01 X-24.7353 Y14.0322
G01 X-24.8553 Y13.9603
G01 X-24.9817 Y13.9005
G01 X-25.1133 Y13.8534
G01 X-25.2490 Y13.8194
G01 X-25.3873 Y13.7989
G01 X-25.5270 Y13.7920
G01 X-25.6667 Y13.7989
G01 X-25.8050 Y13.8194
G01 X-25.9407 Y13.8534
G01 X-26.0723 Y13.9005
G01 X-26.1987 Y13.9603
G01 X-26.3187 Y14.0322
G01 X-26.4310 Y14.1155
G01 X-26.5346 Y14.2094
G01 X-26.6285 Y14.3130
G01 X-26.7118 Y14.4253
G01 X-26.7837 Y14.5453
G01 X-26.8435 Y14.6717
G01 X-26.8906 Y14.8033
G01 X-26.9246 Y14.9390
G01 X-26.9451 Y15.0773
G01 X-26.9520 Y15.2170
G01 X-26.9451 Y15.3567
G01 X-26.9246 Y15.4950
G01 X-26.8906 Y15.6307
G01 X-26.8435 Y15.7623
G01 X-26.7837 Y15.8887
G01 X-26.7118 Y16.0087
G01 X-26.6285 Y16.1210
G01 X-26.5346 Y16.2246
G01 X-26.4310 Y16.3185
G01 X-26.3187 Y16.4018
G01 X-26.1987 Y16.4737
G01 X-26.0723 Y16.5335
G01 X-25.9407 Y16.5806
G01 X-25.8050 Y16.6146
G01 X-25.6667 Y16.6351
G01 X-25.5270 Y16.6420
G01 X-25.3873 Y16.6351
G01 X-25.2490 Y16.6146
G01 X-25.1133 Y16.5806
G01 X-24.9817 Y16.5335
G01 X-24.8553 Y16.4737
G01 X-24.7353 Y16.4018
G01 X-24.6230 Y16.3185
G01 X-24.5194 Y16.2246
G01 X-24.4255 Y16.1210
G01 X-24.3422 Y16.0087
G01 X-24.2703 Y15.8887
G01 X-24.2105 Y15.7623
G01 X-24.1634 Y15.6307
G01 X-24.1294 Y15.4950
G01 X-24.1089 Y15.3567
G01 X-24.1020 Y15.2170
G00 X-24.1020 Y15.2170
G01 F30.00
G01 Z-0.6000
G01 F200.00
G01 X-24.1089 Y15.0773
G01 X-24.1294 Y14.9390
G01 X-24.1634 Y14.8033
G01 X-24.2105 Y14.6717
G01 X-24.2703 Y14.5453
G01 X-24.3422 Y14.4253
G01 X-24.4255 Y14.3130
G01 X-24.5194 Y14.2094
G01 X-24.6230 Y14.1155
G01 X-24.7353 Y14.0322
G01 X-24.8553 Y13.9603
G01 X-24.9817 Y13.9005
G01 X-25.1133 Y13.8534
G01 X-25.2490 Y13.8194
G01 X-25.3873 Y13.7989
G01 X-25.5270 Y13.7920
G01 X-25.6667 Y13.7989
G01 X-25.8050 Y13.8194
G01 X-25.9407 Y13.8534
G01 X-26.0723 Y13.9005
G01 X-26.1987 Y13.9603
G01 X-26.3187 Y14.0322
G01 X-26.4310 Y14.1155
G01 X-26.5346 Y14.2094
G01 X-26.6285 Y14.3130
G01 X-26.7118 Y14.4253
G01 X-26.7837 Y14.5453
G01 X-26.8435 Y14.6717
G01 X-26.8906 Y14.8033
G01 X-26.9246 Y14.9390
G01 X-26.9451 Y15.0773
G01 X-26.9520 Y15.2170
G01 X-26.9451 Y15.3567
G01 X-26.9246 Y15.4950
G01 X-26.8906 Y15.6307
G01 X-26.8435 Y15.7623
G01 X-26.7837 Y15.8887
G01 X-26.7118 Y16.0087
G01 X-26.6285 Y16.1210
G01 X-26.5346 Y16.2246
G01 X-26.4310 Y16.3185
G01 X-26.3187 Y16.4018
G01 X-26.1987 Y16.4737
G01 X-26.0723 Y16.5335
G01 X-25.9407 Y16.5806
G01 X-25.8050 Y16.6146
G01 X-25.6667 Y16.6351
G01 X-25.5270 Y16.6420
G01 X-25.3873 Y16.6351
G01 X-25.2490 Y16.6146
G01 X-25.1133 Y16.5806
G01 X-24.9817 Y16.5335
G01 X-24.8553 Y16.4737
G01 X-24.7353 Y16.4018
G01 X-24.6230 Y16.3185
G01 X-24.5194 Y16.2246
G01 X-24.4255 Y16.1210
G01 X-24.3422 Y16.0087
G01 X-24.2703 Y15.8887
G01 X-24.2105 Y15.7623
G01 X-24.1634 Y15.6307
G01 X-24.1294 Y15.4950
G01 X-24.1089 Y15.3567
G01 X-24.1020 Y15.2170
G00 X-24.1020 Y15.2170
G01 F30.00
G01 Z-0.7500
G01 F200.00
G01 X-24.1089 Y15.0773
G01 X-24.1294 Y14.9390
G01 X-24.1634 Y14.8033
G01 X-24.2105 Y14.6717
G01 X-24.2703 Y14.5453
G01 X-24.3422 Y14.4253
G01 X-24.4255 Y14.3130
G01 X-24.5194 Y14.2094
G01 X-24.6230 Y14.1155
G01 X-24.7353 Y14.0322
G01 X-24.8553 Y13.9603
G01 X-24.9817 Y13.9005
G01 X-25.1133 Y13.8534
G01 X-25.2490 Y13.8194
G01 X-25.3873 Y13.7989
G01 X-25.5270 Y13.7920
G01 X-25.6667 Y13.7989
G01 X-25.8050 Y13.8194
G01 X-25.9407 Y13.8534
G01 X-26.0723 Y13.9005
G01 X-26.1987 Y13.9603
G01 X-26.3187 Y14.0322
G01 X-26.4310 Y14.1155
G01 X-26.5346 Y14.2094
G01 X-26.6285 Y14.3130
G01 X-26.7118 Y14.4253
G01 X-26.7837 Y14.5453
G01 X-26.8435 Y14.6717
G01 X-26.8906 Y14.8033
G01 X-26.9246 Y14.9390
G01 X-26.9451 Y15.0773
G01 X-26.9520 Y15.2170
G01 X-26.9451 Y15.3567
G01 X-26.9246 Y15.4950
G01 X-26.8906 Y15.6307
G01 X-26.8435 Y15.7623
G01 X-26.7837 Y15.8887
G01 X-26.7118 Y16.0087
G01 X-26.6285 Y16.1210
G01 X-26.5346 Y16.2246
G01 X-26.4310 Y16.3185
G01 X-26.3187 Y16.4018
G01 X-26.1987 Y16.4737
G01 X-26.0723 Y16.5335
G01 X-25.9407 Y16.5806
G01 X-25.8050 Y16.6146
G01 X-25.6667 Y16.6351
G01 X-25.5270 Y16.6420
G01 X-25.3873 Y16.6351
G01 X-25.2490 Y16.6146
G01 X-25.1133 Y16.5806
G01 X-24.9817 Y16.5335
G01 X-24.8553 Y16.4737
G01 X-24.7353 Y16.4018
G01 X-24.6230 Y16.3185
G01 X-24.5194 Y16.2246
G01 X-24.4255 Y16.1210
G01 X-24.3422 Y16.0087
G01 X-24.2703 Y15.8887
G01 X-24.2105 Y15.7623
G01 X-24.1634 Y15.6307
G01 X-24.1294 Y15.4950
G01 X-24.1089 Y15.3567
G01 X-24.1020 Y15.2170
G00 X-24.1020 Y15.2170
G01 F30.00
G01 Z-0.9000
G01 F200.00
G01 X-24.1089 Y15.0773
G01 X-24.1294 Y14.9390
G01 X-24.1634 Y14.8033
G01 X-24.2105 Y14.6717
G01 X-24.2703 Y14.5453
G01 X-24.3422 Y14.4253
G01 X-24.4255 Y14.3130
G01 X-24.5194 Y14.2094
G01 X-24.6230 Y14.1155
G01 X-24.7353 Y14.0322
G01 X-24.8553 Y13.9603
G01 X-24.9817 Y13.9005
G01 X-25.1133 Y13.8534
G01 X-25.2490 Y13.8194
G01 X-25.3873 Y13.7989
G01 X-25.5270 Y13.7920
G01 X-25.6667 Y13.7989
G01 X-25.8050 Y13.8194
G01 X-25.9407 Y13.8534
G01 X-26.0723 Y13.9005
G01 X-26.1987 Y13.9603
G01 X-26.3187 Y14.0322
G01 X-26.4310 Y14.1155
G01 X-26.5346 Y14.2094
G01 X-26.6285 Y14.3130
G01 X-26.7118 Y14.4253
G01 X-26.7837 Y14.5453
G01 X-26.8435 Y14.6717
G01 X-26.8906 Y14.8033
G01 X-26.9246 Y14.9390
G01 X-26.9451 Y15.0773
G01 X-26.9520 Y15.2170
G01 X-26.9451 Y15.3567
G01 X-26.9246 Y15.4950
G01 X-26.8906 Y15.6307
G01 X-26.8435 Y15.7623
G01 X-26.7837 Y15.8887
G01 X-26.7118 Y16.0087
G01 X-26.6285 Y16.1210
G01 X-26.5346 Y16.2246
G01 X-26.4310 Y16.3185
G01 X-26.3187 Y16.4018
G01 X-26.1987 Y16.4737
G01 X-26.0723 Y16.5335
G01 X-25.9407 Y16.5806
G01 X-25.8050 Y16.6146
G01 X-25.6667 Y16.6351
G01 X-25.5270 Y16.6420
G01 X-25.3873 Y16.6351
G01 X-25.2490 Y16.6146
G01 X-25.1133 Y16.5806
G01 X-24.9817 Y16.5335
G01 X-24.8553 Y16.4737
G01 X-24.7353 Y16.4018
G01 X-24.6230 Y16.3185
G01 X-24.5194 Y16.2246
G01 X-24.4255 Y16.1210
G01 X-24.3422 Y16.0087
G01 X-24.2703 Y15.8887
G01 X-24.2105 Y15.7623
G01 X-24.1634 Y15.6307
G01 X-24.1294 Y15.4950
G01 X-24.1089 Y15.3567
G01 X-24.1020 Y15.2170
G00 X-24.1020 Y15.2170
G01 F30.00
G01 Z-1.0500
G01 F200.00
G01 X-24.1089 Y15.0773
G01 X-24.1294 Y14.9390
G01 X-24.1634 Y14.8033
G01 X-24.2105 Y14.6717
G01 X-24.2703 Y14.5453
G01 X-24.3422 Y14.4253
G01 X-24.4255 Y14.3130
G01 X-24.5194 Y14.2094
G01 X-24.6230 Y14.1155
G01 X-24.7353 Y14.0322
G01 X-24.8553 Y13.9603
G01 X-24.9817 Y13.9005
G01 X-25.1133 Y13.8534
G01 X-25.2490 Y13.8194
G01 X-25.3873 Y13.7989
G01 X-25.5270 Y13.7920
G01 X-25.6667 Y13.7989
G01 X-25.8050 Y13.8194
G01 X-25.9407 Y13.8534
G01 X-26.0723 Y13.9005
G01 X-26.1987 Y13.9603
G01 X-26.3187 Y14.0322
G01 X-26.4310 Y14.1155
G01 X-26.5346 Y14.2094
G01 X-26.6285 Y14.3130
G01 X-26.7118 Y14.4253
G01 X-26.7837 Y14.5453
G01 X-26.8435 Y14.6717
G01 X-26.8906 Y14.8033
G01 X-26.9246 Y14.9390
G01 X-26.9451 Y15.0773
G01 X-26.9520 Y15.2170
G01 X-26.9451 Y15.3567
G01 X-26.9246 Y15.4950
G01 X-26.8906 Y15.6307
G01 X-26.8435 Y15.7623
G01 X-26.7837 Y15.8887
G01 X-26.7118 Y16.0087
G01 X-26.6285 Y16.1210
G01 X-26.5346 Y16.2246
G01 X-26.4310 Y16.3185
G01 X-26.3187 Y16.4018
G01 X-26.1987 Y16.4737
G01 X-26.0723 Y16.5335
G01 X-25.9407 Y16.5806
G01 X-25.8050 Y16.6146
G01 X-25.6667 Y16.6351
G01 X-25.5270 Y16.6420
G01 X-25.3873 Y16.6351
G01 X-25.2490 Y16.6146
G01 X-25.1133 Y16.5806
G01 X-24.9817 Y16.5335
G01 X-24.8553 Y16.4737
G01 X-24.7353 Y16.4018
G01 X-24.6230 Y16.3185
G01 X-24.5194 Y16.2246
G01 X-24.4255 Y16.1210
G01 X-24.3422 Y16.0087
G01 X-24.2703 Y15.8887
G01 X-24.2105 Y15.7623
G01 X-24.1634 Y15.6307
G01 X-24.1294 Y15.4950
G01 X-24.1089 Y15.3567
G01 X-24.1020 Y15.2170
G00 X-24.1020 Y15.2170
G01 F30.00
G01 Z-1.2000
G01 F200.00
G01 X-24.1089 Y15.0773
G01 X-24.1294 Y14.9390
G01 X-24.1634 Y14.8033
G01 X-24.2105 Y14.6717
G01 X-24.2703 Y14.5453
G01 X-24.3422 Y14.4253
G01 X-24.4255 Y14.3130
G01 X-24.5194 Y14.2094
G01 X-24.6230 Y14.1155
G01 X-24.7353 Y14.0322
G01 X-24.8553 Y13.9603
G01 X-24.9817 Y13.9005
G01 X-25.1133 Y13.8534
G01 X-25.2490 Y13.8194
G01 X-25.3873 Y13.7989
G01 X-25.5270 Y13.7920
G01 X-25.6667 Y13.7989
G01 X-25.8050 Y13.8194
G01 X-25.9407 Y13.8534
G01 X-26.0723 Y13.9005
G01 X-26.1987 Y13.9603
G01 X-26.3187 Y14.0322
G01 X-26.4310 Y14.1155
G01 X-26.5346 Y14.2094
G01 X-26.6285 Y14.3130
G01 X-26.7118 Y14.4253
G01 X-26.7837 Y14.5453
G01 X-26.8435 Y14.6717
G01 X-26.8906 Y14.8033
G01 X-26.9246 Y14.9390
G01 X-26.9451 Y15.0773
G01 X-26.9520 Y15.2170
G01 X-26.9451 Y15.3567
G01 X-26.9246 Y15.4950
G01 X-26.8906 Y15.6307
G01 X-26.8435 Y15.7623
G01 X-26.7837 Y15.8887
G01 X-26.7118 Y16.0087
G01 X-26.6285 Y16.1210
G01 X-26.5346 Y16.2246
G01 X-26.4310 Y16.3185
G01 X-26.3187 Y16.4018
G01 X-26.1987 Y16.4737
G01 X-26.0723 Y16.5335
G01 X-25.9407 Y16.5806
G01 X-25.8050 Y16.6146
G01 X-25.6667 Y16.6351
G01 X-25.5270 Y16.6420
G01 X-25.3873 Y16.6351
G01 X-25.2490 Y16.6146
G01 X-25.1133 Y16.5806
G01 X-24.9817 Y16.5335
G01 X-24.8553 Y16.4737
G01 X-24.7353 Y16.4018
G01 X-24.6230 Y16.3185
G01 X-24.5194 Y16.2246
G01 X-24.4255 Y16.1210
G01 X-24.3422 Y16.0087
G01 X-24.2703 Y15.8887
G01 X-24.2105 Y15.7623
G01 X-24.1634 Y15.6307
G01 X-24.1294 Y15.4950
G01 X-24.1089 Y15.3567
G01 X-24.1020 Y15.2170
G00 X-24.1020 Y15.2170
G01 F30.00
G01 Z-1.3500
G01 F200.00
G01 X-24.1089 Y15.0773
G01 X-24.1294 Y14.9390
G01 X-24.1634 Y14.8033
G01 X-24.2105 Y14.6717
G01 X-24.2703 Y14.5453
G01 X-24.3422 Y14.4253
G01 X-24.4255 Y14.3130
G01 X-24.5194 Y14.2094
G01 X-24.6230 Y14.1155
G01 X-24.7353 Y14.0322
G01 X-24.8553 Y13.9603
G01 X-24.9817 Y13.9005
G01 X-25.1133 Y13.8534
G01 X-25.2490 Y13.8194
G01 X-25.3873 Y13.7989
G01 X-25.5270 Y13.7920
G01 X-25.6667 Y13.7989
G01 X-25.8050 Y13.8194
G01 X-25.9407 Y13.8534
G01 X-26.0723 Y13.9005
G01 X-26.1987 Y13.9603
G01 X-26.3187 Y14.0322
G01 X-26.4310 Y14.1155
G01 X-26.5346 Y14.2094
G01 X-26.6285 Y14.3130
G01 X-26.7118 Y14.4253
G01 X-26.7837 Y14.5453
G01 X-26.8435 Y14.6717
G01 X-26.8906 Y14.8033
G01 X-26.9246 Y14.9390
G01 X-26.9451 Y15.0773
G01 X-26.9520 Y15.2170
G01 X-26.9451 Y15.3567
G01 X-26.9246 Y15.4950
G01 X-26.8906 Y15.6307
G01 X-26.8435 Y15.7623
G01 X-26.7837 Y15.8887
G01 X-26.7118 Y16.0087
G01 X-26.6285 Y16.1210
G01 X-26.5346 Y16.2246
G01 X-26.4310 Y16.3185
G01 X-26.3187 Y16.4018
G01 X-26.1987 Y16.4737
G01 X-26.0723 Y16.5335
G01 X-25.9407 Y16.5806
G01 X-25.8050 Y16.6146
G01 X-25.6667 Y16.6351
G01 X-25.5270 Y16.6420
G01 X-25.3873 Y16.6351
G01 X-25.2490 Y16.6146
G01 X-25.1133 Y16.5806
G01 X-24.9817 Y16.5335
G01 X-24.8553 Y16.4737
G01 X-24.7353 Y16.4018
G01 X-24.6230 Y16.3185
G01 X-24.5194 Y16.2246
G01 X-24.4255 Y16.1210
G01 X-24.3422 Y16.0087
G01 X-24.2703 Y15.8887
G01 X-24.2105 Y15.7623
G01 X-24.1634 Y15.6307
G01 X-24.1294 Y15.4950
G01 X-24.1089 Y15.3567
G01 X-24.1020 Y15.2170
G00 X-24.1020 Y15.2170
G01 F30.00
G01 Z-1.5000
G01 F200.00
G01 X-24.1089 Y15.0773
G01 X-24.1294 Y14.9390
G01 X-24.1634 Y14.8033
G01 X-24.2105 Y14.6717
G01 X-24.2703 Y14.5453
G01 X-24.3422 Y14.4253
G01 X-24.4255 Y14.3130
G01 X-24.5194 Y14.2094
G01 X-24.6230 Y14.1155
G01 X-24.7353 Y14.0322
G01 X-24.8553 Y13.9603
G01 X-24.9817 Y13.9005
G01 X-25.1133 Y13.8534
G01 X-25.2490 Y13.8194
G01 X-25.3873 Y13.7989
G01 X-25.5270 Y13.7920
G01 X-25.6667 Y13.7989
G01 X-25.8050 Y13.8194
G01 X-25.9407 Y13.8534
G01 X-26.0723 Y13.9005
G01 X-26.1987 Y13.9603
G01 X-26.3187 Y14.0322
G01 X-26.4310 Y14.1155
G01 X-26.5346 Y14.2094
G01 X-26.6285 Y14.3130
G01 X-26.7118 Y14.4253
G01 X-26.7837 Y14.5453
G01 X-26.8435 Y14.6717
G01 X-26.8906 Y14.8033
G01 X-26.9246 Y14.9390
G01 X-26.9451 Y15.0773
G01 X-26.9520 Y15.2170
G01 X-26.9451 Y15.3567
G01 X-26.9246 Y15.4950
G01 X-26.8906 Y15.6307
G01 X-26.8435 Y15.7623
G01 X-26.7837 Y15.8887
G01 X-26.7118 Y16.0087
G01 X-26.6285 Y16.1210
G01 X-26.5346 Y16.2246
G01 X-26.4310 Y16.3185
G01 X-26.3187 Y16.4018
G01 X-26.1987 Y16.4737
G01 X-26.0723 Y16.5335
G01 X-25.9407 Y16.5806
G01 X-25.8050 Y16.6146
G01 X-25.6667 Y16.6351
G01 X-25.5270 Y16.6420
G01 X-25.3873 Y16.6351
G01 X-25.2490 Y16.6146
G01 X-25.1133 Y16.5806
G01 X-24.9817 Y16.5335
G01 X-24.8553 Y16.4737
G01 X-24.7353 Y16.4018
G01 X-24.6230 Y16.3185
G01 X-24.5194 Y16.2246
G01 X-24.4255 Y16.1210
G01 X-24.3422 Y16.0087
G01 X-24.2703 Y15.8887
G01 X-24.2105 Y15.7623
G01 X-24.1634 Y15.6307
G01 X-24.1294 Y15.4950
G01 X-24.1089 Y15.3567
G01 X-24.1020 Y15.2170
G00 X-24.1020 Y15.2170
G01 F30.00
G01 Z-1.6000
G01 F200.00
G01 X-24.1089 Y15.0773
G01 X-24.1294 Y14.9390
G01 X-24.1634 Y14.8033
G01 X-24.2105 Y14.6717
G01 X-24.2703 Y14.5453
G01 X-24.3422 Y14.4253
G01 X-24.4255 Y14.3130
G01 X-24.5194 Y14.2094
G01 X-24.6230 Y14.1155
G01 X-24.7353 Y14.0322
G01 X-24.8553 Y13.9603
G01 X-24.9817 Y13.9005
G01 X-25.1133 Y13.8534
G01 X-25.2490 Y13.8194
G01 X-25.3873 Y13.7989
G01 X-25.5270 Y13.7920
G01 X-25.6667 Y13.7989
G01 X-25.8050 Y13.8194
G01 X-25.9407 Y13.8534
G01 X-26.0723 Y13.9005
G01 X-26.1987 Y13.9603
G01 X-26.3187 Y14.0322
G01 X-26.4310 Y14.1155
G01 X-26.5346 Y14.2094
G01 X-26.6285 Y14.3130
G01 X-26.7118 Y14.4253
G01 X-26.7837 Y14.5453
G01 X-26.8435 Y14.6717
G01 X-26.8906 Y14.8033
G01 X-26.9246 Y14.9390
G01 X-26.9451 Y15.0773
G01 X-26.9520 Y15.2170
G01 X-26.9451 Y15.3567
G01 X-26.9246 Y15.4950
G01 X-26.8906 Y15.6307
G01 X-26.8435 Y15.7623
G01 X-26.7837 Y15.8887
G01 X-26.7118 Y16.0087
G01 X-26.6285 Y16.1210
G01 X-26.5346 Y16.2246
G01 X-26.4310 Y16.3185
G01 X-26.3187 Y16.4018
G01 X-26.1987 Y16.4737
G01 X-26.0723 Y16.5335
G01 X-25.9407 Y16.5806
G01 X-25.8050 Y16.6146
G01 X-25.6667 Y16.6351
G01 X-25.5270 Y16.6420
G01 X-25.3873 Y16.6351
G01 X-25.2490 Y16.6146
G01 X-25.1133 Y16.5806
G01 X-24.9817 Y16.5335
G01 X-24.8553 Y16.4737
G01 X-24.7353 Y16.4018
G01 X-24.6230 Y16.3185
G01 X-24.5194 Y16.2246
G01 X-24.4255 Y16.1210
G01 X-24.3422 Y16.0087
G01 X-24.2703 Y15.8887
G01 X-24.2105 Y15.7623
G01 X-24.1634 Y15.6307
G01 X-24.1294 Y15.4950
G01 X-24.1089 Y15.3567
G01 X-24.1020 Y15.2170
G00 Z1.0000
G00 X0.7750 Y45.7200
G01 F30.00
G01 Z-0.1500
G01 F200.00
G01 X0.7713 Y45.6440
G01 X0.7601 Y45.5688
G01 X0.7416 Y45.4950
G01 X0.7160 Y45.4234
G01 X0.6835 Y45.3547
G01 X0.6444 Y45.2894
G01 X0.5991 Y45.2283
G01 X0.5480 Y45.1720
G01 X0.4917 Y45.1209
G01 X0.4306 Y45.0756
G01 X0.3653 Y45.0365
G01 X0.2966 Y45.0040
G01 X0.2250 Y44.9784
G01 X0.1512 Y44.9599
G01 X0.0760 Y44.9487
G01 X0.0000 Y44.9450
G01 X-0.0760 Y44.9487
G01 X-0.1512 Y44.9599
G01 X-0.2250 Y44.9784
G01 X-0.2966 Y45.0040
G01 X-0.3653 Y45.0365
G01 X-0.4306 Y45.0756
G01 X-0.4917 Y45.1209
G01 X-0.5480 Y45.1720
G01 X-0.5991 Y45.2283
G01 X-0.6444 Y45.2894
G01 X-0.6835 Y45.3547
G01 X-0.7160 Y45.4234
G01 X-0.7416 Y45.4950
G01 X-0.7601 Y45.5688
G01 X-0.7713 Y45.6440
G01 X-0.7750 Y45.7200
G01 X-0.7713 Y45.7960
G01 X-0.7601 Y45.8712
G01 X-0.7416 Y45.9450
G01 X-0.7160 Y46.0166
G01 X-0.6835 Y46.0853
G01 X-0.6444 Y46.1506
G01 X-0.5991 Y46.2117
G01 X-0.5480 Y46.2680
G01 X-0.4917 Y46.3191
G01 X-0.4306 Y46.3644
G01 X-0.3653 Y46.4035
G01 X-0.2966 Y46.4360
G01 X-0.2250 Y46.4616
G01 X-0.1512 Y46.4801
G01 X-0.0760 Y46.4913
G01 X-0.0000 Y46.4950
G01 X0.0760 Y46.4913
G01 X0.1512 Y46.4801
G01 X0.2250 Y46.4616
G01 X0.2966 Y46.4360
G01 X0.3653 Y46.4035
G01 X0.4306 Y46.3644
G01 X0.4917 Y46.3191
G01 X0.5480 Y46.2680
G01 X0.5991 Y46.2117
G01 X0.6444 Y46.1506
G01 X0.6835 Y46.0853
G01 X0.7160 Y46.0166
G01 X0.7416 Y45.9450
G01 X0.7601 Y45.8712
G01 X0.7713 Y45.7960
G01 X0.7750 Y45.7200
G00 X0.7750 Y45.7200
G01 F30.00
G01 Z-0.3000
G01 F200.00
G01 X0.7713 Y45.6440
G01 X0.7601 Y45.5688
G01 X0.7416 Y45.4950
G01 X0.7160 Y45.4234
G01 X0.6835 Y45.3547
G01 X0.6444 Y45.2894
G01 X0.5991 Y45.2283
G01 X0.5480 Y45.1720
G01 X0.4917 Y45.1209
G01 X0.4306 Y45.0756
G01 X0.3653 Y45.0365
G01 X0.2966 Y45.0040
G01 X0.2250 Y44.9784
G01 X0.1512 Y44.9599
G01 X0.0760 Y44.9487
G01 X0.0000 Y44.9450
G01 X-0.0760 Y44.9487
G01 X-0.1512 Y44.9599
G01 X-0.2250 Y44.9784
G01 X-0.2966 Y45.0040
G01 X-0.3653 Y45.0365
G01 X-0.4306 Y45.0756
G01 X-0.4917 Y45.1209
G01 X-0.5480 Y45.1720
G01 X-0.5991 Y45.2283
G01 X-0.6444 Y45.2894
G01 X-0.6835 Y45.3547
G01 X-0.7160 Y45.4234
G01 X-0.7416 Y45.4950
G01 X-0.7601 Y45.5688
G01 X-0.7713 Y45.6440
G01 X-0.7750 Y45.7200
G01 X-0.7713 Y45.7960
G01 X-0.7601 Y45.8712
G01 X-0.7416 Y45.9450
G01 X-0.7160 Y46.0166
G01 X-0.6835 Y46.0853
G01 X-0.6444 Y46.1506
G01 X-0.5991 Y46.2117
G01 X-0.5480 Y46.2680
G01 X-0.4917 Y46.3191
G01 X-0.4306 Y46.3644
G01 X-0.3653 Y46.4035
G01 X-0.2966 Y46.4360
G01 X-0.2250 Y46.4616
G01 X-0.1512 Y46.4801
G01 X-0.0760 Y46.4913
G01 X-0.0000 Y46.4950
G01 X0.0760 Y46.4913
G01 X0.1512 Y46.4801
G01 X0.2250 Y46.4616
G01 X0.2966 Y46.4360
G01 X0.3653 Y46.4035
G01 X0.4306 Y46.3644
G01 X0.4917 Y46.3191
G01 X0.5480 Y46.2680
G01 X0.5991 Y46.2117
G01 X0.6444 Y46.1506
G01 X0.6835 Y46.0853
G01 X0.7160 Y46.0166
G01 X0.7416 Y45.9450
G01 X0.7601 Y45.8712
G01 X0.7713 Y45.7960
G01 X0.7750 Y45.7200
G00 X0.7750 Y45.7200
G01 F30.00
G01 Z-0.4500
G01 F200.00
G01 X0.7713 Y45.6440
G01 X0.7601 Y45.5688
G01 X0.7416 Y45.4950
G01 X0.7160 Y45.4234
G01 X0.6835 Y45.3547
G01 X0.6444 Y45.2894
G01 X0.5991 Y45.2283
G01 X0.5480 Y45.1720
G01 X0.4917 Y45.1209
G01 X0.4306 Y45.0756
G01 X0.3653 Y45.0365
G01 X0.2966 Y45.0040
G01 X0.2250 Y44.9784
G01 X0.1512 Y44.9599
G01 X0.0760 Y44.9487
G01 X0.0000 Y44.9450
G01 X-0.0760 Y44.9487
G01 X-0.1512 Y44.9599
G01 X-0.2250 Y44.9784
G01 X-0.2966 Y45.0040
G01 X-0.3653 Y45.0365
G01 X-0.4306 Y45.0756
G01 X-0.4917 Y45.1209
G01 X-0.5480 Y45.1720
G01 X-0.5991 Y45.2283
G01 X-0.6444 Y45.2894
G01 X-0.6835 Y45.3547
G01 X-0.7160 Y45.4234
G01 X-0.7416 Y45.4950
G01 X-0.7601 Y45.5688
G01 X-0.7713 Y45.6440
G01 X-0.7750 Y45.7200
G01 X-0.7713 Y45.7960
G01 X-0.7601 Y45.8712
G01 X-0.7416 Y45.9450
G01 X-0.7160 Y46.0166
G01 X-0.6835 Y46.0853
G01 X-0.6444 Y46.1506
G01 X-0.5991 Y46.2117
G01 X-0.5480 Y46.2680
G01 X-0.4917 Y46.3191
G01 X-0.4306 Y46.3644
G01 X-0.3653 Y46.4035
G01 X-0.2966 Y46.4360
G01 X-0.2250 Y46.4616
G01 X-0.1512 Y46.4801
G01 X-0.0760 Y46.4913
G01 X-0.0000 Y46.4950
G01 X0.0760 Y46.4913
G01 X0.1512 Y46.4801
G01 X0.2250 Y46.4616
G01 X0.2966 Y46.4360
G01 X0.3653 Y46.4035
G01 X0.4306 Y46.3644
G01 X0.4917 Y46.3191
G01 X0.5480 Y46.2680
G01 X0.5991 Y46.2117
G01 X0.6444 Y46.1506
G01 X0.6835 Y46.0853
G01 X0.7160 Y46.0166
G01 X0.7416 Y45.9450
G01 X0.7601 Y45.8712
G01 X0.7713 Y45.7960
G01 X0.7750 Y45.7200
G00 X0.7750 Y45.7200
G01 F30.00
G01 Z-0.6000
G01 F200.00
G01 X0.7713 Y45.6440
G01 X0.7601 Y45.5688
G01 X0.7416 Y45.4950
G01 X0.7160 Y45.4234
G01 X0.6835 Y45.3547
G01 X0.6444 Y45.2894
G01 X0.5991 Y45.2283
G01 X0.5480 Y45.1720
G01 X0.4917 Y45.1209
G01 X0.4306 Y45.0756
G01 X0.3653 Y45.0365
G01 X0.2966 Y45.0040
G01 X0.2250 Y44.9784
G01 X0.1512 Y44.9599
G01 X0.0760 Y44.9487
G01 X0.0000 Y44.9450
G01 X-0.0760 Y44.9487
G01 X-0.1512 Y44.9599
G01 X-0.2250 Y44.9784
G01 X-0.2966 Y45.0040
G01 X-0.3653 Y45.0365
G01 X-0.4306 Y45.0756
G01 X-0.4917 Y45.1209
G01 X-0.5480 Y45.1720
G01 X-0.5991 Y45.2283
G01 X-0.6444 Y45.2894
G01 X-0.6835 Y45.3547
G01 X-0.7160 Y45.4234
G01 X-0.7416 Y45.4950
G01 X-0.7601 Y45.5688
G01 X-0.7713 Y45.6440
G01 X-0.7750 Y45.7200
G01 X-0.7713 Y45.7960
G01 X-0.7601 Y45.8712
G01 X-0.7416 Y45.9450
G01 X-0.7160 Y46.0166
G01 X-0.6835 Y46.0853
G01 X-0.6444 Y46.1506
G01 X-0.5991 Y46.2117
G01 X-0.5480 Y46.2680
G01 X-0.4917 Y46.3191
G01 X-0.4306 Y46.3644
G01 X-0.3653 Y46.4035
G01 X-0.2966 Y46.4360
G01 X-0.2250 Y46.4616
G01 X-0.1512 Y46.4801
G01 X-0.0760 Y46.4913
G01 X-0.0000 Y46.4950
G01 X0.0760 Y46.4913
G01 X0.1512 Y46.4801
G01 X0.2250 Y46.4616
G01 X0.2966 Y46.4360
G01 X0.3653 Y46.4035
G01 X0.4306 Y46.3644
G01 X0.4917 Y46.3191
G01 X0.5480 Y46.2680
G01 X0.5991 Y46.2117
G01 X0.6444 Y46.1506
G01 X0.6835 Y46.0853
G01 X0.7160 Y46.0166
G01 X0.7416 Y45.9450
G01 X0.7601 Y45.8712
G01 X0.7713 Y45.7960
G01 X0.7750 Y45.7200
G00 X0.7750 Y45.7200
G01 F30.00
G01 Z-0.7500
G01 F200.00
G01 X0.7713 Y45.6440
G01 X0.7601 Y45.5688
G01 X0.7416 Y45.4950
G01 X0.7160 Y45.4234
G01 X0.6835 Y45.3547
G01 X0.6444 Y45.2894
G01 X0.5991 Y45.2283
G01 X0.5480 Y45.1720
G01 X0.4917 Y45.1209
G01 X0.4306 Y45.0756
G01 X0.3653 Y45.0365
G01 X0.2966 Y45.0040
G01 X0.2250 Y44.9784
G01 X0.1512 Y44.9599
G01 X0.0760 Y44.9487
G01 X0.0000 Y44.9450
G01 X-0.0760 Y44.9487
G01 X-0.1512 Y44.9599
G01 X-0.2250 Y44.9784
G01 X-0.2966 Y45.0040
G01 X-0.3653 Y45.0365
G01 X-0.4306 Y45.0756
G01 X-0.4917 Y45.1209
G01 X-0.5480 Y45.1720
G01 X-0.5991 Y45.2283
G01 X-0.6444 Y45.2894
G01 X-0.6835 Y45.3547
G01 X-0.7160 Y45.4234
G01 X-0.7416 Y45.4950
G01 X-0.7601 Y45.5688
G01 X-0.7713 Y45.6440
G01 X-0.7750 Y45.7200
G01 X-0.7713 Y45.7960
G01 X-0.7601 Y45.8712
G01 X-0.7416 Y45.9450
G01 X-0.7160 Y46.0166
G01 X-0.6835 Y46.0853
G01 X-0.6444 Y46.1506
G01 X-0.5991 Y46.2117
G01 X-0.5480 Y46.2680
G01 X-0.4917 Y46.3191
G01 X-0.4306 Y46.3644
G01 X-0.3653 Y46.4035
G01 X-0.2966 Y46.4360
G01 X-0.2250 Y46.4616
G01 X-0.1512 Y46.4801
G01 X-0.0760 Y46.4913
G01 X-0.0000 Y46.4950
G01 X0.0760 Y46.4913
G01 X0.1512 Y46.4801
G01 X0.2250 Y46.4616
G01 X0.2966 Y46.4360
G01 X0.3653 Y46.4035
G01 X0.4306 Y46.3644
G01 X0.4917 Y46.3191
G01 X0.5480 Y46.2680
G01 X0.5991 Y46.2117
G01 X0.6444 Y46.1506
G01 X0.6835 Y46.0853
G01 X0.7160 Y46.0166
G01 X0.7416 Y45.9450
G01 X0.7601 Y45.8712
G01 X0.7713 Y45.7960
G01 X0.7750 Y45.7200
G00 X0.7750 Y45.7200
G01 F30.00
G01 Z-0.9000
G01 F200.00
G01 X0.7713 Y45.6440
G01 X0.7601 Y45.5688
G01 X0.7416 Y45.4950
G01 X0.7160 Y45.4234
G01 X0.6835 Y45.3547
G01 X0.6444 Y45.2894
G01 X0.5991 Y45.2283
G01 X0.5480 Y45.1720
G01 X0.4917 Y45.1209
G01 X0.4306 Y45.0756
G01 X0.3653 Y45.0365
G01 X0.2966 Y45.0040
G01 X0.2250 Y44.9784
G01 X0.1512 Y44.9599
G01 X0.0760 Y44.9487
G01 X0.0000 Y44.9450
G01 X-0.0760 Y44.9487
G01 X-0.1512 Y44.9599
G01 X-0.2250 Y44.9784
G01 X-0.2966 Y45.0040
G01 X-0.3653 Y45.0365
G01 X-0.4306 Y45.0756
G01 X-0.4917 Y45.1209
G01 X-0.5480 Y45.1720
G01 X-0.5991 Y45.2283
G01 X-0.6444 Y45.2894
G01 X-0.6835 Y45.3547
G01 X-0.7160 Y45.4234
G01 X-0.7416 Y45.4950
G01 X-0.7601 Y45.5688
G01 X-0.7713 Y45.6440
G01 X-0.7750 Y45.7200
G01 X-0.7713 Y45.7960
G01 X-0.7601 Y45.8712
G01 X-0.7416 Y45.9450
G01 X-0.7160 Y46.0166
G01 X-0.6835 Y46.0853
G01 X-0.6444 Y46.1506
G01 X-0.5991 Y46.2117
G01 X-0.5480 Y46.2680
G01 X-0.4917 Y46.3191
G01 X-0.4306 Y46.3644
G01 X-0.3653 Y46.4035
G01 X-0.2966 Y46.4360
G01 X-0.2250 Y46.4616
G01 X-0.1512 Y46.4801
G01 X-0.0760 Y46.4913
G01 X-0.0000 Y46.4950
G01 X0.0760 Y46.4913
G01 X0.1512 Y46.4801
G01 X0.2250 Y46.4616
G01 X0.2966 Y46.4360
G01 X0.3653 Y46.4035
G01 X0.4306 Y46.3644
G01 X0.4917 Y46.3191
G01 X0.5480 Y46.2680
G01 X0.5991 Y46.2117
G01 X0.6444 Y46.1506
G01 X0.6835 Y46.0853
G01 X0.7160 Y46.0166
G01 X0.7416 Y45.9450
G01 X0.7601 Y45.8712
G01 X0.7713 Y45.7960
G01 X0.7750 Y45.7200
G00 X0.7750 Y45.7200
G01 F30.00
G01 Z-1.0500
G01 F200.00
G01 X0.7713 Y45.6440
G01 X0.7601 Y45.5688
G01 X0.7416 Y45.4950
G01 X0.7160 Y45.4234
G01 X0.6835 Y45.3547
G01 X0.6444 Y45.2894
G01 X0.5991 Y45.2283
G01 X0.5480 Y45.1720
G01 X0.4917 Y45.1209
G01 X0.4306 Y45.0756
G01 X0.3653 Y45.0365
G01 X0.2966 Y45.0040
G01 X0.2250 Y44.9784
G01 X0.1512 Y44.9599
G01 X0.0760 Y44.9487
G01 X0.0000 Y44.9450
G01 X-0.0760 Y44.9487
G01 X-0.1512 Y44.9599
G01 X-0.2250 Y44.9784
G01 X-0.2966 Y45.0040
G01 X-0.3653 Y45.0365
G01 X-0.4306 Y45.0756
G01 X-0.4917 Y45.1209
G01 X-0.5480 Y45.1720
G01 X-0.5991 Y45.2283
G01 X-0.6444 Y45.2894
G01 X-0.6835 Y45.3547
G01 X-0.7160 Y45.4234
G01 X-0.7416 Y45.4950
G01 X-0.7601 Y45.5688
G01 X-0.7713 Y45.6440
G01 X-0.7750 Y45.7200
G01 X-0.7713 Y45.7960
G01 X-0.7601 Y45.8712
G01 X-0.7416 Y45.9450
G01 X-0.7160 Y46.0166
G01 X-0.6835 Y46.0853
G01 X-0.6444 Y46.1506
G01 X-0.5991 Y46.2117
G01 X-0.5480 Y46.2680
G01 X-0.4917 Y46.3191
G01 X-0.4306 Y46.3644
G01 X-0.3653 Y46.4035
G01 X-0.2966 Y46.4360
G01 X-0.2250 Y46.4616
G01 X-0.1512 Y46.4801
G01 X-0.0760 Y46.4913
G01 X-0.0000 Y46.4950
G01 X0.0760 Y46.4913
G01 X0.1512 Y46.4801
G01 X0.2250 Y46.4616
G01 X0.2966 Y46.4360
G01 X0.3653 Y46.4035
G01 X0.4306 Y46.3644
G01 X0.4917 Y46.3191
G01 X0.5480 Y46.2680
G01 X0.5991 Y46.2117
G01 X0.6444 Y46.1506
G01 X0.6835 Y46.0853
G01 X0.7160 Y46.0166
G01 X0.7416 Y45.9450
G01 X0.7601 Y45.8712
G01 X0.7713 Y45.7960
G01 X0.7750 Y45.7200
G00 X0.7750 Y45.7200
G01 F30.00
G01 Z-1.2000
G01 F200.00
G01 X0.7713 Y45.6440
G01 X0.7601 Y45.5688
G01 X0.7416 Y45.4950
G01 X0.7160 Y45.4234
G01 X0.6835 Y45.3547
G01 X0.6444 Y45.2894
G01 X0.5991 Y45.2283
G01 X0.5480 Y45.1720
G01 X0.4917 Y45.1209
G01 X0.4306 Y45.0756
G01 X0.3653 Y45.0365
G01 X0.2966 Y45.0040
G01 X0.2250 Y44.9784
G01 X0.1512 Y44.9599
G01 X0.0760 Y44.9487
G01 X0.0000 Y44.9450
G01 X-0.0760 Y44.9487
G01 X-0.1512 Y44.9599
G01 X-0.2250 Y44.9784
G01 X-0.2966 Y45.0040
G01 X-0.3653 Y45.0365
G01 X-0.4306 Y45.0756
G01 X-0.4917 Y45.1209
G01 X-0.5480 Y45.1720
G01 X-0.5991 Y45.2283
G01 X-0.6444 Y45.2894
G01 X-0.6835 Y45.3547
G01 X-0.7160 Y45.4234
G01 X-0.7416 Y45.4950
G01 X-0.7601 Y45.5688
G01 X-0.7713 Y45.6440
G01 X-0.7750 Y45.7200
G01 X-0.7713 Y45.7960
G01 X-0.7601 Y45.8712
G01 X-0.7416 Y45.9450
G01 X-0.7160 Y46.0166
G01 X-0.6835 Y46.0853
G01 X-0.6444 Y46.1506
G01 X-0.5991 Y46.2117
G01 X-0.5480 Y46.2680
G01 X-0.4917 Y46.3191
G01 X-0.4306 Y46.3644
G01 X-0.3653 Y46.4035
G01 X-0.2966 Y46.4360
G01 X-0.2250 Y46.4616
G01 X-0.1512 Y46.4801
G01 X-0.0760 Y46.4913
G01 X-0.0000 Y46.4950
G01 X0.0760 Y46.4913
G01 X0.1512 Y46.4801
G01 X0.2250 Y46.4616
G01 X0.2966 Y46.4360
G01 X0.3653 Y46.4035
G01 X0.4306 Y46.3644
G01 X0.4917 Y46.3191
G01 X0.5480 Y46.2680
G01 X0.5991 Y46.2117
G01 X0.6444 Y46.1506
G01 X0.6835 Y46.0853
G01 X0.7160 Y46.0166
G01 X0.7416 Y45.9450
G01 X0.7601 Y45.8712
G01 X0.7713 Y45.7960
G01 X0.7750 Y45.7200
G00 X0.7750 Y45.7200
G01 F30.00
G01 Z-1.3500
G01 F200.00
G01 X0.7713 Y45.6440
G01 X0.7601 Y45.5688
G01 X0.7416 Y45.4950
G01 X0.7160 Y45.4234
G01 X0.6835 Y45.3547
G01 X0.6444 Y45.2894
G01 X0.5991 Y45.2283
G01 X0.5480 Y45.1720
G01 X0.4917 Y45.1209
G01 X0.4306 Y45.0756
G01 X0.3653 Y45.0365
G01 X0.2966 Y45.0040
G01 X0.2250 Y44.9784
G01 X0.1512 Y44.9599
G01 X0.0760 Y44.9487
G01 X0.0000 Y44.9450
G01 X-0.0760 Y44.9487
G01 X-0.1512 Y44.9599
G01 X-0.2250 Y44.9784
G01 X-0.2966 Y45.0040
G01 X-0.3653 Y45.0365
G01 X-0.4306 Y45.0756
G01 X-0.4917 Y45.1209
G01 X-0.5480 Y45.1720
G01 X-0.5991 Y45.2283
G01 X-0.6444 Y45.2894
G01 X-0.6835 Y45.3547
G01 X-0.7160 Y45.4234
G01 X-0.7416 Y45.4950
G01 X-0.7601 Y45.5688
G01 X-0.7713 Y45.6440
G01 X-0.7750 Y45.7200
G01 X-0.7713 Y45.7960
G01 X-0.7601 Y45.8712
G01 X-0.7416 Y45.9450
G01 X-0.7160 Y46.0166
G01 X-0.6835 Y46.0853
G01 X-0.6444 Y46.1506
G01 X-0.5991 Y46.2117
G01 X-0.5480 Y46.2680
G01 X-0.4917 Y46.3191
G01 X-0.4306 Y46.3644
G01 X-0.3653 Y46.4035
G01 X-0.2966 Y46.4360
G01 X-0.2250 Y46.4616
G01 X-0.1512 Y46.4801
G01 X-0.0760 Y46.4913
G01 X-0.0000 Y46.4950
G01 X0.0760 Y46.4913
G01 X0.1512 Y46.4801
G01 X0.2250 Y46.4616
G01 X0.2966 Y46.4360
G01 X0.3653 Y46.4035
G01 X0.4306 Y46.3644
G01 X0.4917 Y46.3191
G01 X0.5480 Y46.2680
G01 X0.5991 Y46.2117
G01 X0.6444 Y46.1506
G01 X0.6835 Y46.0853
G01 X0.7160 Y46.0166
G01 X0.7416 Y45.9450
G01 X0.7601 Y45.8712
G01 X0.7713 Y45.7960
G01 X0.7750 Y45.7200
G00 X0.7750 Y45.7200
G01 F30.00
G01 Z-1.5000
G01 F200.00
G01 X0.7713 Y45.6440
G01 X0.7601 Y45.5688
G01 X0.7416 Y45.4950
G01 X0.7160 Y45.4234
G01 X0.6835 Y45.3547
G01 X0.6444 Y45.2894
G01 X0.5991 Y45.2283
G01 X0.5480 Y45.1720
G01 X0.4917 Y45.1209
G01 X0.4306 Y45.0756
G01 X0.3653 Y45.0365
G01 X0.2966 Y45.0040
G01 X0.2250 Y44.9784
G01 X0.1512 Y44.9599
G01 X0.0760 Y44.9487
G01 X0.0000 Y44.9450
G01 X-0.0760 Y44.9487
G01 X-0.1512 Y44.9599
G01 X-0.2250 Y44.9784
G01 X-0.2966 Y45.0040
G01 X-0.3653 Y45.0365
G01 X-0.4306 Y45.0756
G01 X-0.4917 Y45.1209
G01 X-0.5480 Y45.1720
G01 X-0.5991 Y45.2283
G01 X-0.6444 Y45.2894
G01 X-0.6835 Y45.3547
G01 X-0.7160 Y45.4234
G01 X-0.7416 Y45.4950
G01 X-0.7601 Y45.5688
G01 X-0.7713 Y45.6440
G01 X-0.7750 Y45.7200
G01 X-0.7713 Y45.7960
G01 X-0.7601 Y45.8712
G01 X-0.7416 Y45.9450
G01 X-0.7160 Y46.0166
G01 X-0.6835 Y46.0853
G01 X-0.6444 Y46.1506
G01 X-0.5991 Y46.2117
G01 X-0.5480 Y46.2680
G01 X-0.4917 Y46.3191
G01 X-0.4306 Y46.3644
G01 X-0.3653 Y46.4035
G01 X-0.2966 Y46.4360
G01 X-0.2250 Y46.4616
G01 X-0.1512 Y46.4801
G01 X-0.0760 Y46.4913
G01 X-0.0000 Y46.4950
G01 X0.0760 Y46.4913
G01 X0.1512 Y46.4801
G01 X0.2250 Y46.4616
G01 X0.2966 Y46.4360
G01 X0.3653 Y46.4035
G01 X0.4306 Y46.3644
G01 X0.4917 Y46.3191
G01 X0.5480 Y46.2680
G01 X0.5991 Y46.2117
G01 X0.6444 Y46.1506
G01 X0.6835 Y46.0853
G01 X0.7160 Y46.0166
G01 X0.7416 Y45.9450
G01 X0.7601 Y45.8712
G01 X0.7713 Y45.7960
G01 X0.7750 Y45.7200
G00 X0.7750 Y45.7200
G01 F30.00
G01 Z-1.6000
G01 F200.00
G01 X0.7713 Y45.6440
G01 X0.7601 Y45.5688
G01 X0.7416 Y45.4950
G01 X0.7160 Y45.4234
G01 X0.6835 Y45.3547
G01 X0.6444 Y45.2894
G01 X0.5991 Y45.2283
G01 X0.5480 Y45.1720
G01 X0.4917 Y45.1209
G01 X0.4306 Y45.0756
G01 X0.3653 Y45.0365
G01 X0.2966 Y45.0040
G01 X0.2250 Y44.9784
G01 X0.1512 Y44.9599
G01 X0.0760 Y44.9487
G01 X0.0000 Y44.9450
G01 X-0.0760 Y44.9487
G01 X-0.1512 Y44.9599
G01 X-0.2250 Y44.9784
G01 X-0.2966 Y45.0040
G01 X-0.3653 Y45.0365
G01 X-0.4306 Y45.0756
G01 X-0.4917 Y45.1209
G01 X-0.5480 Y45.1720
G01 X-0.5991 Y45.2283
G01 X-0.6444 Y45.2894
G01 X-0.6835 Y45.3547
G01 X-0.7160 Y45.4234
G01 X-0.7416 Y45.4950
G01 X-0.7601 Y45.5688
G01 X-0.7713 Y45.6440
G01 X-0.7750 Y45.7200
G01 X-0.7713 Y45.7960
G01 X-0.7601 Y45.8712
G01 X-0.7416 Y45.9450
G01 X-0.7160 Y46.0166
G01 X-0.6835 Y46.0853
G01 X-0.6444 Y46.1506
G01 X-0.5991 Y46.2117
G01 X-0.5480 Y46.2680
G01 X-0.4917 Y46.3191
G01 X-0.4306 Y46.3644
G01 X-0.3653 Y46.4035
G01 X-0.2966 Y46.4360
G01 X-0.2250 Y46.4616
G01 X-0.1512 Y46.4801
G01 X-0.0760 Y46.4913
G01 X-0.0000 Y46.4950
G01 X0.0760 Y46.4913
G01 X0.1512 Y46.4801
G01 X0.2250 Y46.4616
G01 X0.2966 Y46.4360
G01 X0.3653 Y46.4035
G01 X0.4306 Y46.3644
G01 X0.4917 Y46.3191
G01 X0.5480 Y46.2680
G01 X0.5991 Y46.2117
G01 X0.6444 Y46.1506
G01 X0.6835 Y46.0853
G01 X0.7160 Y46.0166
G01 X0.7416 Y45.9450
G01 X0.7601 Y45.8712
G01 X0.7713 Y45.7960
G01 X0.7750 Y45.7200
G00 Z1.0000
M05
G00 Z1.0000
G00 Z20.00
G00 X0.0Y0.0

