(G-CODE GENERATED BY FLATCAM v8.901 - www.flatcam.org - Version Date: 2019/01/09)

(Name: Clever_Light-Edge_Cuts.gbr_ext_iso_cnc)
(Type: G-code from Geometry)
(Units: MM)

(Created on Суббота, 17 августа 2019 at 16:00)

(TOOL DIAMETER: 0.65 mm)
(Feedrate: 200.0 mm/min)
(Feedrate_Z: 30.0 mm/min)
(Feedrate rapids 100.0 mm/min)

(Z_Cut: -1.5 mm)
(DepthPerCut: 0.15 mm <=>10 passes)
(Z_Move: 1.0 mm)
(Z Toolchange: 30.0 mm)
(X,Y Toolchange: 0.0000, 0.0000 mm)
(Z Start: None mm)
(Z End: 20.0 mm)
(Steps per circle: 64)
(Postprocessor Geometry: default)
(Spindle Speed: None RPM)

G21
G90
G94

G01 F200.00
G00 Z1.0000

M03
G4 P1
G00 X2.8899 Y-0.0098
G01 F30.00
G01 Z-0.1500
G01 F200.00
G01 X2.8735 Y-0.3040
G01 X2.8716 Y-0.3250
G01 X2.8214 Y-0.6238
G01 X2.8178 Y-0.6417
G01 X2.8126 Y-0.6621
G01 X2.7283 Y-0.9532
G01 X2.7208 Y-0.9729
G01 X2.6118 Y-1.2360
G01 X2.6032 Y-1.2552
G01 X2.5948 Y-1.2714
G01 X2.4570 Y-1.5207
G01 X2.4478 Y-1.5364
G01 X2.4361 Y-1.5539
G01 X2.2713 Y-1.7862
G01 X2.2586 Y-1.8030
G01 X2.0570 Y-2.0293
G01 X2.0445 Y-2.0425
G01 X2.0293 Y-2.0570
G01 X1.8030 Y-2.2586
G01 X1.7862 Y-2.2713
G01 X1.5539 Y-2.4361
G01 X1.5364 Y-2.4478
G01 X1.5207 Y-2.4570
G01 X1.2714 Y-2.5948
G01 X1.2552 Y-2.6032
G01 X1.2360 Y-2.6118
G01 X0.9729 Y-2.7208
G01 X0.9532 Y-2.7283
G01 X0.9358 Y-2.7338
G01 X0.6444 Y-2.8172
G01 X0.6238 Y-2.8214
G01 X0.3250 Y-2.8716
G01 X0.3040 Y-2.8735
G01 X0.0196 Y-2.8895
G01 X-0.0000 Y-2.8900
G01 X-30.8715 Y-2.8898
G01 X-31.1650 Y-2.8735
G01 X-31.1860 Y-2.8716
G01 X-31.4848 Y-2.8214
G01 X-31.5054 Y-2.8172
G01 X-31.7968 Y-2.7338
G01 X-31.8168 Y-2.7273
G01 X-32.0970 Y-2.6118
G01 X-32.1162 Y-2.6032
G01 X-32.3817 Y-2.4570
G01 X-32.3997 Y-2.4463
G01 X-32.6472 Y-2.2713
G01 X-32.6640 Y-2.2586
G01 X-32.8903 Y-2.0570
G01 X-32.9055 Y-2.0425
G01 X-33.1078 Y-1.8169
G01 X-33.1269 Y-1.7936
G01 X-33.3073 Y-1.5387
G01 X-33.3180 Y-1.5207
G01 X-33.4558 Y-1.2714
G01 X-33.4654 Y-1.2526
G01 X-33.4728 Y-1.2360
G01 X-33.5818 Y-0.9729
G01 X-33.5893 Y-0.9532
G01 X-33.6736 Y-0.6621
G01 X-33.6782 Y-0.6444
G01 X-33.6824 Y-0.6238
G01 X-33.7301 Y-0.3430
G01 X-33.7326 Y-0.3250
G01 X-33.7345 Y-0.3040
G01 X-33.7505 Y-0.0196
G01 X-33.7510 Y0.0000
G01 X-33.7510 Y45.7200
G01 X-33.7505 Y45.7396
G01 X-33.7345 Y46.0240
G01 X-33.7326 Y46.0450
G01 X-33.6824 Y46.3438
G01 X-33.6782 Y46.3644
G01 X-33.5948 Y46.6558
G01 X-33.5883 Y46.6758
G01 X-33.4728 Y46.9560
G01 X-33.4642 Y46.9752
G01 X-33.3180 Y47.2407
G01 X-33.3073 Y47.2587
G01 X-33.1323 Y47.5062
G01 X-33.1196 Y47.5230
G01 X-32.9180 Y47.7493
G01 X-32.9035 Y47.7645
G01 X-32.6779 Y47.9668
G01 X-32.6546 Y47.9859
G01 X-32.3997 Y48.1663
G01 X-32.3817 Y48.1770
G01 X-32.1324 Y48.3148
G01 X-32.1136 Y48.3244
G01 X-32.0970 Y48.3318
G01 X-31.8339 Y48.4408
G01 X-31.8142 Y48.4483
G01 X-31.5231 Y48.5326
G01 X-31.5054 Y48.5372
G01 X-31.4848 Y48.5414
G01 X-31.2040 Y48.5891
G01 X-31.1832 Y48.5920
G01 X-30.8701 Y48.6099
G01 X-0.0000 Y48.6100
G01 X0.0196 Y48.6095
G01 X0.3040 Y48.5935
G01 X0.3250 Y48.5916
G01 X0.6238 Y48.5414
G01 X0.6444 Y48.5372
G01 X0.9358 Y48.4538
G01 X0.9558 Y48.4473
G01 X1.2360 Y48.3318
G01 X1.2552 Y48.3232
G01 X1.5207 Y48.1770
G01 X1.5387 Y48.1663
G01 X1.7862 Y47.9913
G01 X1.8030 Y47.9786
G01 X2.0293 Y47.7770
G01 X2.0445 Y47.7625
G01 X2.2468 Y47.5369
G01 X2.2659 Y47.5136
G01 X2.4463 Y47.2587
G01 X2.4570 Y47.2407
G01 X2.5948 Y46.9914
G01 X2.6032 Y46.9752
G01 X2.6118 Y46.9560
G01 X2.7208 Y46.6929
G01 X2.7283 Y46.6732
G01 X2.8126 Y46.3821
G01 X2.8172 Y46.3644
G01 X2.8214 Y46.3438
G01 X2.8691 Y46.0630
G01 X2.8720 Y46.0422
G01 X2.8735 Y46.0240
G01 X2.8895 Y45.7396
G01 X2.8900 Y45.7200
G01 X2.8899 Y-0.0098
G00 X2.8899 Y-0.0098
G01 F30.00
G01 Z-0.3000
G01 F200.00
G01 X2.8735 Y-0.3040
G01 X2.8716 Y-0.3250
G01 X2.8214 Y-0.6238
G01 X2.8178 Y-0.6417
G01 X2.8126 Y-0.6621
G01 X2.7283 Y-0.9532
G01 X2.7208 Y-0.9729
G01 X2.6118 Y-1.2360
G01 X2.6032 Y-1.2552
G01 X2.5948 Y-1.2714
G01 X2.4570 Y-1.5207
G01 X2.4478 Y-1.5364
G01 X2.4361 Y-1.5539
G01 X2.2713 Y-1.7862
G01 X2.2586 Y-1.8030
G01 X2.0570 Y-2.0293
G01 X2.0445 Y-2.0425
G01 X2.0293 Y-2.0570
G01 X1.8030 Y-2.2586
G01 X1.7862 Y-2.2713
G01 X1.5539 Y-2.4361
G01 X1.5364 Y-2.4478
G01 X1.5207 Y-2.4570
G01 X1.2714 Y-2.5948
G01 X1.2552 Y-2.6032
G01 X1.2360 Y-2.6118
G01 X0.9729 Y-2.7208
G01 X0.9532 Y-2.7283
G01 X0.9358 Y-2.7338
G01 X0.6444 Y-2.8172
G01 X0.6238 Y-2.8214
G01 X0.3250 Y-2.8716
G01 X0.3040 Y-2.8735
G01 X0.0196 Y-2.8895
G01 X-0.0000 Y-2.8900
G01 X-30.8715 Y-2.8898
G01 X-31.1650 Y-2.8735
G01 X-31.1860 Y-2.8716
G01 X-31.4848 Y-2.8214
G01 X-31.5054 Y-2.8172
G01 X-31.7968 Y-2.7338
G01 X-31.8168 Y-2.7273
G01 X-32.0970 Y-2.6118
G01 X-32.1162 Y-2.6032
G01 X-32.3817 Y-2.4570
G01 X-32.3997 Y-2.4463
G01 X-32.6472 Y-2.2713
G01 X-32.6640 Y-2.2586
G01 X-32.8903 Y-2.0570
G01 X-32.9055 Y-2.0425
G01 X-33.1078 Y-1.8169
G01 X-33.1269 Y-1.7936
G01 X-33.3073 Y-1.5387
G01 X-33.3180 Y-1.5207
G01 X-33.4558 Y-1.2714
G01 X-33.4654 Y-1.2526
G01 X-33.4728 Y-1.2360
G01 X-33.5818 Y-0.9729
G01 X-33.5893 Y-0.9532
G01 X-33.6736 Y-0.6621
G01 X-33.6782 Y-0.6444
G01 X-33.6824 Y-0.6238
G01 X-33.7301 Y-0.3430
G01 X-33.7326 Y-0.3250
G01 X-33.7345 Y-0.3040
G01 X-33.7505 Y-0.0196
G01 X-33.7510 Y0.0000
G01 X-33.7510 Y45.7200
G01 X-33.7505 Y45.7396
G01 X-33.7345 Y46.0240
G01 X-33.7326 Y46.0450
G01 X-33.6824 Y46.3438
G01 X-33.6782 Y46.3644
G01 X-33.5948 Y46.6558
G01 X-33.5883 Y46.6758
G01 X-33.4728 Y46.9560
G01 X-33.4642 Y46.9752
G01 X-33.3180 Y47.2407
G01 X-33.3073 Y47.2587
G01 X-33.1323 Y47.5062
G01 X-33.1196 Y47.5230
G01 X-32.9180 Y47.7493
G01 X-32.9035 Y47.7645
G01 X-32.6779 Y47.9668
G01 X-32.6546 Y47.9859
G01 X-32.3997 Y48.1663
G01 X-32.3817 Y48.1770
G01 X-32.1324 Y48.3148
G01 X-32.1136 Y48.3244
G01 X-32.0970 Y48.3318
G01 X-31.8339 Y48.4408
G01 X-31.8142 Y48.4483
G01 X-31.5231 Y48.5326
G01 X-31.5054 Y48.5372
G01 X-31.4848 Y48.5414
G01 X-31.2040 Y48.5891
G01 X-31.1832 Y48.5920
G01 X-30.8701 Y48.6099
G01 X-0.0000 Y48.6100
G01 X0.0196 Y48.6095
G01 X0.3040 Y48.5935
G01 X0.3250 Y48.5916
G01 X0.6238 Y48.5414
G01 X0.6444 Y48.5372
G01 X0.9358 Y48.4538
G01 X0.9558 Y48.4473
G01 X1.2360 Y48.3318
G01 X1.2552 Y48.3232
G01 X1.5207 Y48.1770
G01 X1.5387 Y48.1663
G01 X1.7862 Y47.9913
G01 X1.8030 Y47.9786
G01 X2.0293 Y47.7770
G01 X2.0445 Y47.7625
G01 X2.2468 Y47.5369
G01 X2.2659 Y47.5136
G01 X2.4463 Y47.2587
G01 X2.4570 Y47.2407
G01 X2.5948 Y46.9914
G01 X2.6032 Y46.9752
G01 X2.6118 Y46.9560
G01 X2.7208 Y46.6929
G01 X2.7283 Y46.6732
G01 X2.8126 Y46.3821
G01 X2.8172 Y46.3644
G01 X2.8214 Y46.3438
G01 X2.8691 Y46.0630
G01 X2.8720 Y46.0422
G01 X2.8735 Y46.0240
G01 X2.8895 Y45.7396
G01 X2.8900 Y45.7200
G01 X2.8899 Y-0.0098
G00 X2.8899 Y-0.0098
G01 F30.00
G01 Z-0.4500
G01 F200.00
G01 X2.8735 Y-0.3040
G01 X2.8716 Y-0.3250
G01 X2.8214 Y-0.6238
G01 X2.8178 Y-0.6417
G01 X2.8126 Y-0.6621
G01 X2.7283 Y-0.9532
G01 X2.7208 Y-0.9729
G01 X2.6118 Y-1.2360
G01 X2.6032 Y-1.2552
G01 X2.5948 Y-1.2714
G01 X2.4570 Y-1.5207
G01 X2.4478 Y-1.5364
G01 X2.4361 Y-1.5539
G01 X2.2713 Y-1.7862
G01 X2.2586 Y-1.8030
G01 X2.0570 Y-2.0293
G01 X2.0445 Y-2.0425
G01 X2.0293 Y-2.0570
G01 X1.8030 Y-2.2586
G01 X1.7862 Y-2.2713
G01 X1.5539 Y-2.4361
G01 X1.5364 Y-2.4478
G01 X1.5207 Y-2.4570
G01 X1.2714 Y-2.5948
G01 X1.2552 Y-2.6032
G01 X1.2360 Y-2.6118
G01 X0.9729 Y-2.7208
G01 X0.9532 Y-2.7283
G01 X0.9358 Y-2.7338
G01 X0.6444 Y-2.8172
G01 X0.6238 Y-2.8214
G01 X0.3250 Y-2.8716
G01 X0.3040 Y-2.8735
G01 X0.0196 Y-2.8895
G01 X-0.0000 Y-2.8900
G01 X-30.8715 Y-2.8898
G01 X-31.1650 Y-2.8735
G01 X-31.1860 Y-2.8716
G01 X-31.4848 Y-2.8214
G01 X-31.5054 Y-2.8172
G01 X-31.7968 Y-2.7338
G01 X-31.8168 Y-2.7273
G01 X-32.0970 Y-2.6118
G01 X-32.1162 Y-2.6032
G01 X-32.3817 Y-2.4570
G01 X-32.3997 Y-2.4463
G01 X-32.6472 Y-2.2713
G01 X-32.6640 Y-2.2586
G01 X-32.8903 Y-2.0570
G01 X-32.9055 Y-2.0425
G01 X-33.1078 Y-1.8169
G01 X-33.1269 Y-1.7936
G01 X-33.3073 Y-1.5387
G01 X-33.3180 Y-1.5207
G01 X-33.4558 Y-1.2714
G01 X-33.4654 Y-1.2526
G01 X-33.4728 Y-1.2360
G01 X-33.5818 Y-0.9729
G01 X-33.5893 Y-0.9532
G01 X-33.6736 Y-0.6621
G01 X-33.6782 Y-0.6444
G01 X-33.6824 Y-0.6238
G01 X-33.7301 Y-0.3430
G01 X-33.7326 Y-0.3250
G01 X-33.7345 Y-0.3040
G01 X-33.7505 Y-0.0196
G01 X-33.7510 Y0.0000
G01 X-33.7510 Y45.7200
G01 X-33.7505 Y45.7396
G01 X-33.7345 Y46.0240
G01 X-33.7326 Y46.0450
G01 X-33.6824 Y46.3438
G01 X-33.6782 Y46.3644
G01 X-33.5948 Y46.6558
G01 X-33.5883 Y46.6758
G01 X-33.4728 Y46.9560
G01 X-33.4642 Y46.9752
G01 X-33.3180 Y47.2407
G01 X-33.3073 Y47.2587
G01 X-33.1323 Y47.5062
G01 X-33.1196 Y47.5230
G01 X-32.9180 Y47.7493
G01 X-32.9035 Y47.7645
G01 X-32.6779 Y47.9668
G01 X-32.6546 Y47.9859
G01 X-32.3997 Y48.1663
G01 X-32.3817 Y48.1770
G01 X-32.1324 Y48.3148
G01 X-32.1136 Y48.3244
G01 X-32.0970 Y48.3318
G01 X-31.8339 Y48.4408
G01 X-31.8142 Y48.4483
G01 X-31.5231 Y48.5326
G01 X-31.5054 Y48.5372
G01 X-31.4848 Y48.5414
G01 X-31.2040 Y48.5891
G01 X-31.1832 Y48.5920
G01 X-30.8701 Y48.6099
G01 X-0.0000 Y48.6100
G01 X0.0196 Y48.6095
G01 X0.3040 Y48.5935
G01 X0.3250 Y48.5916
G01 X0.6238 Y48.5414
G01 X0.6444 Y48.5372
G01 X0.9358 Y48.4538
G01 X0.9558 Y48.4473
G01 X1.2360 Y48.3318
G01 X1.2552 Y48.3232
G01 X1.5207 Y48.1770
G01 X1.5387 Y48.1663
G01 X1.7862 Y47.9913
G01 X1.8030 Y47.9786
G01 X2.0293 Y47.7770
G01 X2.0445 Y47.7625
G01 X2.2468 Y47.5369
G01 X2.2659 Y47.5136
G01 X2.4463 Y47.2587
G01 X2.4570 Y47.2407
G01 X2.5948 Y46.9914
G01 X2.6032 Y46.9752
G01 X2.6118 Y46.9560
G01 X2.7208 Y46.6929
G01 X2.7283 Y46.6732
G01 X2.8126 Y46.3821
G01 X2.8172 Y46.3644
G01 X2.8214 Y46.3438
G01 X2.8691 Y46.0630
G01 X2.8720 Y46.0422
G01 X2.8735 Y46.0240
G01 X2.8895 Y45.7396
G01 X2.8900 Y45.7200
G01 X2.8899 Y-0.0098
G00 X2.8899 Y-0.0098
G01 F30.00
G01 Z-0.6000
G01 F200.00
G01 X2.8735 Y-0.3040
G01 X2.8716 Y-0.3250
G01 X2.8214 Y-0.6238
G01 X2.8178 Y-0.6417
G01 X2.8126 Y-0.6621
G01 X2.7283 Y-0.9532
G01 X2.7208 Y-0.9729
G01 X2.6118 Y-1.2360
G01 X2.6032 Y-1.2552
G01 X2.5948 Y-1.2714
G01 X2.4570 Y-1.5207
G01 X2.4478 Y-1.5364
G01 X2.4361 Y-1.5539
G01 X2.2713 Y-1.7862
G01 X2.2586 Y-1.8030
G01 X2.0570 Y-2.0293
G01 X2.0445 Y-2.0425
G01 X2.0293 Y-2.0570
G01 X1.8030 Y-2.2586
G01 X1.7862 Y-2.2713
G01 X1.5539 Y-2.4361
G01 X1.5364 Y-2.4478
G01 X1.5207 Y-2.4570
G01 X1.2714 Y-2.5948
G01 X1.2552 Y-2.6032
G01 X1.2360 Y-2.6118
G01 X0.9729 Y-2.7208
G01 X0.9532 Y-2.7283
G01 X0.9358 Y-2.7338
G01 X0.6444 Y-2.8172
G01 X0.6238 Y-2.8214
G01 X0.3250 Y-2.8716
G01 X0.3040 Y-2.8735
G01 X0.0196 Y-2.8895
G01 X-0.0000 Y-2.8900
G01 X-30.8715 Y-2.8898
G01 X-31.1650 Y-2.8735
G01 X-31.1860 Y-2.8716
G01 X-31.4848 Y-2.8214
G01 X-31.5054 Y-2.8172
G01 X-31.7968 Y-2.7338
G01 X-31.8168 Y-2.7273
G01 X-32.0970 Y-2.6118
G01 X-32.1162 Y-2.6032
G01 X-32.3817 Y-2.4570
G01 X-32.3997 Y-2.4463
G01 X-32.6472 Y-2.2713
G01 X-32.6640 Y-2.2586
G01 X-32.8903 Y-2.0570
G01 X-32.9055 Y-2.0425
G01 X-33.1078 Y-1.8169
G01 X-33.1269 Y-1.7936
G01 X-33.3073 Y-1.5387
G01 X-33.3180 Y-1.5207
G01 X-33.4558 Y-1.2714
G01 X-33.4654 Y-1.2526
G01 X-33.4728 Y-1.2360
G01 X-33.5818 Y-0.9729
G01 X-33.5893 Y-0.9532
G01 X-33.6736 Y-0.6621
G01 X-33.6782 Y-0.6444
G01 X-33.6824 Y-0.6238
G01 X-33.7301 Y-0.3430
G01 X-33.7326 Y-0.3250
G01 X-33.7345 Y-0.3040
G01 X-33.7505 Y-0.0196
G01 X-33.7510 Y0.0000
G01 X-33.7510 Y45.7200
G01 X-33.7505 Y45.7396
G01 X-33.7345 Y46.0240
G01 X-33.7326 Y46.0450
G01 X-33.6824 Y46.3438
G01 X-33.6782 Y46.3644
G01 X-33.5948 Y46.6558
G01 X-33.5883 Y46.6758
G01 X-33.4728 Y46.9560
G01 X-33.4642 Y46.9752
G01 X-33.3180 Y47.2407
G01 X-33.3073 Y47.2587
G01 X-33.1323 Y47.5062
G01 X-33.1196 Y47.5230
G01 X-32.9180 Y47.7493
G01 X-32.9035 Y47.7645
G01 X-32.6779 Y47.9668
G01 X-32.6546 Y47.9859
G01 X-32.3997 Y48.1663
G01 X-32.3817 Y48.1770
G01 X-32.1324 Y48.3148
G01 X-32.1136 Y48.3244
G01 X-32.0970 Y48.3318
G01 X-31.8339 Y48.4408
G01 X-31.8142 Y48.4483
G01 X-31.5231 Y48.5326
G01 X-31.5054 Y48.5372
G01 X-31.4848 Y48.5414
G01 X-31.2040 Y48.5891
G01 X-31.1832 Y48.5920
G01 X-30.8701 Y48.6099
G01 X-0.0000 Y48.6100
G01 X0.0196 Y48.6095
G01 X0.3040 Y48.5935
G01 X0.3250 Y48.5916
G01 X0.6238 Y48.5414
G01 X0.6444 Y48.5372
G01 X0.9358 Y48.4538
G01 X0.9558 Y48.4473
G01 X1.2360 Y48.3318
G01 X1.2552 Y48.3232
G01 X1.5207 Y48.1770
G01 X1.5387 Y48.1663
G01 X1.7862 Y47.9913
G01 X1.8030 Y47.9786
G01 X2.0293 Y47.7770
G01 X2.0445 Y47.7625
G01 X2.2468 Y47.5369
G01 X2.2659 Y47.5136
G01 X2.4463 Y47.2587
G01 X2.4570 Y47.2407
G01 X2.5948 Y46.9914
G01 X2.6032 Y46.9752
G01 X2.6118 Y46.9560
G01 X2.7208 Y46.6929
G01 X2.7283 Y46.6732
G01 X2.8126 Y46.3821
G01 X2.8172 Y46.3644
G01 X2.8214 Y46.3438
G01 X2.8691 Y46.0630
G01 X2.8720 Y46.0422
G01 X2.8735 Y46.0240
G01 X2.8895 Y45.7396
G01 X2.8900 Y45.7200
G01 X2.8899 Y-0.0098
G00 X2.8899 Y-0.0098
G01 F30.00
G01 Z-0.7500
G01 F200.00
G01 X2.8735 Y-0.3040
G01 X2.8716 Y-0.3250
G01 X2.8214 Y-0.6238
G01 X2.8178 Y-0.6417
G01 X2.8126 Y-0.6621
G01 X2.7283 Y-0.9532
G01 X2.7208 Y-0.9729
G01 X2.6118 Y-1.2360
G01 X2.6032 Y-1.2552
G01 X2.5948 Y-1.2714
G01 X2.4570 Y-1.5207
G01 X2.4478 Y-1.5364
G01 X2.4361 Y-1.5539
G01 X2.2713 Y-1.7862
G01 X2.2586 Y-1.8030
G01 X2.0570 Y-2.0293
G01 X2.0445 Y-2.0425
G01 X2.0293 Y-2.0570
G01 X1.8030 Y-2.2586
G01 X1.7862 Y-2.2713
G01 X1.5539 Y-2.4361
G01 X1.5364 Y-2.4478
G01 X1.5207 Y-2.4570
G01 X1.2714 Y-2.5948
G01 X1.2552 Y-2.6032
G01 X1.2360 Y-2.6118
G01 X0.9729 Y-2.7208
G01 X0.9532 Y-2.7283
G01 X0.9358 Y-2.7338
G01 X0.6444 Y-2.8172
G01 X0.6238 Y-2.8214
G01 X0.3250 Y-2.8716
G01 X0.3040 Y-2.8735
G01 X0.0196 Y-2.8895
G01 X-0.0000 Y-2.8900
G01 X-30.8715 Y-2.8898
G01 X-31.1650 Y-2.8735
G01 X-31.1860 Y-2.8716
G01 X-31.4848 Y-2.8214
G01 X-31.5054 Y-2.8172
G01 X-31.7968 Y-2.7338
G01 X-31.8168 Y-2.7273
G01 X-32.0970 Y-2.6118
G01 X-32.1162 Y-2.6032
G01 X-32.3817 Y-2.4570
G01 X-32.3997 Y-2.4463
G01 X-32.6472 Y-2.2713
G01 X-32.6640 Y-2.2586
G01 X-32.8903 Y-2.0570
G01 X-32.9055 Y-2.0425
G01 X-33.1078 Y-1.8169
G01 X-33.1269 Y-1.7936
G01 X-33.3073 Y-1.5387
G01 X-33.3180 Y-1.5207
G01 X-33.4558 Y-1.2714
G01 X-33.4654 Y-1.2526
G01 X-33.4728 Y-1.2360
G01 X-33.5818 Y-0.9729
G01 X-33.5893 Y-0.9532
G01 X-33.6736 Y-0.6621
G01 X-33.6782 Y-0.6444
G01 X-33.6824 Y-0.6238
G01 X-33.7301 Y-0.3430
G01 X-33.7326 Y-0.3250
G01 X-33.7345 Y-0.3040
G01 X-33.7505 Y-0.0196
G01 X-33.7510 Y0.0000
G01 X-33.7510 Y45.7200
G01 X-33.7505 Y45.7396
G01 X-33.7345 Y46.0240
G01 X-33.7326 Y46.0450
G01 X-33.6824 Y46.3438
G01 X-33.6782 Y46.3644
G01 X-33.5948 Y46.6558
G01 X-33.5883 Y46.6758
G01 X-33.4728 Y46.9560
G01 X-33.4642 Y46.9752
G01 X-33.3180 Y47.2407
G01 X-33.3073 Y47.2587
G01 X-33.1323 Y47.5062
G01 X-33.1196 Y47.5230
G01 X-32.9180 Y47.7493
G01 X-32.9035 Y47.7645
G01 X-32.6779 Y47.9668
G01 X-32.6546 Y47.9859
G01 X-32.3997 Y48.1663
G01 X-32.3817 Y48.1770
G01 X-32.1324 Y48.3148
G01 X-32.1136 Y48.3244
G01 X-32.0970 Y48.3318
G01 X-31.8339 Y48.4408
G01 X-31.8142 Y48.4483
G01 X-31.5231 Y48.5326
G01 X-31.5054 Y48.5372
G01 X-31.4848 Y48.5414
G01 X-31.2040 Y48.5891
G01 X-31.1832 Y48.5920
G01 X-30.8701 Y48.6099
G01 X-0.0000 Y48.6100
G01 X0.0196 Y48.6095
G01 X0.3040 Y48.5935
G01 X0.3250 Y48.5916
G01 X0.6238 Y48.5414
G01 X0.6444 Y48.5372
G01 X0.9358 Y48.4538
G01 X0.9558 Y48.4473
G01 X1.2360 Y48.3318
G01 X1.2552 Y48.3232
G01 X1.5207 Y48.1770
G01 X1.5387 Y48.1663
G01 X1.7862 Y47.9913
G01 X1.8030 Y47.9786
G01 X2.0293 Y47.7770
G01 X2.0445 Y47.7625
G01 X2.2468 Y47.5369
G01 X2.2659 Y47.5136
G01 X2.4463 Y47.2587
G01 X2.4570 Y47.2407
G01 X2.5948 Y46.9914
G01 X2.6032 Y46.9752
G01 X2.6118 Y46.9560
G01 X2.7208 Y46.6929
G01 X2.7283 Y46.6732
G01 X2.8126 Y46.3821
G01 X2.8172 Y46.3644
G01 X2.8214 Y46.3438
G01 X2.8691 Y46.0630
G01 X2.8720 Y46.0422
G01 X2.8735 Y46.0240
G01 X2.8895 Y45.7396
G01 X2.8900 Y45.7200
G01 X2.8899 Y-0.0098
G00 X2.8899 Y-0.0098
G01 F30.00
G01 Z-0.9000
G01 F200.00
G01 X2.8735 Y-0.3040
G01 X2.8716 Y-0.3250
G01 X2.8214 Y-0.6238
G01 X2.8178 Y-0.6417
G01 X2.8126 Y-0.6621
G01 X2.7283 Y-0.9532
G01 X2.7208 Y-0.9729
G01 X2.6118 Y-1.2360
G01 X2.6032 Y-1.2552
G01 X2.5948 Y-1.2714
G01 X2.4570 Y-1.5207
G01 X2.4478 Y-1.5364
G01 X2.4361 Y-1.5539
G01 X2.2713 Y-1.7862
G01 X2.2586 Y-1.8030
G01 X2.0570 Y-2.0293
G01 X2.0445 Y-2.0425
G01 X2.0293 Y-2.0570
G01 X1.8030 Y-2.2586
G01 X1.7862 Y-2.2713
G01 X1.5539 Y-2.4361
G01 X1.5364 Y-2.4478
G01 X1.5207 Y-2.4570
G01 X1.2714 Y-2.5948
G01 X1.2552 Y-2.6032
G01 X1.2360 Y-2.6118
G01 X0.9729 Y-2.7208
G01 X0.9532 Y-2.7283
G01 X0.9358 Y-2.7338
G01 X0.6444 Y-2.8172
G01 X0.6238 Y-2.8214
G01 X0.3250 Y-2.8716
G01 X0.3040 Y-2.8735
G01 X0.0196 Y-2.8895
G01 X-0.0000 Y-2.8900
G01 X-30.8715 Y-2.8898
G01 X-31.1650 Y-2.8735
G01 X-31.1860 Y-2.8716
G01 X-31.4848 Y-2.8214
G01 X-31.5054 Y-2.8172
G01 X-31.7968 Y-2.7338
G01 X-31.8168 Y-2.7273
G01 X-32.0970 Y-2.6118
G01 X-32.1162 Y-2.6032
G01 X-32.3817 Y-2.4570
G01 X-32.3997 Y-2.4463
G01 X-32.6472 Y-2.2713
G01 X-32.6640 Y-2.2586
G01 X-32.8903 Y-2.0570
G01 X-32.9055 Y-2.0425
G01 X-33.1078 Y-1.8169
G01 X-33.1269 Y-1.7936
G01 X-33.3073 Y-1.5387
G01 X-33.3180 Y-1.5207
G01 X-33.4558 Y-1.2714
G01 X-33.4654 Y-1.2526
G01 X-33.4728 Y-1.2360
G01 X-33.5818 Y-0.9729
G01 X-33.5893 Y-0.9532
G01 X-33.6736 Y-0.6621
G01 X-33.6782 Y-0.6444
G01 X-33.6824 Y-0.6238
G01 X-33.7301 Y-0.3430
G01 X-33.7326 Y-0.3250
G01 X-33.7345 Y-0.3040
G01 X-33.7505 Y-0.0196
G01 X-33.7510 Y0.0000
G01 X-33.7510 Y45.7200
G01 X-33.7505 Y45.7396
G01 X-33.7345 Y46.0240
G01 X-33.7326 Y46.0450
G01 X-33.6824 Y46.3438
G01 X-33.6782 Y46.3644
G01 X-33.5948 Y46.6558
G01 X-33.5883 Y46.6758
G01 X-33.4728 Y46.9560
G01 X-33.4642 Y46.9752
G01 X-33.3180 Y47.2407
G01 X-33.3073 Y47.2587
G01 X-33.1323 Y47.5062
G01 X-33.1196 Y47.5230
G01 X-32.9180 Y47.7493
G01 X-32.9035 Y47.7645
G01 X-32.6779 Y47.9668
G01 X-32.6546 Y47.9859
G01 X-32.3997 Y48.1663
G01 X-32.3817 Y48.1770
G01 X-32.1324 Y48.3148
G01 X-32.1136 Y48.3244
G01 X-32.0970 Y48.3318
G01 X-31.8339 Y48.4408
G01 X-31.8142 Y48.4483
G01 X-31.5231 Y48.5326
G01 X-31.5054 Y48.5372
G01 X-31.4848 Y48.5414
G01 X-31.2040 Y48.5891
G01 X-31.1832 Y48.5920
G01 X-30.8701 Y48.6099
G01 X-0.0000 Y48.6100
G01 X0.0196 Y48.6095
G01 X0.3040 Y48.5935
G01 X0.3250 Y48.5916
G01 X0.6238 Y48.5414
G01 X0.6444 Y48.5372
G01 X0.9358 Y48.4538
G01 X0.9558 Y48.4473
G01 X1.2360 Y48.3318
G01 X1.2552 Y48.3232
G01 X1.5207 Y48.1770
G01 X1.5387 Y48.1663
G01 X1.7862 Y47.9913
G01 X1.8030 Y47.9786
G01 X2.0293 Y47.7770
G01 X2.0445 Y47.7625
G01 X2.2468 Y47.5369
G01 X2.2659 Y47.5136
G01 X2.4463 Y47.2587
G01 X2.4570 Y47.2407
G01 X2.5948 Y46.9914
G01 X2.6032 Y46.9752
G01 X2.6118 Y46.9560
G01 X2.7208 Y46.6929
G01 X2.7283 Y46.6732
G01 X2.8126 Y46.3821
G01 X2.8172 Y46.3644
G01 X2.8214 Y46.3438
G01 X2.8691 Y46.0630
G01 X2.8720 Y46.0422
G01 X2.8735 Y46.0240
G01 X2.8895 Y45.7396
G01 X2.8900 Y45.7200
G01 X2.8899 Y-0.0098
G00 X2.8899 Y-0.0098
G01 F30.00
G01 Z-1.0500
G01 F200.00
G01 X2.8735 Y-0.3040
G01 X2.8716 Y-0.3250
G01 X2.8214 Y-0.6238
G01 X2.8178 Y-0.6417
G01 X2.8126 Y-0.6621
G01 X2.7283 Y-0.9532
G01 X2.7208 Y-0.9729
G01 X2.6118 Y-1.2360
G01 X2.6032 Y-1.2552
G01 X2.5948 Y-1.2714
G01 X2.4570 Y-1.5207
G01 X2.4478 Y-1.5364
G01 X2.4361 Y-1.5539
G01 X2.2713 Y-1.7862
G01 X2.2586 Y-1.8030
G01 X2.0570 Y-2.0293
G01 X2.0445 Y-2.0425
G01 X2.0293 Y-2.0570
G01 X1.8030 Y-2.2586
G01 X1.7862 Y-2.2713
G01 X1.5539 Y-2.4361
G01 X1.5364 Y-2.4478
G01 X1.5207 Y-2.4570
G01 X1.2714 Y-2.5948
G01 X1.2552 Y-2.6032
G01 X1.2360 Y-2.6118
G01 X0.9729 Y-2.7208
G01 X0.9532 Y-2.7283
G01 X0.9358 Y-2.7338
G01 X0.6444 Y-2.8172
G01 X0.6238 Y-2.8214
G01 X0.3250 Y-2.8716
G01 X0.3040 Y-2.8735
G01 X0.0196 Y-2.8895
G01 X-0.0000 Y-2.8900
G01 X-30.8715 Y-2.8898
G01 X-31.1650 Y-2.8735
G01 X-31.1860 Y-2.8716
G01 X-31.4848 Y-2.8214
G01 X-31.5054 Y-2.8172
G01 X-31.7968 Y-2.7338
G01 X-31.8168 Y-2.7273
G01 X-32.0970 Y-2.6118
G01 X-32.1162 Y-2.6032
G01 X-32.3817 Y-2.4570
G01 X-32.3997 Y-2.4463
G01 X-32.6472 Y-2.2713
G01 X-32.6640 Y-2.2586
G01 X-32.8903 Y-2.0570
G01 X-32.9055 Y-2.0425
G01 X-33.1078 Y-1.8169
G01 X-33.1269 Y-1.7936
G01 X-33.3073 Y-1.5387
G01 X-33.3180 Y-1.5207
G01 X-33.4558 Y-1.2714
G01 X-33.4654 Y-1.2526
G01 X-33.4728 Y-1.2360
G01 X-33.5818 Y-0.9729
G01 X-33.5893 Y-0.9532
G01 X-33.6736 Y-0.6621
G01 X-33.6782 Y-0.6444
G01 X-33.6824 Y-0.6238
G01 X-33.7301 Y-0.3430
G01 X-33.7326 Y-0.3250
G01 X-33.7345 Y-0.3040
G01 X-33.7505 Y-0.0196
G01 X-33.7510 Y0.0000
G01 X-33.7510 Y45.7200
G01 X-33.7505 Y45.7396
G01 X-33.7345 Y46.0240
G01 X-33.7326 Y46.0450
G01 X-33.6824 Y46.3438
G01 X-33.6782 Y46.3644
G01 X-33.5948 Y46.6558
G01 X-33.5883 Y46.6758
G01 X-33.4728 Y46.9560
G01 X-33.4642 Y46.9752
G01 X-33.3180 Y47.2407
G01 X-33.3073 Y47.2587
G01 X-33.1323 Y47.5062
G01 X-33.1196 Y47.5230
G01 X-32.9180 Y47.7493
G01 X-32.9035 Y47.7645
G01 X-32.6779 Y47.9668
G01 X-32.6546 Y47.9859
G01 X-32.3997 Y48.1663
G01 X-32.3817 Y48.1770
G01 X-32.1324 Y48.3148
G01 X-32.1136 Y48.3244
G01 X-32.0970 Y48.3318
G01 X-31.8339 Y48.4408
G01 X-31.8142 Y48.4483
G01 X-31.5231 Y48.5326
G01 X-31.5054 Y48.5372
G01 X-31.4848 Y48.5414
G01 X-31.2040 Y48.5891
G01 X-31.1832 Y48.5920
G01 X-30.8701 Y48.6099
G01 X-0.0000 Y48.6100
G01 X0.0196 Y48.6095
G01 X0.3040 Y48.5935
G01 X0.3250 Y48.5916
G01 X0.6238 Y48.5414
G01 X0.6444 Y48.5372
G01 X0.9358 Y48.4538
G01 X0.9558 Y48.4473
G01 X1.2360 Y48.3318
G01 X1.2552 Y48.3232
G01 X1.5207 Y48.1770
G01 X1.5387 Y48.1663
G01 X1.7862 Y47.9913
G01 X1.8030 Y47.9786
G01 X2.0293 Y47.7770
G01 X2.0445 Y47.7625
G01 X2.2468 Y47.5369
G01 X2.2659 Y47.5136
G01 X2.4463 Y47.2587
G01 X2.4570 Y47.2407
G01 X2.5948 Y46.9914
G01 X2.6032 Y46.9752
G01 X2.6118 Y46.9560
G01 X2.7208 Y46.6929
G01 X2.7283 Y46.6732
G01 X2.8126 Y46.3821
G01 X2.8172 Y46.3644
G01 X2.8214 Y46.3438
G01 X2.8691 Y46.0630
G01 X2.8720 Y46.0422
G01 X2.8735 Y46.0240
G01 X2.8895 Y45.7396
G01 X2.8900 Y45.7200
G01 X2.8899 Y-0.0098
G00 X2.8899 Y-0.0098
G01 F30.00
G01 Z-1.2000
G01 F200.00
G01 X2.8735 Y-0.3040
G01 X2.8716 Y-0.3250
G01 X2.8214 Y-0.6238
G01 X2.8178 Y-0.6417
G01 X2.8126 Y-0.6621
G01 X2.7283 Y-0.9532
G01 X2.7208 Y-0.9729
G01 X2.6118 Y-1.2360
G01 X2.6032 Y-1.2552
G01 X2.5948 Y-1.2714
G01 X2.4570 Y-1.5207
G01 X2.4478 Y-1.5364
G01 X2.4361 Y-1.5539
G01 X2.2713 Y-1.7862
G01 X2.2586 Y-1.8030
G01 X2.0570 Y-2.0293
G01 X2.0445 Y-2.0425
G01 X2.0293 Y-2.0570
G01 X1.8030 Y-2.2586
G01 X1.7862 Y-2.2713
G01 X1.5539 Y-2.4361
G01 X1.5364 Y-2.4478
G01 X1.5207 Y-2.4570
G01 X1.2714 Y-2.5948
G01 X1.2552 Y-2.6032
G01 X1.2360 Y-2.6118
G01 X0.9729 Y-2.7208
G01 X0.9532 Y-2.7283
G01 X0.9358 Y-2.7338
G01 X0.6444 Y-2.8172
G01 X0.6238 Y-2.8214
G01 X0.3250 Y-2.8716
G01 X0.3040 Y-2.8735
G01 X0.0196 Y-2.8895
G01 X-0.0000 Y-2.8900
G01 X-30.8715 Y-2.8898
G01 X-31.1650 Y-2.8735
G01 X-31.1860 Y-2.8716
G01 X-31.4848 Y-2.8214
G01 X-31.5054 Y-2.8172
G01 X-31.7968 Y-2.7338
G01 X-31.8168 Y-2.7273
G01 X-32.0970 Y-2.6118
G01 X-32.1162 Y-2.6032
G01 X-32.3817 Y-2.4570
G01 X-32.3997 Y-2.4463
G01 X-32.6472 Y-2.2713
G01 X-32.6640 Y-2.2586
G01 X-32.8903 Y-2.0570
G01 X-32.9055 Y-2.0425
G01 X-33.1078 Y-1.8169
G01 X-33.1269 Y-1.7936
G01 X-33.3073 Y-1.5387
G01 X-33.3180 Y-1.5207
G01 X-33.4558 Y-1.2714
G01 X-33.4654 Y-1.2526
G01 X-33.4728 Y-1.2360
G01 X-33.5818 Y-0.9729
G01 X-33.5893 Y-0.9532
G01 X-33.6736 Y-0.6621
G01 X-33.6782 Y-0.6444
G01 X-33.6824 Y-0.6238
G01 X-33.7301 Y-0.3430
G01 X-33.7326 Y-0.3250
G01 X-33.7345 Y-0.3040
G01 X-33.7505 Y-0.0196
G01 X-33.7510 Y0.0000
G01 X-33.7510 Y45.7200
G01 X-33.7505 Y45.7396
G01 X-33.7345 Y46.0240
G01 X-33.7326 Y46.0450
G01 X-33.6824 Y46.3438
G01 X-33.6782 Y46.3644
G01 X-33.5948 Y46.6558
G01 X-33.5883 Y46.6758
G01 X-33.4728 Y46.9560
G01 X-33.4642 Y46.9752
G01 X-33.3180 Y47.2407
G01 X-33.3073 Y47.2587
G01 X-33.1323 Y47.5062
G01 X-33.1196 Y47.5230
G01 X-32.9180 Y47.7493
G01 X-32.9035 Y47.7645
G01 X-32.6779 Y47.9668
G01 X-32.6546 Y47.9859
G01 X-32.3997 Y48.1663
G01 X-32.3817 Y48.1770
G01 X-32.1324 Y48.3148
G01 X-32.1136 Y48.3244
G01 X-32.0970 Y48.3318
G01 X-31.8339 Y48.4408
G01 X-31.8142 Y48.4483
G01 X-31.5231 Y48.5326
G01 X-31.5054 Y48.5372
G01 X-31.4848 Y48.5414
G01 X-31.2040 Y48.5891
G01 X-31.1832 Y48.5920
G01 X-30.8701 Y48.6099
G01 X-0.0000 Y48.6100
G01 X0.0196 Y48.6095
G01 X0.3040 Y48.5935
G01 X0.3250 Y48.5916
G01 X0.6238 Y48.5414
G01 X0.6444 Y48.5372
G01 X0.9358 Y48.4538
G01 X0.9558 Y48.4473
G01 X1.2360 Y48.3318
G01 X1.2552 Y48.3232
G01 X1.5207 Y48.1770
G01 X1.5387 Y48.1663
G01 X1.7862 Y47.9913
G01 X1.8030 Y47.9786
G01 X2.0293 Y47.7770
G01 X2.0445 Y47.7625
G01 X2.2468 Y47.5369
G01 X2.2659 Y47.5136
G01 X2.4463 Y47.2587
G01 X2.4570 Y47.2407
G01 X2.5948 Y46.9914
G01 X2.6032 Y46.9752
G01 X2.6118 Y46.9560
G01 X2.7208 Y46.6929
G01 X2.7283 Y46.6732
G01 X2.8126 Y46.3821
G01 X2.8172 Y46.3644
G01 X2.8214 Y46.3438
G01 X2.8691 Y46.0630
G01 X2.8720 Y46.0422
G01 X2.8735 Y46.0240
G01 X2.8895 Y45.7396
G01 X2.8900 Y45.7200
G01 X2.8899 Y-0.0098
G00 X2.8899 Y-0.0098
G01 F30.00
G01 Z-1.3500
G01 F200.00
G01 X2.8735 Y-0.3040
G01 X2.8716 Y-0.3250
G01 X2.8214 Y-0.6238
G01 X2.8178 Y-0.6417
G01 X2.8126 Y-0.6621
G01 X2.7283 Y-0.9532
G01 X2.7208 Y-0.9729
G01 X2.6118 Y-1.2360
G01 X2.6032 Y-1.2552
G01 X2.5948 Y-1.2714
G01 X2.4570 Y-1.5207
G01 X2.4478 Y-1.5364
G01 X2.4361 Y-1.5539
G01 X2.2713 Y-1.7862
G01 X2.2586 Y-1.8030
G01 X2.0570 Y-2.0293
G01 X2.0445 Y-2.0425
G01 X2.0293 Y-2.0570
G01 X1.8030 Y-2.2586
G01 X1.7862 Y-2.2713
G01 X1.5539 Y-2.4361
G01 X1.5364 Y-2.4478
G01 X1.5207 Y-2.4570
G01 X1.2714 Y-2.5948
G01 X1.2552 Y-2.6032
G01 X1.2360 Y-2.6118
G01 X0.9729 Y-2.7208
G01 X0.9532 Y-2.7283
G01 X0.9358 Y-2.7338
G01 X0.6444 Y-2.8172
G01 X0.6238 Y-2.8214
G01 X0.3250 Y-2.8716
G01 X0.3040 Y-2.8735
G01 X0.0196 Y-2.8895
G01 X-0.0000 Y-2.8900
G01 X-30.8715 Y-2.8898
G01 X-31.1650 Y-2.8735
G01 X-31.1860 Y-2.8716
G01 X-31.4848 Y-2.8214
G01 X-31.5054 Y-2.8172
G01 X-31.7968 Y-2.7338
G01 X-31.8168 Y-2.7273
G01 X-32.0970 Y-2.6118
G01 X-32.1162 Y-2.6032
G01 X-32.3817 Y-2.4570
G01 X-32.3997 Y-2.4463
G01 X-32.6472 Y-2.2713
G01 X-32.6640 Y-2.2586
G01 X-32.8903 Y-2.0570
G01 X-32.9055 Y-2.0425
G01 X-33.1078 Y-1.8169
G01 X-33.1269 Y-1.7936
G01 X-33.3073 Y-1.5387
G01 X-33.3180 Y-1.5207
G01 X-33.4558 Y-1.2714
G01 X-33.4654 Y-1.2526
G01 X-33.4728 Y-1.2360
G01 X-33.5818 Y-0.9729
G01 X-33.5893 Y-0.9532
G01 X-33.6736 Y-0.6621
G01 X-33.6782 Y-0.6444
G01 X-33.6824 Y-0.6238
G01 X-33.7301 Y-0.3430
G01 X-33.7326 Y-0.3250
G01 X-33.7345 Y-0.3040
G01 X-33.7505 Y-0.0196
G01 X-33.7510 Y0.0000
G01 X-33.7510 Y45.7200
G01 X-33.7505 Y45.7396
G01 X-33.7345 Y46.0240
G01 X-33.7326 Y46.0450
G01 X-33.6824 Y46.3438
G01 X-33.6782 Y46.3644
G01 X-33.5948 Y46.6558
G01 X-33.5883 Y46.6758
G01 X-33.4728 Y46.9560
G01 X-33.4642 Y46.9752
G01 X-33.3180 Y47.2407
G01 X-33.3073 Y47.2587
G01 X-33.1323 Y47.5062
G01 X-33.1196 Y47.5230
G01 X-32.9180 Y47.7493
G01 X-32.9035 Y47.7645
G01 X-32.6779 Y47.9668
G01 X-32.6546 Y47.9859
G01 X-32.3997 Y48.1663
G01 X-32.3817 Y48.1770
G01 X-32.1324 Y48.3148
G01 X-32.1136 Y48.3244
G01 X-32.0970 Y48.3318
G01 X-31.8339 Y48.4408
G01 X-31.8142 Y48.4483
G01 X-31.5231 Y48.5326
G01 X-31.5054 Y48.5372
G01 X-31.4848 Y48.5414
G01 X-31.2040 Y48.5891
G01 X-31.1832 Y48.5920
G01 X-30.8701 Y48.6099
G01 X-0.0000 Y48.6100
G01 X0.0196 Y48.6095
G01 X0.3040 Y48.5935
G01 X0.3250 Y48.5916
G01 X0.6238 Y48.5414
G01 X0.6444 Y48.5372
G01 X0.9358 Y48.4538
G01 X0.9558 Y48.4473
G01 X1.2360 Y48.3318
G01 X1.2552 Y48.3232
G01 X1.5207 Y48.1770
G01 X1.5387 Y48.1663
G01 X1.7862 Y47.9913
G01 X1.8030 Y47.9786
G01 X2.0293 Y47.7770
G01 X2.0445 Y47.7625
G01 X2.2468 Y47.5369
G01 X2.2659 Y47.5136
G01 X2.4463 Y47.2587
G01 X2.4570 Y47.2407
G01 X2.5948 Y46.9914
G01 X2.6032 Y46.9752
G01 X2.6118 Y46.9560
G01 X2.7208 Y46.6929
G01 X2.7283 Y46.6732
G01 X2.8126 Y46.3821
G01 X2.8172 Y46.3644
G01 X2.8214 Y46.3438
G01 X2.8691 Y46.0630
G01 X2.8720 Y46.0422
G01 X2.8735 Y46.0240
G01 X2.8895 Y45.7396
G01 X2.8900 Y45.7200
G01 X2.8899 Y-0.0098
G00 X2.8899 Y-0.0098
G01 F30.00
G01 Z-1.5000
G01 F200.00
G01 X2.8735 Y-0.3040
G01 X2.8716 Y-0.3250
G01 X2.8214 Y-0.6238
G01 X2.8178 Y-0.6417
G01 X2.8126 Y-0.6621
G01 X2.7283 Y-0.9532
G01 X2.7208 Y-0.9729
G01 X2.6118 Y-1.2360
G01 X2.6032 Y-1.2552
G01 X2.5948 Y-1.2714
G01 X2.4570 Y-1.5207
G01 X2.4478 Y-1.5364
G01 X2.4361 Y-1.5539
G01 X2.2713 Y-1.7862
G01 X2.2586 Y-1.8030
G01 X2.0570 Y-2.0293
G01 X2.0445 Y-2.0425
G01 X2.0293 Y-2.0570
G01 X1.8030 Y-2.2586
G01 X1.7862 Y-2.2713
G01 X1.5539 Y-2.4361
G01 X1.5364 Y-2.4478
G01 X1.5207 Y-2.4570
G01 X1.2714 Y-2.5948
G01 X1.2552 Y-2.6032
G01 X1.2360 Y-2.6118
G01 X0.9729 Y-2.7208
G01 X0.9532 Y-2.7283
G01 X0.9358 Y-2.7338
G01 X0.6444 Y-2.8172
G01 X0.6238 Y-2.8214
G01 X0.3250 Y-2.8716
G01 X0.3040 Y-2.8735
G01 X0.0196 Y-2.8895
G01 X-0.0000 Y-2.8900
G01 X-30.8715 Y-2.8898
G01 X-31.1650 Y-2.8735
G01 X-31.1860 Y-2.8716
G01 X-31.4848 Y-2.8214
G01 X-31.5054 Y-2.8172
G01 X-31.7968 Y-2.7338
G01 X-31.8168 Y-2.7273
G01 X-32.0970 Y-2.6118
G01 X-32.1162 Y-2.6032
G01 X-32.3817 Y-2.4570
G01 X-32.3997 Y-2.4463
G01 X-32.6472 Y-2.2713
G01 X-32.6640 Y-2.2586
G01 X-32.8903 Y-2.0570
G01 X-32.9055 Y-2.0425
G01 X-33.1078 Y-1.8169
G01 X-33.1269 Y-1.7936
G01 X-33.3073 Y-1.5387
G01 X-33.3180 Y-1.5207
G01 X-33.4558 Y-1.2714
G01 X-33.4654 Y-1.2526
G01 X-33.4728 Y-1.2360
G01 X-33.5818 Y-0.9729
G01 X-33.5893 Y-0.9532
G01 X-33.6736 Y-0.6621
G01 X-33.6782 Y-0.6444
G01 X-33.6824 Y-0.6238
G01 X-33.7301 Y-0.3430
G01 X-33.7326 Y-0.3250
G01 X-33.7345 Y-0.3040
G01 X-33.7505 Y-0.0196
G01 X-33.7510 Y0.0000
G01 X-33.7510 Y45.7200
G01 X-33.7505 Y45.7396
G01 X-33.7345 Y46.0240
G01 X-33.7326 Y46.0450
G01 X-33.6824 Y46.3438
G01 X-33.6782 Y46.3644
G01 X-33.5948 Y46.6558
G01 X-33.5883 Y46.6758
G01 X-33.4728 Y46.9560
G01 X-33.4642 Y46.9752
G01 X-33.3180 Y47.2407
G01 X-33.3073 Y47.2587
G01 X-33.1323 Y47.5062
G01 X-33.1196 Y47.5230
G01 X-32.9180 Y47.7493
G01 X-32.9035 Y47.7645
G01 X-32.6779 Y47.9668
G01 X-32.6546 Y47.9859
G01 X-32.3997 Y48.1663
G01 X-32.3817 Y48.1770
G01 X-32.1324 Y48.3148
G01 X-32.1136 Y48.3244
G01 X-32.0970 Y48.3318
G01 X-31.8339 Y48.4408
G01 X-31.8142 Y48.4483
G01 X-31.5231 Y48.5326
G01 X-31.5054 Y48.5372
G01 X-31.4848 Y48.5414
G01 X-31.2040 Y48.5891
G01 X-31.1832 Y48.5920
G01 X-30.8701 Y48.6099
G01 X-0.0000 Y48.6100
G01 X0.0196 Y48.6095
G01 X0.3040 Y48.5935
G01 X0.3250 Y48.5916
G01 X0.6238 Y48.5414
G01 X0.6444 Y48.5372
G01 X0.9358 Y48.4538
G01 X0.9558 Y48.4473
G01 X1.2360 Y48.3318
G01 X1.2552 Y48.3232
G01 X1.5207 Y48.1770
G01 X1.5387 Y48.1663
G01 X1.7862 Y47.9913
G01 X1.8030 Y47.9786
G01 X2.0293 Y47.7770
G01 X2.0445 Y47.7625
G01 X2.2468 Y47.5369
G01 X2.2659 Y47.5136
G01 X2.4463 Y47.2587
G01 X2.4570 Y47.2407
G01 X2.5948 Y46.9914
G01 X2.6032 Y46.9752
G01 X2.6118 Y46.9560
G01 X2.7208 Y46.6929
G01 X2.7283 Y46.6732
G01 X2.8126 Y46.3821
G01 X2.8172 Y46.3644
G01 X2.8214 Y46.3438
G01 X2.8691 Y46.0630
G01 X2.8720 Y46.0422
G01 X2.8735 Y46.0240
G01 X2.8895 Y45.7396
G01 X2.8900 Y45.7200
G01 X2.8899 Y-0.0098
G00 Z1.0000
M05
G00 Z1.0000
G00 Z20.00
G00 X0.0Y0.0

